MCLusardi/Hand-Clap-Robot/new_data/front_five/demo_8/right_joint_trajectory_demo_8.csv
stamp_sec,stamp_nanosec,shoulder_joint_position,shoulder_joint_velocity,shoulder_joint_effort,upper_arm_joint_position,upper_arm_joint_velocity,upper_arm_joint_effort,forearm_joint_position,forearm_joint_velocity,forearm_joint_effort,wrist_1_joint_position,wrist_1_joint_velocity,wrist_1_joint_effort,wrist_2_joint_position,wrist_2_joint_velocity,wrist_2_joint_effort,wrist_3_joint_position,wrist_3_joint_velocity,wrist_3_joint_effort
761,17028808,-152.00555419921875,,0.0014713408891111,104.71931457519533,,-0.0017005987465381,-66.34764099121094,,0.0026516835205256,121.67491912841795,,0.00144320493564,119.45938110351562,,0.0005424078553915,-358.9149169921875,,0.0004452972207218
761,17028808,-142.55734252929688,,0.0030934372916817,99.50521087646484,,-0.00165581330657,-56.53755187988281,,0.002946529071778,117.81220245361328,,-0.0013043858343735,110.86276245117188,,-0.0031205220147967,-358.03546142578125,,-0.0004719901480711
761,17028808,-135.9844970703125,,0.0020457077771425,92.18087005615234,,-0.0022796734701842,-44.46778869628906,,0.0037565417587757,114.2996597290039,,-0.0010933071607723,106.53255462646484,,-0.0013474507723003,-358.553955078125,,-0.0001616287918295
761,17028808,-131.53662109375,,0.0007197991944849,85.62387084960938,,-0.0024448856711387,-33.25050354003906,,0.0041594263166189,107.66068267822266,,-0.0025890972465276,102.58629608154295,,-0.0007160262321121,-359.2193908691406,,-0.0002112864167429
761,17028808,-127.23983764648438,,0.0042496640235185,78.8124771118164,,-0.0067375735379755,-22.37535095214844,,0.0107559124007821,98.62284088134766,,-0.0089390445500612,99.08094787597656,,-0.0034673600457608,-360.0,,-0.0007712930673733
761,17028808,-123.68270874023438,,0.0003479766892269,73.52943420410156,,-0.0009520880994386,-14.935531616210938,,0.0014180929865688,89.52671813964844,,-0.0015911144437268,97.82100677490234,,0.0004066996334586,-360.0,,0.0
761,17028808,-122.70864868164062,,0.0009401650168001,68.56246948242188,,-0.004794742912054,-4.5626068115234375,,0.0100120408460497,79.04615020751953,,-0.0101160462945699,100.07942199707033,,0.0021798433735966,-360.0,,0.0
761,17028808,-122.37451171875,,3.237003329559229e-05,70.78166961669922,,0.0005977710243314,-9.091415405273438,,-0.0012448742054402,82.18904876708984,,0.0009983734926208,101.37361145019533,,0.0001265478786081,-360.0,,0.0
761,17028808,-122.31463623046876,,3.955901411245577e-05,73.40596771240234,,0.0017339041223749,-14.516342163085938,,-0.0035848065745085,87.28538513183594,,0.0033672049175947,100.22235107421876,,-0.0007601684774272,-360.0,,0.0
