MCLusardi/Hand-Clap-Robot/new_data/right_five/demo_4/left_joint_trajectory_demo_4.csv
stamp_sec,stamp_nanosec,shoulder_joint_position,shoulder_joint_velocity,shoulder_joint_effort,upper_arm_joint_position,upper_arm_joint_velocity,upper_arm_joint_effort,forearm_joint_position,forearm_joint_velocity,forearm_joint_effort,wrist_1_joint_position,wrist_1_joint_velocity,wrist_1_joint_effort,wrist_2_joint_position,wrist_2_joint_velocity,wrist_2_joint_effort,wrist_3_joint_position,wrist_3_joint_velocity,wrist_3_joint_effort
443,433319091,176.7628631591797,,0.000174293629243,84.36013793945312,,0.0003372624050825,55.35389709472656,,-0.00053364073392,70.37979888916016,,0.000581789179705,-133.83619689941406,,-0.0011183358728885,24.37887954711914,,0.0005085657467134
443,433319091,176.68101501464844,,-2.1782872863695957e-05,84.55561828613281,,-3.025398882527952e-06,55.034141540527344,,6.568424851138843e-06,70.37866973876953,,-1.0891436431847978e-05,-134.0506134033203,,5.171541488380171e-06,24.085100173950195,,-4.659114347305149e-05
443,433319091,176.4215545654297,,-9.69342581811361e-05,84.69447326660156,,5.2013128879480064e-05,54.619747161865234,,-0.0001552258036099,71.37503051757812,,0.0003732152981683,-133.5773468017578,,0.0001772795658325,23.816158294677734,,-0.0001008640174404
443,433319091,176.51736450195312,,1.6659088942105882e-05,84.76634216308594,,5.50683125766227e-06,54.5311279296875,,-8.27872736408608e-06,71.48897552490234,,2.13112525671022e-05,-133.77879333496094,,-3.902828029822558e-05,24.04920959472656,,3.616399044403806e-05
443,433319091,176.60520935058594,,2.596200283733197e-05,84.57708740234375,,-5.580760262091644e-05,54.469825744628906,,-1.808579690987244e-05,72.71687316894531,,0.000362876598956,-134.50440979003906,,-0.0002144458849215,25.146318435668945,,0.0003242252569179
443,433319091,176.00408935546875,,-0.0003214930766262,83.87613677978516,,-0.0002767136902548,55.323829650878906,,0.0003856818075291,72.93386840820312,,-1.492646424594568e-05,-132.90138244628906,,0.0008560559945181,24.76482582092285,,-0.0002376752381678
443,433319091,175.6968994140625,,-0.0001950709265656,83.58049774169922,,-0.0001873124274425,55.92702102661133,,0.0003823508741334,72.59032440185547,,-0.0002172380773117,-132.15672302246094,,0.0004720304277725,24.106969833374023,,-0.0004167424340266
443,433319091,176.02342224121094,,5.659669841406867e-05,83.59774017333984,,6.2810700001136865e-06,56.1005744934082,,2.126047183992341e-05,72.05644989013672,,-8.492224151268601e-05,-133.7481231689453,,-0.0002747211256064,24.692262649536133,,7.137670036172494e-05
443,433319091,176.06797790527344,,4.506486584432423e-05,83.6610336303711,,6.401227437891066e-05,55.99010467529297,,-0.0001114049882744,71.45738983154297,,-0.0006065382622182,-134.5261688232422,,-0.0007869082619436,23.7921199798584,,-0.0009106915676966
443,433319091,175.79222106933594,,-1.4989955161581747e-05,83.73234558105469,,1.7455749912187457e-05,55.759761810302734,,-3.497656143736094e-05,70.8618392944336,,-6.828756886534393e-05,-134.0594940185547,,8.313439320772886e-05,23.04138565063477,,1.6009778846637346e-05
443,433319091,175.8566436767578,,4.459603951545432e-05,83.78022766113281,,3.3144428016385064e-05,55.629337310791016,,-9.078074072021992e-05,70.446533203125,,-0.0002880775427911,-133.95664978027344,,7.119668589439243e-05,23.171518325805664,,9.008334018290044e-05
443,433319091,175.98077392578125,,4.1902083466993645e-05,84.09335327148438,,8.133355004247278e-05,55.07359313964844,,-0.000137329174322,70.45708465576172,,1.6558178685954772e-05,-134.18077087402344,,-6.637576734647155e-05,22.907732009887695,,-4.425050792633556e-05
443,433319091,176.08914184570312,,9.959083399735392e-05,84.32377624511719,,0.0002117607655236,54.73542022705078,,-0.0003101338515989,70.40412902832031,,-4.8207337385974824e-05,-134.3697052001953,,-0.0001735464174998,22.537179946899418,,-0.0003406651667319
443,433319091,176.18338012695312,,7.784538865962531e-06,84.68517303466797,,4.649348193197511e-05,54.2020263671875,,-6.999125616857782e-05,70.47911071777344,,1.321035233559087e-05,-134.3909149169922,,1.1860733138746582e-05,22.323627471923828,,-2.226994547527283e-05
443,433319091,176.07806396484375,,-6.994237628532574e-05,84.73125457763672,,3.072273466386832e-05,54.197410583496094,,-3.4971185414178763e-06,70.27718353271484,,-0.0001340562157565,-133.7509307861328,,0.0004266575851943,21.9464168548584,,-0.000251792545896
443,433319091,176.0950164794922,,1.016512487694854e-05,84.80207061767578,,1.4062823538552038e-05,54.11288070678711,,-1.6395953934988938e-05,70.42056274414062,,5.093542131362483e-05,-133.72337341308594,,-5.8556975091050845e-06,22.009952545166016,,3.358791582286358e-05
443,433319091,176.08746337890625,,-2.5518420443404466e-06,84.77550506591797,,-9.569407666276676e-06,54.11853790283203,,2.0634035990951816e-06,70.57303619384766,,5.563215381698683e-05,-133.7154998779297,,2.870822527256678e-06,22.100830078125,,3.315775029477663e-05
443,433319091,176.25830078125,,2.957385549962055e-05,84.88243103027344,,1.6067828255472705e-05,53.895938873291016,,-3.012604429386556e-05,70.89462280273438,,4.485413228394464e-05,-133.9011688232422,,-4.750645530293696e-05,22.19153594970703,,1.2420882740116213e-05
443,433319091,176.4237518310547,,5.217466241447255e-05,84.9454574584961,,1.9877292288583703e-05,53.78121566772461,,-3.639431452029385e-05,71.1268310546875,,7.323019963223487e-05,-134.1880340576172,,-9.04343614820391e-05,22.319486618041992,,4.035178790218197e-05
443,433319091,176.54832458496094,,7.139105036912952e-06,84.99232482910156,,-7.697518412896898e-06,53.590858459472656,,-1.979361877602059e-05,71.42369842529297,,3.837161784758791e-05,-134.35182189941406,,1.1365867976564914e-05,22.51923942565918,,2.3236456399899907e-05
443,433319091,176.5539093017578,,2.2101100967120142e-06,84.93106079101562,,-2.4267874323413707e-05,53.65595626831055,,2.5813054890022613e-05,71.29534912109375,,-5.061585397925228e-05,-134.33531188964844,,6.5436588556622155e-06,22.5269775390625,,3.0686944683111506e-06
