MCLusardi/Hand-Clap-Robot/temp_data/left_joint_trajectory_2025_10_10_14_52_04.csv
stamp_sec,stamp_nanosec,shoulder_joint_position,shoulder_joint_velocity,shoulder_joint_effort,upper_arm_joint_position,upper_arm_joint_velocity,upper_arm_joint_effort,forearm_joint_position,forearm_joint_velocity,forearm_joint_effort,wrist_1_joint_position,wrist_1_joint_velocity,wrist_1_joint_effort,wrist_2_joint_position,wrist_2_joint_velocity,wrist_2_joint_effort,wrist_3_joint_position,wrist_3_joint_velocity,wrist_3_joint_effort
223,506347656,-28.663368225097656,,0.0,33.134708404541016,,0.0,27.719554901123047,,0.0,162.0290985107422,,0.0,49.76692581176758,,0.0,-3.8603954315185547,,0.0
223,506347656,-28.663368225097656,,0.0,33.134708404541016,,0.0,27.719554901123047,,0.0,162.0290985107422,,0.0,49.76692581176758,,0.0,-3.8603954315185547,,0.0
223,506347656,-28.663368225097656,,0.0,33.134708404541016,,0.0,27.719554901123047,,0.0,162.0290985107422,,0.0,49.76692581176758,,0.0,-3.8603954315185547,,0.0
223,506347656,-28.663368225097656,,0.0,33.134708404541016,,0.0,27.719554901123047,,0.0,162.0290985107422,,0.0,49.76692581176758,,0.0,-3.8603954315185547,,0.0
223,506347656,-28.663368225097656,,0.0,33.134708404541016,,0.0,27.719554901123047,,0.0,162.0290985107422,,0.0,49.76692581176758,,0.0,-3.8603954315185547,,0.0
223,506347656,-28.663368225097656,,0.0,33.134708404541016,,0.0,27.719554901123047,,0.0,162.0290985107422,,0.0,49.76692581176758,,0.0,-3.8603954315185547,,0.0
223,506347656,-28.663368225097656,,0.0,33.134708404541016,,0.0,27.719554901123047,,0.0,162.0290985107422,,0.0,49.76692581176758,,0.0,-3.8603954315185547,,0.0
223,506347656,-28.663368225097656,,0.0,33.134708404541016,,0.0,27.719554901123047,,0.0,162.0290985107422,,0.0,49.76692581176758,,0.0,-3.8603954315185547,,0.0
223,506347656,-28.663368225097656,,0.0,33.134708404541016,,0.0,27.719554901123047,,0.0,162.0290985107422,,0.0,49.76692581176758,,0.0,-3.8603954315185547,,0.0
223,506347656,-28.663368225097656,,0.0,33.134708404541016,,0.0,27.719554901123047,,0.0,162.0290985107422,,0.0,49.76692581176758,,0.0,-3.8603954315185547,,0.0
223,506347656,-28.663368225097656,,0.0,33.134708404541016,,0.0,27.719554901123047,,0.0,162.0290985107422,,0.0,49.76692581176758,,0.0,-3.8603954315185547,,0.0
223,506347656,-28.663368225097656,,0.0,33.134708404541016,,0.0,27.719554901123047,,0.0,162.0290985107422,,0.0,49.76692581176758,,0.0,-3.8603954315185547,,0.0
223,506347656,-28.663368225097656,,0.0,33.134708404541016,,0.0,27.719554901123047,,0.0,162.0290985107422,,0.0,49.76692581176758,,0.0,-3.8603954315185547,,0.0
223,506347656,-28.663368225097656,,0.0,33.134708404541016,,0.0,27.719554901123047,,0.0,162.0290985107422,,0.0,49.76692581176758,,0.0,-3.8603954315185547,,0.0
223,506347656,-28.663368225097656,,0.0,33.134708404541016,,0.0,27.719554901123047,,0.0,162.0290985107422,,0.0,49.76692581176758,,0.0,-3.8603954315185547,,0.0
223,506347656,-28.663368225097656,,0.0,33.134708404541016,,0.0,27.719554901123047,,0.0,162.0290985107422,,0.0,49.76692581176758,,0.0,-3.8603954315185547,,0.0
223,506347656,-28.663368225097656,,0.0,33.134708404541016,,0.0,27.719554901123047,,0.0,162.0290985107422,,0.0,49.76692581176758,,0.0,-3.8603954315185547,,0.0
223,506347656,-28.663368225097656,,0.0,33.134708404541016,,0.0,27.719554901123047,,0.0,162.0290985107422,,0.0,49.76692581176758,,0.0,-3.8603954315185547,,0.0
223,506347656,-28.663368225097656,,0.0,33.134708404541016,,0.0,27.719554901123047,,0.0,162.0290985107422,,0.0,49.76692581176758,,0.0,-3.8603954315185547,,0.0
223,506347656,-28.663368225097656,,0.0,33.134708404541016,,0.0,27.719554901123047,,0.0,162.0290985107422,,0.0,49.76692581176758,,0.0,-3.8603954315185547,,0.0
223,506347656,-28.663368225097656,,0.0,33.134708404541016,,0.0,27.719554901123047,,0.0,162.0290985107422,,0.0,49.76692581176758,,0.0,-3.8603954315185547,,0.0
223,506347656,-28.663368225097656,,0.0,33.134708404541016,,0.0,27.719554901123047,,0.0,162.0290985107422,,0.0,49.76692581176758,,0.0,-3.8603954315185547,,0.0
223,506347656,-28.663368225097656,,0.0,33.134708404541016,,0.0,27.719554901123047,,0.0,162.0290985107422,,0.0,49.76692581176758,,0.0,-3.8603954315185547,,0.0
223,506347656,-28.663368225097656,,0.0,33.134708404541016,,0.0,27.719554901123047,,0.0,162.0290985107422,,0.0,49.76692581176758,,0.0,-3.8603954315185547,,0.0
223,506347656,-28.663368225097656,,0.0,33.134708404541016,,0.0,27.719554901123047,,0.0,162.0290985107422,,0.0,49.76692581176758,,0.0,-3.8603954315185547,,0.0
223,506347656,-28.663368225097656,,0.0,33.134708404541016,,0.0,27.719554901123047,,0.0,162.0290985107422,,0.0,49.76692581176758,,0.0,-3.8603954315185547,,0.0
223,506347656,-28.663368225097656,,0.0,33.134708404541016,,0.0,27.719554901123047,,0.0,162.0290985107422,,0.0,49.76692581176758,,0.0,-3.8603954315185547,,0.0
223,506347656,-28.663368225097656,,0.0,33.134708404541016,,0.0,27.719554901123047,,0.0,162.0290985107422,,0.0,49.76692581176758,,0.0,-3.8603954315185547,,0.0
223,506347656,-28.663368225097656,,0.0,33.134708404541016,,0.0,27.719554901123047,,0.0,162.0290985107422,,0.0,49.76692581176758,,0.0,-3.8603954315185547,,0.0
223,506347656,-28.663368225097656,,0.0,33.134708404541016,,0.0,27.719554901123047,,0.0,162.0290985107422,,0.0,49.76692581176758,,0.0,-3.8603954315185547,,0.0
223,506347656,-28.663368225097656,,0.0,33.134708404541016,,0.0,27.719554901123047,,0.0,162.0290985107422,,0.0,49.76692581176758,,0.0,-3.8603954315185547,,0.0
223,506347656,-28.663368225097656,,0.0,33.134708404541016,,0.0,27.719554901123047,,0.0,162.0290985107422,,0.0,49.76692581176758,,0.0,-3.8603954315185547,,0.0
223,506347656,-28.663368225097656,,0.0,33.134708404541016,,0.0,27.719554901123047,,0.0,162.0290985107422,,0.0,49.76692581176758,,0.0,-3.8603954315185547,,0.0
223,506347656,-28.663368225097656,,0.0,33.134708404541016,,0.0,27.719554901123047,,0.0,162.0290985107422,,0.0,49.76692581176758,,0.0,-3.8603954315185547,,0.0
223,506347656,-28.663368225097656,,0.0,33.134708404541016,,0.0,27.719554901123047,,0.0,162.0290985107422,,0.0,49.76692581176758,,0.0,-3.8603954315185547,,0.0
223,506347656,-28.663368225097656,,0.0,33.134708404541016,,0.0,27.719554901123047,,0.0,162.0290985107422,,0.0,49.76692581176758,,0.0,-3.8603954315185547,,0.0
223,506347656,-28.663368225097656,,0.0,33.134708404541016,,0.0,27.719554901123047,,0.0,162.0290985107422,,0.0,49.76692581176758,,0.0,-3.8603954315185547,,0.0
223,506347656,-28.663368225097656,,0.0,33.134708404541016,,0.0,27.719554901123047,,0.0,162.0290985107422,,0.0,49.76692581176758,,0.0,-3.8603954315185547,,0.0
223,506347656,-28.663368225097656,,0.0,33.134708404541016,,0.0,27.719554901123047,,0.0,162.0290985107422,,0.0,49.76692581176758,,0.0,-3.8603954315185547,,0.0
223,506347656,-28.663368225097656,,0.0,33.134708404541016,,0.0,27.719554901123047,,0.0,162.0290985107422,,0.0,49.76692581176758,,0.0,-3.8603954315185547,,0.0
223,506347656,-28.663368225097656,,0.0,33.134708404541016,,0.0,27.719554901123047,,0.0,162.0290985107422,,0.0,49.76692581176758,,0.0,-3.8603954315185547,,0.0
223,506347656,-28.663368225097656,,0.0,33.134708404541016,,0.0,27.719554901123047,,0.0,162.0290985107422,,0.0,49.76692581176758,,0.0,-3.8603954315185547,,0.0
223,506347656,-28.663368225097656,,0.0,33.134708404541016,,0.0,27.719554901123047,,0.0,162.0290985107422,,0.0,49.76692581176758,,0.0,-3.8603954315185547,,0.0
223,506347656,-28.663368225097656,,0.0,33.134708404541016,,0.0,27.719554901123047,,0.0,162.0290985107422,,0.0,49.76692581176758,,0.0,-3.8603954315185547,,0.0
223,506347656,-28.663368225097656,,0.0,33.134708404541016,,0.0,27.719554901123047,,0.0,162.0290985107422,,0.0,49.76692581176758,,0.0,-3.8603954315185547,,0.0
223,506347656,-28.663368225097656,,0.0,33.134708404541016,,0.0,27.719554901123047,,0.0,162.0290985107422,,0.0,49.76692581176758,,0.0,-3.8603954315185547,,0.0
223,506347656,-28.663368225097656,,0.0,33.134708404541016,,0.0,27.719554901123047,,0.0,162.0290985107422,,0.0,49.76692581176758,,0.0,-3.8603954315185547,,0.0
223,506347656,-28.663368225097656,,0.0,33.134708404541016,,0.0,27.719554901123047,,0.0,162.0290985107422,,0.0,49.76692581176758,,0.0,-3.8603954315185547,,0.0
223,506347656,-28.663368225097656,,0.0,33.134708404541016,,0.0,27.719554901123047,,0.0,162.0290985107422,,0.0,49.76692581176758,,0.0,-3.8603954315185547,,0.0
223,506347656,-28.663368225097656,,0.0,33.134708404541016,,0.0,27.719554901123047,,0.0,162.0290985107422,,0.0,49.76692581176758,,0.0,-3.8603954315185547,,0.0
223,506347656,-28.663368225097656,,0.0,33.134708404541016,,0.0,27.719554901123047,,0.0,162.0290985107422,,0.0,49.76692581176758,,0.0,-3.8603954315185547,,0.0
223,506347656,-28.663368225097656,,0.0,33.134708404541016,,0.0,27.719554901123047,,0.0,162.0290985107422,,0.0,49.76692581176758,,0.0,-3.8603954315185547,,0.0
223,506347656,-28.663368225097656,,0.0,33.134708404541016,,0.0,27.719554901123047,,0.0,162.0290985107422,,0.0,49.76692581176758,,0.0,-3.8603954315185547,,0.0
223,506347656,-28.663368225097656,,0.0,33.134708404541016,,0.0,27.719554901123047,,0.0,162.0290985107422,,0.0,49.76692581176758,,0.0,-3.8603954315185547,,0.0
223,506347656,-28.663368225097656,,0.0,33.134708404541016,,0.0,27.719554901123047,,0.0,162.0290985107422,,0.0,49.76692581176758,,0.0,-3.8603954315185547,,0.0
223,506347656,-28.663368225097656,,0.0,33.134708404541016,,0.0,27.719554901123047,,0.0,162.0290985107422,,0.0,49.76692581176758,,0.0,-3.8603954315185547,,0.0
223,506347656,-28.663368225097656,,0.0,33.134708404541016,,0.0,27.719554901123047,,0.0,162.0290985107422,,0.0,49.76692581176758,,0.0,-3.8603954315185547,,0.0
223,506347656,-28.663368225097656,,0.0,33.134708404541016,,0.0,27.719554901123047,,0.0,162.0290985107422,,0.0,49.76692581176758,,0.0,-3.8603954315185547,,0.0
223,506347656,-28.663368225097656,,0.0,33.134708404541016,,0.0,27.719554901123047,,0.0,162.0290985107422,,0.0,49.76692581176758,,0.0,-3.8603954315185547,,0.0
223,506347656,-28.663368225097656,,0.0,33.134708404541016,,0.0,27.719554901123047,,0.0,162.0290985107422,,0.0,49.76692581176758,,0.0,-3.8603954315185547,,0.0
223,506347656,-28.663368225097656,,0.0,33.134708404541016,,0.0,27.719554901123047,,0.0,162.0290985107422,,0.0,49.76692581176758,,0.0,-3.8603954315185547,,0.0
223,506347656,-28.663368225097656,,0.0,33.134708404541016,,0.0,27.719554901123047,,0.0,162.0290985107422,,0.0,49.76692581176758,,0.0,-3.8603954315185547,,0.0
223,506347656,-28.663368225097656,,0.0,33.134708404541016,,0.0,27.719554901123047,,0.0,162.0290985107422,,0.0,49.76692581176758,,0.0,-3.8603954315185547,,0.0
223,506347656,-28.663368225097656,,0.0,33.134708404541016,,0.0,27.719554901123047,,0.0,162.0290985107422,,0.0,49.76692581176758,,0.0,-3.8603954315185547,,0.0
223,506347656,-28.663368225097656,,0.0,33.134708404541016,,0.0,27.719554901123047,,0.0,162.0290985107422,,0.0,49.76692581176758,,0.0,-3.8603954315185547,,0.0
223,506347656,-28.663368225097656,,0.0,33.134708404541016,,0.0,27.719554901123047,,0.0,162.0290985107422,,0.0,49.76692581176758,,0.0,-3.8603954315185547,,0.0
223,506347656,-28.663368225097656,,0.0,33.134708404541016,,0.0,27.719554901123047,,0.0,162.0290985107422,,0.0,49.76692581176758,,0.0,-3.8603954315185547,,0.0
223,506347656,-28.663368225097656,,0.0,33.134708404541016,,0.0,27.719554901123047,,0.0,162.0290985107422,,0.0,49.76692581176758,,0.0,-3.8603954315185547,,0.0
223,506347656,-28.663368225097656,,0.0,33.134708404541016,,0.0,27.719554901123047,,0.0,162.0290985107422,,0.0,49.76692581176758,,0.0,-3.8603954315185547,,0.0
223,506347656,-28.663368225097656,,0.0,33.134708404541016,,0.0,27.719554901123047,,0.0,162.0290985107422,,0.0,49.76692581176758,,0.0,-3.8603954315185547,,0.0
223,506347656,-28.663368225097656,,0.0,33.134708404541016,,0.0,27.719554901123047,,0.0,162.0290985107422,,0.0,49.76692581176758,,0.0,-3.8603954315185547,,0.0
223,506347656,-28.663368225097656,,0.0,33.134708404541016,,0.0,27.719554901123047,,0.0,162.0290985107422,,0.0,49.76692581176758,,0.0,-3.8603954315185547,,0.0
223,506347656,-28.663368225097656,,0.0,33.134708404541016,,0.0,27.719554901123047,,0.0,162.0290985107422,,0.0,49.76692581176758,,0.0,-3.8603954315185547,,0.0
223,506347656,-28.663368225097656,,0.0,33.134708404541016,,0.0,27.719554901123047,,0.0,162.0290985107422,,0.0,49.76692581176758,,0.0,-3.8603954315185547,,0.0
223,506347656,-28.663368225097656,,0.0,33.134708404541016,,0.0,27.719554901123047,,0.0,162.0290985107422,,0.0,49.76692581176758,,0.0,-3.8603954315185547,,0.0
223,506347656,-28.663368225097656,,0.0,33.134708404541016,,0.0,27.719554901123047,,0.0,162.0290985107422,,0.0,49.76692581176758,,0.0,-3.8603954315185547,,0.0
223,506347656,-28.663368225097656,,0.0,33.134708404541016,,0.0,27.719554901123047,,0.0,162.0290985107422,,0.0,49.76692581176758,,0.0,-3.8603954315185547,,0.0
223,506347656,-28.663368225097656,,0.0,33.134708404541016,,0.0,27.719554901123047,,0.0,162.0290985107422,,0.0,49.76692581176758,,0.0,-3.8603954315185547,,0.0
223,506347656,-28.663368225097656,,0.0,33.134708404541016,,0.0,27.719554901123047,,0.0,162.0290985107422,,0.0,49.76692581176758,,0.0,-3.8603954315185547,,0.0
223,506347656,-28.663368225097656,,0.0,33.134708404541016,,0.0,27.719554901123047,,0.0,162.0290985107422,,0.0,49.76692581176758,,0.0,-3.8603954315185547,,0.0
223,506347656,-28.663368225097656,,0.0,33.134708404541016,,0.0,27.719554901123047,,0.0,162.0290985107422,,0.0,49.76692581176758,,0.0,-3.8603954315185547,,0.0
223,506347656,-28.663368225097656,,0.0,33.134708404541016,,0.0,27.719554901123047,,0.0,162.0290985107422,,0.0,49.76692581176758,,0.0,-3.8603954315185547,,0.0
223,506347656,-28.663368225097656,,0.0,33.134708404541016,,0.0,27.719554901123047,,0.0,162.0290985107422,,0.0,49.76692581176758,,0.0,-3.8603954315185547,,0.0
223,506347656,-28.663368225097656,,0.0,33.134708404541016,,0.0,27.719554901123047,,0.0,162.0290985107422,,0.0,49.76692581176758,,0.0,-3.8603954315185547,,0.0
223,506347656,-28.663368225097656,,0.0,33.134708404541016,,0.0,27.719554901123047,,0.0,162.0290985107422,,0.0,49.76692581176758,,0.0,-3.8603954315185547,,0.0
223,506347656,-28.663368225097656,,0.0,33.134708404541016,,0.0,27.719554901123047,,0.0,162.0290985107422,,0.0,49.76692581176758,,0.0,-3.8603954315185547,,0.0
223,506347656,-28.663368225097656,,0.0,33.134708404541016,,0.0,27.719554901123047,,0.0,162.0290985107422,,0.0,49.76692581176758,,0.0,-3.8603954315185547,,0.0
223,506347656,-28.663368225097656,,0.0,33.134708404541016,,0.0,27.719554901123047,,0.0,162.0290985107422,,0.0,49.76692581176758,,0.0,-3.8603954315185547,,0.0
223,506347656,-28.663368225097656,,0.0,33.134708404541016,,0.0,27.719554901123047,,0.0,162.0290985107422,,0.0,49.76692581176758,,0.0,-3.8603954315185547,,0.0
223,506347656,-28.663368225097656,,0.0,33.134708404541016,,0.0,27.719554901123047,,0.0,162.0290985107422,,0.0,49.76692581176758,,0.0,-3.8603954315185547,,0.0
223,506347656,-28.663368225097656,,0.0,33.134708404541016,,0.0,27.719554901123047,,0.0,162.0290985107422,,0.0,49.76692581176758,,0.0,-3.8603954315185547,,0.0
223,506347656,-28.663368225097656,,0.0,33.134708404541016,,0.0,27.719554901123047,,0.0,162.0290985107422,,0.0,49.76692581176758,,0.0,-3.8603954315185547,,0.0
223,506347656,-28.663368225097656,,0.0,33.134708404541016,,0.0,27.719554901123047,,0.0,162.0290985107422,,0.0,49.76692581176758,,0.0,-3.8603954315185547,,0.0
223,506347656,-28.663368225097656,,0.0,33.134708404541016,,0.0,27.719554901123047,,0.0,162.0290985107422,,0.0,49.76692581176758,,0.0,-3.8603954315185547,,0.0
223,506347656,-28.663368225097656,,0.0,33.134708404541016,,0.0,27.719554901123047,,0.0,162.0290985107422,,0.0,49.76692581176758,,0.0,-3.8603954315185547,,0.0
223,506347656,-28.663368225097656,,0.0,33.134708404541016,,0.0,27.719554901123047,,0.0,162.0290985107422,,0.0,49.76692581176758,,0.0,-3.8603954315185547,,0.0
223,506347656,-28.663368225097656,,0.0,33.134708404541016,,0.0,27.719554901123047,,0.0,162.0290985107422,,0.0,49.76692581176758,,0.0,-3.8603954315185547,,0.0
223,506347656,-28.663368225097656,,0.0,33.134708404541016,,0.0,27.719554901123047,,0.0,162.0290985107422,,0.0,49.76692581176758,,0.0,-3.8603954315185547,,0.0
223,506347656,-28.663368225097656,,0.0,33.134708404541016,,0.0,27.719554901123047,,0.0,162.0290985107422,,0.0,49.76692581176758,,0.0,-3.8603954315185547,,0.0
223,506347656,-28.663368225097656,,0.0,33.134708404541016,,0.0,27.719554901123047,,0.0,162.0290985107422,,0.0,49.76692581176758,,0.0,-3.8603954315185547,,0.0
223,506347656,-28.663368225097656,,0.0,33.134708404541016,,0.0,27.719554901123047,,0.0,162.0290985107422,,0.0,49.76692581176758,,0.0,-3.8603954315185547,,0.0
223,506347656,-28.663368225097656,,0.0,33.134708404541016,,0.0,27.719554901123047,,0.0,162.0290985107422,,0.0,49.76692581176758,,0.0,-3.8603954315185547,,0.0
223,506347656,-28.663368225097656,,0.0,33.134708404541016,,0.0,27.719554901123047,,0.0,162.0290985107422,,0.0,49.76692581176758,,0.0,-3.8603954315185547,,0.0
223,506347656,-28.663368225097656,,0.0,33.134708404541016,,0.0,27.719554901123047,,0.0,162.0290985107422,,0.0,49.76692581176758,,0.0,-3.8603954315185547,,0.0
223,506347656,-28.663368225097656,,0.0,33.134708404541016,,0.0,27.719554901123047,,0.0,162.0290985107422,,0.0,49.76692581176758,,0.0,-3.8603954315185547,,0.0
223,506347656,-28.663368225097656,,0.0,33.134708404541016,,0.0,27.719554901123047,,0.0,162.0290985107422,,0.0,49.76692581176758,,0.0,-3.8603954315185547,,0.0
223,506347656,-28.663368225097656,,0.0,33.134708404541016,,0.0,27.719554901123047,,0.0,162.0290985107422,,0.0,49.76692581176758,,0.0,-3.8603954315185547,,0.0
223,506347656,-28.663368225097656,,0.0,33.134708404541016,,0.0,27.719554901123047,,0.0,162.0290985107422,,0.0,49.76692581176758,,0.0,-3.8603954315185547,,0.0
223,506347656,-28.663368225097656,,0.0,33.134708404541016,,0.0,27.719554901123047,,0.0,162.0290985107422,,0.0,49.76692581176758,,0.0,-3.8603954315185547,,0.0
223,506347656,-28.663368225097656,,0.0,33.134708404541016,,0.0,27.719554901123047,,0.0,162.0290985107422,,0.0,49.76692581176758,,0.0,-3.8603954315185547,,0.0
223,506347656,-28.663368225097656,,0.0,33.134708404541016,,0.0,27.719554901123047,,0.0,162.0290985107422,,0.0,49.76692581176758,,0.0,-3.8603954315185547,,0.0
223,506347656,-28.663368225097656,,0.0,33.134708404541016,,0.0,27.719554901123047,,0.0,162.0290985107422,,0.0,49.76692581176758,,0.0,-3.8603954315185547,,0.0
223,506347656,-28.663368225097656,,0.0,33.134708404541016,,0.0,27.719554901123047,,0.0,162.0290985107422,,0.0,49.76692581176758,,0.0,-3.8603954315185547,,0.0
223,506347656,-28.663368225097656,,0.0,33.134708404541016,,0.0,27.719554901123047,,0.0,162.0290985107422,,0.0,49.76692581176758,,0.0,-3.8603954315185547,,0.0
223,506347656,-28.663368225097656,,0.0,33.134708404541016,,0.0,27.719554901123047,,0.0,162.0290985107422,,0.0,49.76692581176758,,0.0,-3.8603954315185547,,0.0
223,506347656,-28.663368225097656,,0.0,33.134708404541016,,0.0,27.719554901123047,,0.0,162.0290985107422,,0.0,49.76692581176758,,0.0,-3.8603954315185547,,0.0
223,506347656,-28.663368225097656,,0.0,33.134708404541016,,0.0,27.719554901123047,,0.0,162.0290985107422,,0.0,49.76692581176758,,0.0,-3.8603954315185547,,0.0
223,506347656,-28.663368225097656,,0.0,33.134708404541016,,0.0,27.719554901123047,,0.0,162.0290985107422,,0.0,49.76692581176758,,0.0,-3.8603954315185547,,0.0
223,506347656,-28.663368225097656,,0.0,33.134708404541016,,0.0,27.719554901123047,,0.0,162.0290985107422,,0.0,49.76692581176758,,0.0,-3.8603954315185547,,0.0
223,506347656,-28.663368225097656,,0.0,33.134708404541016,,0.0,27.719554901123047,,0.0,162.0290985107422,,0.0,49.76692581176758,,0.0,-3.8603954315185547,,0.0
223,506347656,-28.663368225097656,,0.0,33.134708404541016,,0.0,27.719554901123047,,0.0,162.0290985107422,,0.0,49.76692581176758,,0.0,-3.8603954315185547,,0.0
223,506347656,-28.663368225097656,,0.0,33.134708404541016,,0.0,27.719554901123047,,0.0,162.0290985107422,,0.0,49.76692581176758,,0.0,-3.8603954315185547,,0.0
223,506347656,-28.663368225097656,,0.0,33.134708404541016,,0.0,27.719554901123047,,0.0,162.0290985107422,,0.0,49.76692581176758,,0.0,-3.8603954315185547,,0.0
223,506347656,-28.663368225097656,,0.0,33.134708404541016,,0.0,27.719554901123047,,0.0,162.0290985107422,,0.0,49.76692581176758,,0.0,-3.8603954315185547,,0.0
223,506347656,-28.663368225097656,,0.0,33.134708404541016,,0.0,27.719554901123047,,0.0,162.0290985107422,,0.0,49.76692581176758,,0.0,-3.8603954315185547,,0.0
223,506347656,-18.43799591064453,,0.004461661912500858,25.024391174316406,,-0.003538514720275998,56.05955123901367,,0.012365661561489105,110.23188018798828,,-0.02260056510567665,60.731319427490234,,0.0047841197811067104,131.4601593017578,,0.05904475599527359
223,506347656,-18.55536651611328,,0.0001152141485363245,26.567930221557617,,0.0002452922344673425,53.046451568603516,,-0.00046558797475881875,110.74327087402344,,0.0002287699026055634,60.82048034667969,,-9.600265184417367e-05,132.46957397460938,,5.646140198223293e-05
223,506347656,-18.398109436035156,,9.931733802659437e-05,27.286632537841797,,0.00045390595914795995,51.28220748901367,,-0.0011142435250803828,111.93875885009766,,0.0007550253067165613,60.740962982177734,,-4.969371730112471e-05,132.46011352539062,,-5.521524144569412e-06
223,506347656,-17.46271514892578,,0.00027494484675116837,27.693567276000977,,8.917873492464423e-05,49.926658630371094,,-0.00034021251485683024,113.01073455810547,,0.0002899439714383334,50.642860412597656,,-0.0031125361565500498,120.21472930908203,,-0.0038125573191791773
223,506347656,-14.762489318847656,,0.0014761231141164899,34.171844482421875,,0.003541455836966634,29.669857025146484,,-0.011073658242821693,154.89442443847656,,0.022896410897374153,35.14949035644531,,-0.008469890803098679,15.036641120910645,,-0.05749700218439102
223,506347656,-17.57312774658203,,-0.000848389056045562,27.101877212524414,,-0.0020034797489643097,43.06792449951172,,0.0039043771103024483,145.28082275390625,,-0.003806306514889002,57.79779052734375,,0.003754262812435627,-22.26803970336914,,-0.004573061130940914
223,506347656,-18.01105499267578,,-0.00034990854328498244,30.482749938964844,,0.002706266473978758,34.61539077758789,,-0.0067658317275345325,158.1884765625,,0.010332111269235611,51.32957077026367,,-0.005177246872335672,-20.69925308227539,,0.0012557562440633774
223,506347656,-18.099830627441406,,1.0998552170349285e-05,30.020740509033203,,-0.00023574838996864855,35.54348373413086,,0.00047758538858033717,156.4677734375,,-0.0006988528766669333,50.678932189941406,,-0.00022277841344475746,-24.09195327758789,,-0.0002922059502452612
223,506347656,-18.031532287597656,,5.279688411974348e-05,29.825965881347656,,-0.00015003512089606375,35.96128463745117,,0.00032297204597853124,155.75926208496094,,-0.0005474254721775651,50.523895263671875,,-0.00012029843492200598,-23.57248306274414,,0.0004015681042801589
223,506347656,-18.034889221191406,,-1.5258796111083939e-06,29.725933074951172,,-4.577638719638344e-06,36.03506088256836,,-6.408694025594741e-05,155.73617553710938,,0.00017547019524499774,50.631378173828125,,9.246025729225948e-05,-22.283390045166016,,0.000221961090574041
223,506347656,-17.920204162597656,,8.764721860643476e-05,29.742687225341797,,1.2804396646970417e-05,35.66157531738281,,-0.00028596658376045525,156.33792114257812,,0.0004598829837050289,50.50899887084961,,-9.354048233944923e-05,-22.371158599853516,,-6.681462400592864e-05
223,506347656,-17.559120178222656,,0.00014576884859707206,30.061155319213867,,0.00011882131366292015,34.41880798339844,,-0.00040342804277315736,157.90921020507812,,0.0004742290184367448,50.62091827392578,,0.00013443868374451995,-21.864200592041016,,0.0002767378173302859
223,506347656,-17.234596252441406,,9.981750190490857e-05,29.68427085876465,,-0.00011616777919698507,34.964717864990234,,0.0001679113629506901,156.80783081054688,,-0.00033882271964102983,50.87472915649414,,7.806703797541559e-05,-20.97073745727539,,0.0002748123661149293
223,506347656,-17.314613342285156,,-4.915381578030065e-05,29.90133285522461,,0.00017142179422080517,34.351715087890625,,-0.0004412920097820461,157.6720428466797,,0.0006474052206613123,51.73434066772461,,0.00040589660056866705,-21.25644302368164,,-0.0001878767943708226
223,506347656,-18.382972717285156,,-0.000466156197944656,44.89448547363281,,0.006541999988257885,4.748313903808594,,-0.012916570529341698,179.31979370117188,,0.009445611387491226,52.70398712158203,,0.0004230888735037297,-23.161319732666016,,-0.0008308414835482836
223,506347656,130.3966064453125,,2.2254780560615472e-05,122.34550476074219,,0.0008134919917210937,21.831823348999023,,-0.0014402252854779363,356.43646240234375,,-0.00017604834283702075,-104.91768646240234,,-0.00037644378608092666,-0.18956825137138367,,-0.0007060662028379738
223,506347656,130.7168426513672,,0.00010240620758850127,121.48474884033203,,-0.00027509848587214947,24.023448944091797,,0.0007008364191278815,355.7962341308594,,-0.0002046464360319078,-105.10430145263672,,-5.982832590234466e-05,-0.24514076113700867,,-1.78925838554278e-05
223,506347656,130.76242065429688,,6.461985321948305e-05,121.79115295410156,,0.00013211074110586196,23.313034057617188,,-0.00031393792596645653,357.4537048339844,,0.0008552211220376194,-104.63048553466797,,-8.125452586682513e-05,0.0591377355158329,,0.00013957900227978826
223,506347656,130.6150665283203,,-4.547328717308119e-05,124.58299255371094,,0.0008643604232929647,17.59287452697754,,-0.001770751434378326,360.0,,0.0007883390062488616,-105.0373764038086,,-0.00012613424041774124,-0.008246012032032013,,-2.111259709636215e-05
223,506347656,130.19921875,,-0.00025172633468173444,126.51648712158203,,0.0011525177396833897,15.152785301208496,,-0.0011593593517318368,360.0,,0.0,-104.90230560302734,,0.00012947786308359355,0.022578248754143715,,7.877429015934467e-05
223,506347656,130.681640625,,0.00031254926580004394,126.81873321533203,,0.00019582232926040888,16.253009796142578,,0.000712816312443465,360.0,,0.0,-105.20159149169922,,-0.00019371593953110278,-0.021577127277851105,,-2.8321044737822376e-05
223,506347656,131.11720275878906,,9.206686081597582e-05,124.62330627441406,,-0.0004018363542854786,21.678939819335938,,0.0010282243601977825,360.0,,0.0,-105.20574188232422,,-2.7732368835131638e-05,0.7443488240242004,,0.0001377569860778749
223,506347656,131.20046997070312,,8.263235940830782e-05,124.52011108398438,,-0.00010236869275104254,22.892425537109375,,0.0012041402515023947,360.0,,0.0,-104.8800277709961,,0.0003232028684578836,0.6269048452377319,,-0.00011624920443864539
223,506347656,131.18096923828125,,0.0,129.3880157470703,,0.0010196070652455091,13.695820808410645,,-0.001965319737792015,360.0,,0.0,-102.5152816772461,,0.0003933111729566008,0.2848449647426605,,-2.2064103177399375e-05
223,506347656,131.18096923828125,,0.0,129.3880157470703,,0.0,13.695820808410645,,0.0,360.0,,0.0,-102.5152816772461,,0.0,0.2848449647426605,,0.0
223,506347656,131.18096923828125,,0.0,129.3880157470703,,0.0,13.695820808410645,,0.0,360.0,,0.0,-102.5152816772461,,0.0,0.2848449647426605,,0.0
223,506347656,131.18096923828125,,0.0,129.3880157470703,,0.0,13.695820808410645,,0.0,360.0,,0.0,-102.5152816772461,,0.0,0.2848449647426605,,0.0
223,506347656,131.18096923828125,,0.0,129.3880157470703,,0.0,13.695820808410645,,0.0,360.0,,0.0,-102.5152816772461,,0.0,0.2848449647426605,,0.0
223,506347656,131.18096923828125,,0.0,129.3880157470703,,0.0,13.695820808410645,,0.0,360.0,,0.0,-102.5152816772461,,0.0,0.2848449647426605,,0.0
223,506347656,131.18096923828125,,0.0,129.3880157470703,,0.0,13.695820808410645,,0.0,360.0,,0.0,-102.5152816772461,,0.0,0.2848449647426605,,0.0
223,506347656,131.18096923828125,,0.0,129.3880157470703,,0.0,13.695820808410645,,0.0,360.0,,0.0,-102.5152816772461,,0.0,0.2848449647426605,,0.0
223,506347656,131.18096923828125,,0.0,129.3880157470703,,0.0,13.695820808410645,,0.0,360.0,,0.0,-102.5152816772461,,0.0,0.2848449647426605,,0.0
223,506347656,131.18096923828125,,0.0,129.3880157470703,,0.0,13.695820808410645,,0.0,360.0,,0.0,-102.5152816772461,,0.0,0.2848449647426605,,0.0
223,506347656,128.2115020751953,,-0.00046578870387747884,126.44477844238281,,-0.0018434894736856222,23.65723419189453,,0.0033583897165954113,357.9732666015625,,-0.0006512051913887262,-104.0951156616211,,5.522988794837147e-05,1.2437677383422852,,-0.0007040208438411355
223,506347656,123.4808578491211,,-0.0026729332748800516,119.41927337646484,,-0.003968901000916958,34.35986328125,,0.006046139169484377,355.3888854980469,,-0.0014599391724914312,-102.68840789794922,,0.0007946807891130447,-1.628758430480957,,-0.0016229229513555765
223,506347656,119.41793823242188,,-0.002183352131396532,114.26874542236328,,-0.0027129310183227062,42.49286651611328,,0.0040955925360322,353.5108947753906,,-0.0007414106512442231,-102.19640350341797,,0.00017233820108231157,-2.044285774230957,,-0.0004886992392130196
223,506347656,116.04196166992188,,-0.002389112487435341,110.96308898925781,,-0.002339622937142849,45.98102951049805,,0.002468187129124999,353.7550048828125,,0.0001727304479572922,-103.4769515991211,,-0.0009056605049408972,-5.013035774230957,,-0.002100835321471095
223,506347656,113.33989715576172,,-0.0009024501778185368,109.55496978759766,,-0.0002757204056251794,47.347896575927734,,0.00034941171179525554,353.19146728515625,,-0.0008200393058359623,-105.74706268310547,,-0.0007010013214312494,-6.311863899230957,,-0.00028691202169284225
223,506347656,110.94275665283203,,-0.0008180268341675401,109.3099136352539,,-8.35330065456219e-05,48.279510498046875,,0.00031790207140147686,350.8129577636719,,-0.0008114635129459202,-109.15978240966797,,-0.001164688728749752,-8.591069221496582,,-0.0007774536497890949
223,506347656,112.71477508544922,,0.0009659756324253976,111.447509765625,,0.0011161604197695851,44.23831558227539,,-0.0020988043397665024,351.69476318359375,,0.0005081745912320912,-108.1446762084961,,0.0005358767230063677,-8.481541633605957,,-1.3480463167070411e-05
223,506347656,116.6427230834961,,0.001252592890523374,116.78082275390625,,0.0017007557908073068,35.65167999267578,,-0.002738337963819504,352.02789306640625,,0.00010623012349242344,-104.8985824584961,,0.0010351534001529217,-6.246434211730957,,0.0007127592107281089
223,506347656,124.00613403320312,,0.002079017460346222,128.7469940185547,,0.0035005039535462856,13.329083442687988,,-0.006917242426425219,359.59417724609375,,0.003343058517202735,-104.38765716552734,,-0.0006760347168892622,-4.481053352355957,,-0.0003345564182382077
223,506347656,124.9648666381836,,0.00029345822986215353,131.08506774902344,,0.0007156577194109559,8.749311447143555,,-0.0014016954228281975,360.0,,0.00012421715655364096,-104.86669158935547,,-0.00014664549962617457,-4.496708869934082,,-4.816823093278799e-06
223,506347656,124.9648666381836,,0.0,131.08506774902344,,0.0,8.749311447143555,,0.0,360.0,,0.0,-104.86669158935547,,0.0,-4.496708869934082,,0.0
223,506347656,124.9648666381836,,0.0,131.08506774902344,,0.0,8.749311447143555,,0.0,360.0,,0.0,-104.86669158935547,,0.0,-4.496708869934082,,0.0
223,506347656,126.26925659179688,,0.0009962368058040738,131.8470916748047,,0.0005819962825626135,8.722898483276367,,-2.0031780877616256e-05,360.0,,0.0,-104.0492172241211,,0.0006243499228730798,-2.119481086730957,,0.0018156260484829545
223,506347656,120.12073516845703,,-0.00436427490785718,120.23900604248047,,-0.008240734227001667,28.360258102416992,,0.013940349221229553,356.5478515625,,-0.0024502500891685486,-103.16097259521484,,0.0006305559072643518,-1.991551399230957,,9.08158763195388e-05
223,506347656,113.23457336425781,,-0.0017784126102924347,111.86833190917969,,-0.0017227181233465672,40.74294662475586,,0.0023077870719134808,353.4382629394531,,-0.0011466984869912267,-104.1626205444336,,0.0005827667773701251,-4.581913948059082,,-0.0002876282960642129
223,506347656,109.59402465820312,,-0.0021232571452856064,109.43740844726562,,-0.0014175445539876819,43.55875778198242,,0.0016423003980889916,350.0170593261719,,-0.00199578027240932,-102.6373519897461,,0.0008896024082787335,-6.559056282043457,,-0.001153412158600986
223,506347656,105.45035552978516,,-0.0005883320118300617,105.90934753417969,,-0.0004425369552336633,49.327091217041016,,0.0006401404971256852,350.8769226074219,,0.00026929265004582703,-107.19768524169922,,-0.0006686996202915907,-9.510930061340332,,-0.00040132278809323907
223,506347656,103.85301971435547,,-0.001602694857865572,105.71305084228516,,-0.00019639148376882076,50.675025939941406,,0.0013517634943127632,348.9389343261719,,-0.0019428730010986328,-109.38472747802734,,-0.002193622989580035,-7.038395881652832,,0.002479557879269123
223,506347656,103.17300415039062,,-0.0001464170782128349,106.1396255493164,,0.0001742531021591276,51.77724838256836,,0.00028022145852446556,348.2590637207031,,4.239748159307055e-05,-109.77788543701172,,0.0006484250770881772,-6.086857795715332,,0.0002789161226246506
223,506347656,109.34545135498047,,0.005429881624877453,110.87789154052734,,0.004168240819126368,44.89320755004883,,-0.006055799312889576,348.1256408691406,,-0.00011690137762343511,-106.31249237060547,,0.003048502840101719,-8.013615608215332,,-0.0016950699500739574
223,506347656,118.05007934570312,,0.0019609476439654827,118.27427673339844,,0.001571066677570343,32.14506530761719,,-0.002853940473869443,350.11895751953125,,0.00046375623787753284,-107.54402923583984,,-0.0005603362224064767,-8.768712043762207,,6.708967703161761e-05
223,506347656,120.32117462158203,,0.0023214505054056644,120.92768096923828,,0.002712240908294916,27.578771591186523,,-0.004668426234275103,352.0743713378906,,0.001998759340494871,-108.86714935302734,,-0.0013529857387766242,-7.570256233215332,,0.0012250298168510199
223,506347656,119.84400177001953,,-0.0002918829268310219,118.29845428466797,,-0.0013036710442975163,32.23039245605469,,0.0022566630505025387,351.2284240722656,,-0.0008277276647277176,-109.56246185302734,,-0.000516240659635514,-7.750462532043457,,-0.00014811968139838427
223,506347656,115.35346984863281,,-0.001457931473851204,110.76184844970703,,-0.0024469175841659307,44.86265182495117,,0.004101573023945093,347.9053039550781,,-0.001079255249351263,-109.60652923583984,,-1.4193257811712101e-05,-6.824803352355957,,0.0003005526086781174
223,506347656,106.79168701171875,,-0.002583359833806753,102.49391174316406,,-0.0022800504229962826,56.52667999267578,,0.0030275362078100443,346.07989501953125,,-0.00011609431385295466,-108.34734344482422,,-0.00010563536488916725,-8.323002815246582,,-0.0012038247659802437
223,506347656,97.23086547851562,,-0.0030330426525324583,95.72286987304688,,-0.002147757913917303,63.988914489746094,,0.002367261331528425,347.3274230957031,,0.0003957536828238517,-108.5718002319336,,-7.100026414263994e-05,-7.982975959777832,,0.00010786762140924111
223,506347656,90.61837768554688,,-0.0040146769024431705,92.6694107055664,,-0.0017120157135650516,67.00272369384766,,0.001597497845068574,347.31866455078125,,-3.081628165091388e-05,-107.12325286865234,,0.000502944749314338,-8.684269905090332,,-0.0009484566980972886
223,506347656,86.22547912597656,,-0.0028170933946967125,91.63359832763672,,-0.0006639009807258844,69.24788665771484,,0.0014399825595319271,347.61907958984375,,0.00019267988682258874,-106.4936752319336,,0.0004037936741951853,-7.066227912902832,,0.0010377642465755343
223,506347656,88.16838836669922,,0.0007149790180847049,93.73135375976562,,0.00040157762123271823,68.3452377319336,,-0.00031498930184170604,346.1414489746094,,-0.00027961618616245687,-108.06194305419922,,-0.0004250390629749745,-7.772343635559082,,-0.00034699359093792737
223,506347656,93.31883239746094,,0.0039649601094424725,99.30636596679688,,0.004291802179068327,62.804466247558594,,-0.004265685100108385,339.9122009277344,,-0.004796035587787628,-101.59688568115234,,0.004976981785148382,-6.143864631652832,,0.0012536494759842753
223,506347656,103.41934967041016,,0.005390851758420467,106.29145050048828,,0.00409048842266202,53.75821304321289,,-0.005503964610397816,338.864990234375,,-0.0004211788182146847,-100.6952133178711,,0.000294509285595268,-3.909031867980957,,0.000837715168017894
223,506347656,111.74531555175781,,0.004994858056306839,112.38987731933594,,0.0036585251800715923,44.836978912353516,,-0.005351821891963482,341.9280700683594,,0.0018375742947682738,-97.76592254638672,,0.001757320249453187,-0.37302112579345703,,0.0021212995052337646
223,506347656,116.39710998535156,,0.0012583142379298806,113.29341125488281,,0.0002602429303806275,42.959415435791016,,-0.0005233766860328615,345.07672119140625,,0.0005961897550150752,-94.3324203491211,,0.001258117496035993,-0.5501283407211304,,-0.000920868304092437
223,506347656,115.90319061279297,,-0.0005012235487811267,113.28018188476562,,-1.4219107470125891e-05,42.483394622802734,,-0.0004834496648982167,345.5904541015625,,0.0005221911706030369,-93.3932113647461,,0.000954707560595125,1.0398383140563965,,0.0016162096289917827
223,506347656,108.2348403930664,,-0.001868439489044249,108.37454986572266,,-0.001956177642568946,51.48284149169922,,0.0029824674129486084,344.2676086425781,,0.00094692746642977,-98.66368865966797,,-0.0006149294786155224,3.565136194229126,,-2.288819359819172e-06
223,506347656,103.07381439208984,,-0.005795028526335955,103.16387176513672,,-0.005849994719028473,56.66537857055664,,0.005818470846861601,346.0913391113281,,0.0020475287456065416,-99.00106048583984,,-0.00037887549842707813,0.5425555109977722,,-0.00339417508803308
223,506347656,93.84172821044922,,-0.0026397716719657183,96.66321563720703,,-0.0018371590413153172,63.639198303222656,,0.0018990852404385805,346.9950866699219,,0.0005244376370683312,-100.11376190185547,,-0.00025787364575080574,0.45597362518310547,,6.654370372416452e-05
223,506347656,88.22686767578125,,-0.0060088555328547955,93.77985382080078,,-0.0030858309473842382,66.22967529296875,,0.0027724187821149826,345.68536376953125,,-0.0014016296481713653,-100.0061264038086,,0.00011519672989379615,-4.754615783691406,,-0.005576577503234148
223,506347656,86.83859252929688,,-0.0001219450423377566,92.62788391113281,,-0.00016278245311696082,66.52812957763672,,6.189198029460385e-05,345.1705627441406,,0.00016485623200424016,-101.91222381591797,,-0.0005530065973289311,-5.648780822753906,,0.00018383923452347517
223,506347656,89.82135772705078,,0.0013014768483117223,94.11388397216797,,0.0006483885226771235,64.58080291748047,,-0.0008499149698764086,346.3147888183594,,0.00049927260261029,-103.11226654052734,,-0.0005233766860328615,-5.028907775878906,,0.0002704707148950547
223,506347656,93.81515502929688,,0.0018026165198534727,96.7721939086914,,0.0013183364644646645,61.84486389160156,,-0.0014102744171395898,346.95654296875,,0.0002762652584351599,-99.52367401123047,,0.001190527225844562,-2.5736770629882812,,0.0011325126979500055
223,506347656,105.1166763305664,,0.004931219853460789,106.2390365600586,,0.004130690358579159,50.09149932861328,,-0.005128480959683657,344.3798828125,,-0.0011245732894167304,-98.60710906982422,,0.00039992647361941636,1.8288875818252563,,0.0019209820311516523
223,506347656,109.84809875488281,,0.003654015716165304,110.16278076171875,,0.0030879334080964327,44.229854583740234,,-0.004702915903180838,346.7608337402344,,0.001969205215573311,-98.76055145263672,,-0.00015942088793963194,1.3390952348709106,,-0.00047652979264967144
223,506347656,115.19197845458984,,0.0023317078594118357,114.26134490966797,,0.0017883367836475372,38.47529983520508,,-0.0025108347181230783,348.55462646484375,,0.0007826927467249334,-97.91683197021484,,0.0003681422967929393,0.23988372087478638,,-0.0004798891313839704
223,506347656,116.93053436279297,,0.0010243385331705213,114.25255584716797,,3.30737566400785e-05,38.64633560180664,,-0.0001425572409061715,347.35260009765625,,-0.00021553298574872315,-96.88765716552734,,0.0005054139764979482,-0.2470705509185791,,-0.0003360277914907783
223,506347656,115.03563690185547,,-0.0005950453341938555,111.90846252441406,,-0.0007361216121353209,42.866722106933594,,0.0013249529292806983,345.33001708984375,,-0.0006351176416501403,-98.17925262451172,,-0.000405662867706269,-1.653106927871704,,-0.00044134361087344587
223,506347656,109.0877914428711,,-0.0026513051707297564,106.88660430908203,,-0.002195794368162751,49.32872772216797,,0.0028176067862659693,348.0160827636719,,0.0011995475506410003,-98.62532806396484,,0.00010883824870688841,0.47923755645751953,,0.001100395806133747
223,506347656,103.33399200439453,,-0.0025108347181230783,102.17668914794922,,-0.002055359771475196,54.058494567871094,,0.002063751919195056,348.8935546875,,0.0003828646440524608,-96.07189178466797,,0.0011141484137624502,2.920928716659546,,0.0010653892531991005
223,506347656,101.26158142089844,,-0.0009615854942239821,101.6134262084961,,-0.00029178152908571064,55.37398147583008,,0.0010136443888768554,345.8819580078125,,-0.0020712176337838173,-99.7545394897461,,-0.0022422620095312595,-2.494810104370117,,-0.002321316162124276
223,506347656,99.69072723388672,,-0.0005142666632309556,100.16944885253906,,-0.0004730336950160563,56.836517333984375,,0.0004790121456608176,345.5408020019531,,-0.00011167259799549356,-101.55147552490234,,-0.0005887150182388723,-3.568571090698242,,-0.00035162552376277745
223,506347656,99.3117904663086,,6.247054261621088e-05,99.08174896240234,,-1.3059066077403259e-05,57.55378341674805,,-4.244196679792367e-05,347.41552734375,,0.00010824741912074387,-106.3139877319336,,-0.0010479901684448123,-4.572538375854492,,-0.0002192834799643606
223,506347656,99.67572021484375,,0.00042069831397384405,99.3966064453125,,0.000363975646905601,57.830810546875,,0.00032024140818975866,346.61492919921875,,-0.0009257541969418526,-107.22826385498047,,-0.0010571385500952601,-4.791624069213867,,-0.0002526621683500707
223,506347656,102.13756561279297,,0.0021133986301720142,101.31858825683594,,0.0015982402255758643,56.50694274902344,,-0.0012655629543587565,346.1215515136719,,-9.408704499946907e-05,-106.88509368896484,,0.00034243473783135414,-5.028318405151367,,-0.00022322613222058862
223,506347656,105.52961730957031,,0.0014800644712522626,105.43817138671875,,0.0017975070513784885,50.841156005859375,,-0.0024719249922782183,346.6500549316406,,0.0002305985544808209,-102.9867172241211,,0.0017009861767292023,-4.348081588745117,,0.0002968094777315855
223,506347656,108.23703002929688,,0.0005123242735862732,108.29779052734375,,0.0005450948374345899,46.237884521484375,,-0.0008934787474572659,346.83319091796875,,0.00014728571113664657,-102.40596771240234,,-4.841787813347764e-05,-3.077207565307617,,5.672657425748184e-05
223,506347656,112.91142272949219,,0.003026047721505165,113.67002868652344,,0.003477811347693205,37.67007827758789,,-0.0055465069599449635,347.9827880859375,,0.0007442153291776776,-105.10021209716797,,-0.0017443199176341295,-3.355802536010742,,-0.00017997849499806762
223,506347656,114.87939453125,,0.0006350789335556328,115.0040512084961,,0.00032506187562830746,34.649356842041016,,-0.0016894165892153978,349.725830078125,,0.0017697393195703626,-101.8105697631836,,0.004144420847296715,-2.196805953979492,,0.001218118006363511
223,506347656,115.895263671875,,0.0004432561108842492,113.11805725097656,,-0.0008232120308093727,36.94655227661133,,0.001002341858111322,351.9603271484375,,0.0009749893215484917,-97.68236541748047,,0.0018012680811807513,1.5084775686264038,,0.0016167358262464404
223,506347656,114.20189666748047,,-0.001283346675336361,111.47359466552734,,-0.0008629400399513543,41.45664596557617,,0.0023015167098492384,347.7298889160156,,-0.0020655894186347723,-99.57543182373047,,-0.0013926784740760922,-1.8579623699188232,,-0.0021762228570878506
223,506347656,109.04009246826172,,-0.0017096702940762043,107.60337829589844,,-0.0012816735543310642,47.82235336303711,,0.002108481712639332,348.5703125,,0.00027837525703944266,-100.9507064819336,,-0.00045579622383229434,-1.3007724285125732,,0.0001845553342718631
223,506347656,101.60247039794922,,-0.003679694840684533,104.48503112792969,,-0.0010445110965520144,51.13938522338867,,0.0005754802841693163,346.18939208984375,,-0.001621934468857944,-97.51448822021484,,0.0009896951960399747,0.14985698461532593,,-0.0011566857574507594
223,506347656,96.62142944335938,,-0.0015282450476661325,99.15959167480469,,-0.001633918727748096,58.64982604980469,,0.0023040566593408585,348.5645446777344,,0.0007286521722562611,-100.15648651123047,,-0.0008105224114842713,-1.806378722190857,,-0.0006002478767186403
223,506347656,88.85865783691406,,-0.0006589083350263536,98.30174255371094,,0.000354196410626173,61.59994888305664,,-0.0003050107916351408,341.2141418457031,,-0.002125510713085532,-97.70684051513672,,6.093199772294611e-05,-2.7733283042907715,,0.00025398569414392114
223,506347656,95.26569366455078,,0.002795599168166518,96.58407592773438,,-0.0007492068689316511,59.968875885009766,,-0.0007118228240869939,349.8784484863281,,0.003780509578064084,-105.6393051147461,,-0.0034614577889442444,4.6878204345703125,,0.0032555414363741875
223,506347656,100.631591796875,,0.0009663447854109108,99.08523559570312,,0.0004706517793238163,56.56137466430664,,-0.0005018027732148767,348.7728271484375,,-0.00034319021506235003,-102.10076141357422,,0.0011934286449104548,-4.168498992919922,,-0.0016013660933822393
223,506347656,110.31143951416016,,0.0060911839827895164,105.47608947753906,,0.004021537024527788,49.03867721557617,,-0.004733431152999401,348.9681701660156,,0.000122922589071095,-103.3628158569336,,-0.0007944065728224814,-6.985332489013672,,-0.001772560877725482
223,506347656,116.62464904785156,,0.0013226456940174103,112.2103500366211,,0.0014366016257554293,38.455448150634766,,-0.0023502828553318977,350.1217346191406,,0.0004022594075649977,-102.3122787475586,,7.089223072398454e-05,-7.916454315185547,,-3.132218625978567e-05
223,506347656,123.07547760009766,,0.004227736499160528,120.60114288330078,,0.005499149207025766,23.80021858215332,,-0.00960419699549675,354.68914794921875,,0.0029933974146842957,-102.70494842529297,,-0.000257838488323614,-5.760234832763672,,0.0014131406787782907
223,506347656,125.62732696533203,,0.0011763271177187562,121.77910614013672,,0.00041339671588502824,22.03787612915039,,-0.0005234872223809361,355.036376953125,,-7.478388579329476e-05,-101.72356414794922,,0.0004249019257258624,-2.335308074951172,,0.0018247247207909822
223,506347656,126.82173919677734,,0.0011365711688995361,119.23361206054688,,-0.002422577701508999,27.537353515625,,0.005233174189925194,349.9939880371094,,-0.004798566922545433,-97.27733612060547,,0.004230925347656012,-1.6217155456542969,,0.0006790377665311098
223,506347656,125.971435546875,,-0.00014002330135554075,119.23600006103516,,0.000367852597264573,27.499481201171875,,-0.0008320303168147802,345.638916015625,,-0.0007725610048510134,-91.27254486083984,,0.0012619984336197376,2.9057164192199707,,0.0012766980798915029
223,506347656,123.89198303222656,,-0.0012836623936891556,124.37046813964844,,0.0031702308915555477,19.753124237060547,,-0.004782694857567549,343.4691467285156,,-0.0013398024020716548,-87.15474700927734,,0.002542502013966441,10.789188385009766,,0.0048675877042114735
223,506347656,123.82443237304688,,-5.4962533795333e-06,122.23552703857422,,-0.000791460566688329,26.137325286865234,,0.002548808930441737,338.85162353515625,,-0.0016452119452878833,-89.6747055053711,,-0.0012568100355565548,10.617093086242676,,0.0003170794516336173
223,506347656,123.71739196777344,,-4.653932774090208e-05,119.78101348876953,,-0.0010711675276979804,30.739662170410156,,0.002008149167522788,344.0062255859375,,0.002249122830107808,-86.5666732788086,,0.001356137334369123,19.752042770385742,,0.003985875751823187
223,506347656,123.6643295288086,,-5.973744919174351e-06,120.11498260498047,,0.00013981024676468223,30.13806915283203,,-0.0002470957988407463,343.6120300292969,,-0.00021179640316404402,-85.85344696044922,,6.574089638888836e-05,20.064044952392578,,-2.4981114620459266e-05
223,506347656,123.60089111328125,,-3.88554108212702e-05,120.41732788085938,,0.00018662908405531198,30.064416885375977,,-4.533131141215563e-05,341.72698974609375,,-0.0011635037371888757,-83.32015228271484,,0.0015637320466339588,14.775165557861328,,-0.0032649338245391846
223,506347656,121.56864166259766,,-0.0006966239307075739,111.18283081054688,,-0.002773985033854842,44.374900817871094,,0.004163774196058512,350.47979736328125,,0.0025865451898425817,-87.77645111083984,,-0.0014580765273422003,11.238096237182617,,-0.0005891448818147182
223,506347656,120.18968200683594,,-0.0014952309429645538,106.63168334960938,,-0.004932935815304518,48.98267364501953,,0.004994016140699387,357.2787780761719,,0.007368904538452625,-86.3982162475586,,0.0014937579398974776,13.571393966674805,,0.0025288830511271954
223,506347656,119.72205352783203,,-8.08716140454635e-05,106.80963134765625,,0.00010645394650055096,47.6862907409668,,-0.0003364564327057451,356.9698486328125,,-0.00020675668201874942,-84.45879364013672,,0.00037084537325426936,14.658080101013184,,0.00029972841730341315
223,506347656,119.7366714477539,,1.0428479981783312e-05,107.05095672607422,,0.00017217712593264878,47.21519470214844,,-0.0003355826484039426,356.405029296875,,-0.00040294870268553495,-84.37227630615234,,6.172783469082788e-05,14.985407829284668,,0.00023353825963567942
223,506347656,120.00519561767578,,7.729717617621645e-05,107.94953155517578,,0.00022379514120984823,45.98834228515625,,-0.0002877767547033727,355.0464782714844,,-0.0003437333507463336,-83.86873626708984,,0.0001191887931781821,15.5524263381958,,0.00011789904965553433
223,506347656,120.94615936279297,,0.0006057583377696574,108.97801208496094,,0.000662097183521837,44.465728759765625,,-0.0009804274886846542,355.0107116699219,,-2.2512684154207818e-05,-82.99752044677734,,0.0005608516512438655,15.519669532775879,,-2.138705167453736e-05
223,506347656,121.78903198242188,,0.0008022784604690969,109.78120422363281,,0.0008166778716258705,42.53507995605469,,-0.00190755445510149,356.8815612792969,,0.0017632553353905678,-82.08654022216797,,0.0008475969079881907,16.27359962463379,,0.000849675212521106
223,506347656,127.09780883789062,,0.0023163924925029278,115.8469009399414,,0.0026466650888323784,37.13276290893555,,-0.0023574840743094683,352.723876953125,,-0.0018142708577215672,-85.50231170654297,,-0.0014907843433320522,14.47716236114502,,-0.0007835391443222761
223,506347656,129.35401916503906,,0.0012608155375346541,117.98844909667969,,0.001164660439826548,32.6737060546875,,-0.002580656437203288,354.8461608886719,,0.0007863893988542259,-85.18465423583984,,0.0005556695978157222,18.1608943939209,,0.0030033367220312357
223,506347656,132.07479858398438,,0.0009834382217377424,119.47735595703125,,0.0005381745868362486,29.994083404541016,,-0.0009688772261142731,354.5624694824219,,-0.00010238624236080796,-87.30855560302734,,-0.0007678968249820173,24.33103370666504,,0.0022302260622382164
223,506347656,132.07479858398438,,0.0,119.47735595703125,,0.0,29.994083404541016,,0.0,354.5624694824219,,0.0,-87.30855560302734,,0.0,24.33103370666504,,0.0
223,506347656,132.07479858398438,,0.0,119.47735595703125,,0.0,29.994083404541016,,0.0,354.5624694824219,,0.0,-87.30855560302734,,0.0,24.33103370666504,,0.0
223,506347656,132.07479858398438,,0.0,119.47735595703125,,0.0,29.994083404541016,,0.0,354.5624694824219,,0.0,-87.30855560302734,,0.0,24.33103370666504,,0.0
223,506347656,132.07479858398438,,0.0,119.47735595703125,,0.0,29.994083404541016,,0.0,354.5624694824219,,0.0,-87.30855560302734,,0.0,24.33103370666504,,0.0
223,506347656,132.07479858398438,,0.0,119.47735595703125,,0.0,29.994083404541016,,0.0,354.5624694824219,,0.0,-87.30855560302734,,0.0,24.33103370666504,,0.0
223,506347656,132.07479858398438,,0.0,119.47735595703125,,0.0,29.994083404541016,,0.0,354.5624694824219,,0.0,-87.30855560302734,,0.0,24.33103370666504,,0.0
223,506347656,132.07479858398438,,0.0,119.47735595703125,,0.0,29.994083404541016,,0.0,354.5624694824219,,0.0,-87.30855560302734,,0.0,24.33103370666504,,0.0
223,506347656,132.07479858398438,,0.0,119.47735595703125,,0.0,29.994083404541016,,0.0,354.5624694824219,,0.0,-87.30855560302734,,0.0,24.33103370666504,,0.0
223,506347656,132.07479858398438,,0.0,119.47735595703125,,0.0,29.994083404541016,,0.0,354.5624694824219,,0.0,-87.30855560302734,,0.0,24.33103370666504,,0.0
223,506347656,132.07479858398438,,0.0,119.47735595703125,,0.0,29.994083404541016,,0.0,354.5624694824219,,0.0,-87.30855560302734,,0.0,24.33103370666504,,0.0
223,506347656,132.07479858398438,,0.0,119.47735595703125,,0.0,29.994083404541016,,0.0,354.5624694824219,,0.0,-87.30855560302734,,0.0,24.33103370666504,,0.0
223,506347656,132.07479858398438,,0.0,119.47735595703125,,0.0,29.994083404541016,,0.0,354.5624694824219,,0.0,-87.30855560302734,,0.0,24.33103370666504,,0.0
223,506347656,132.07479858398438,,0.0,119.47735595703125,,0.0,29.994083404541016,,0.0,354.5624694824219,,0.0,-87.30855560302734,,0.0,24.33103370666504,,0.0
223,506347656,132.07479858398438,,0.0,119.47735595703125,,0.0,29.994083404541016,,0.0,354.5624694824219,,0.0,-87.30855560302734,,0.0,24.33103370666504,,0.0
223,506347656,132.07479858398438,,0.0,119.47735595703125,,0.0,29.994083404541016,,0.0,354.5624694824219,,0.0,-87.30855560302734,,0.0,24.33103370666504,,0.0
223,506347656,132.07479858398438,,0.0,119.47735595703125,,0.0,29.994083404541016,,0.0,354.5624694824219,,0.0,-87.30855560302734,,0.0,24.33103370666504,,0.0
223,506347656,132.07479858398438,,0.0,119.47735595703125,,0.0,29.994083404541016,,0.0,354.5624694824219,,0.0,-87.30855560302734,,0.0,24.33103370666504,,0.0
248,994384765,132.07479858398438,,0.0,119.47735595703125,,0.0,29.994083404541016,,0.0,354.5624694824219,,0.0,-87.30855560302734,,0.0,24.33103370666504,,0.0
248,994384765,132.07479858398438,,0.0,119.47735595703125,,0.0,29.994083404541016,,0.0,354.5624694824219,,0.0,-87.30855560302734,,0.0,24.33103370666504,,0.0
248,994384765,132.07479858398438,,0.0,119.47735595703125,,0.0,29.994083404541016,,0.0,354.5624694824219,,0.0,-87.30855560302734,,0.0,24.33103370666504,,0.0
248,994384765,132.07479858398438,,0.0,119.47735595703125,,0.0,29.994083404541016,,0.0,354.5624694824219,,0.0,-87.30855560302734,,0.0,24.33103370666504,,0.0
248,994384765,132.07479858398438,,0.0,119.47735595703125,,0.0,29.994083404541016,,0.0,354.5624694824219,,0.0,-87.30855560302734,,0.0,24.33103370666504,,0.0
248,994384765,132.07479858398438,,0.0,119.47735595703125,,0.0,29.994083404541016,,0.0,354.5624694824219,,0.0,-87.30855560302734,,0.0,24.33103370666504,,0.0
248,994384765,132.07479858398438,,0.0,119.47735595703125,,0.0,29.994083404541016,,0.0,354.5624694824219,,0.0,-87.30855560302734,,0.0,24.33103370666504,,0.0
248,994384765,132.07479858398438,,0.0,119.47735595703125,,0.0,29.994083404541016,,0.0,354.5624694824219,,0.0,-87.30855560302734,,0.0,24.33103370666504,,0.0
248,994384765,132.07479858398438,,0.0,119.47735595703125,,0.0,29.994083404541016,,0.0,354.5624694824219,,0.0,-87.30855560302734,,0.0,24.33103370666504,,0.0
248,994384765,132.07479858398438,,0.0,119.47735595703125,,0.0,29.994083404541016,,0.0,354.5624694824219,,0.0,-87.30855560302734,,0.0,24.33103370666504,,0.0
248,994384765,132.07479858398438,,0.0,119.47735595703125,,0.0,29.994083404541016,,0.0,354.5624694824219,,0.0,-87.30855560302734,,0.0,24.33103370666504,,0.0
248,994384765,132.07479858398438,,0.0,119.47735595703125,,0.0,29.994083404541016,,0.0,354.5624694824219,,0.0,-87.30855560302734,,0.0,24.33103370666504,,0.0
248,994384765,132.07479858398438,,0.0,119.47735595703125,,0.0,29.994083404541016,,0.0,354.5624694824219,,0.0,-87.30855560302734,,0.0,24.33103370666504,,0.0
248,994384765,132.07479858398438,,0.0,119.47735595703125,,0.0,29.994083404541016,,0.0,354.5624694824219,,0.0,-87.30855560302734,,0.0,24.33103370666504,,0.0
248,994384765,132.07479858398438,,0.0,119.47735595703125,,0.0,29.994083404541016,,0.0,354.5624694824219,,0.0,-87.30855560302734,,0.0,24.33103370666504,,0.0
248,994384765,132.07479858398438,,0.0,119.47735595703125,,0.0,29.994083404541016,,0.0,354.5624694824219,,0.0,-87.30855560302734,,0.0,24.33103370666504,,0.0
248,994384765,132.07479858398438,,0.0,119.47735595703125,,0.0,29.994083404541016,,0.0,354.5624694824219,,0.0,-87.30855560302734,,0.0,24.33103370666504,,0.0
248,994384765,132.07479858398438,,0.0,119.47735595703125,,0.0,29.994083404541016,,0.0,354.5624694824219,,0.0,-87.30855560302734,,0.0,24.33103370666504,,0.0
248,994384765,132.07479858398438,,0.0,119.47735595703125,,0.0,29.994083404541016,,0.0,354.5624694824219,,0.0,-87.30855560302734,,0.0,24.33103370666504,,0.0
248,994384765,132.07479858398438,,0.0,119.47735595703125,,0.0,29.994083404541016,,0.0,354.5624694824219,,0.0,-87.30855560302734,,0.0,24.33103370666504,,0.0
248,994384765,132.07479858398438,,0.0,119.47735595703125,,0.0,29.994083404541016,,0.0,354.5624694824219,,0.0,-87.30855560302734,,0.0,24.33103370666504,,0.0
248,994384765,132.07479858398438,,0.0,119.47735595703125,,0.0,29.994083404541016,,0.0,354.5624694824219,,0.0,-87.30855560302734,,0.0,24.33103370666504,,0.0
248,994384765,132.07479858398438,,0.0,119.47735595703125,,0.0,29.994083404541016,,0.0,354.5624694824219,,0.0,-87.30855560302734,,0.0,24.33103370666504,,0.0
248,994384765,132.07479858398438,,0.0,119.47735595703125,,0.0,29.994083404541016,,0.0,354.5624694824219,,0.0,-87.30855560302734,,0.0,24.33103370666504,,0.0
248,994384765,132.07479858398438,,0.0,119.47735595703125,,0.0,29.994083404541016,,0.0,354.5624694824219,,0.0,-87.30855560302734,,0.0,24.33103370666504,,0.0
248,994384765,132.07479858398438,,0.0,119.47735595703125,,0.0,29.994083404541016,,0.0,354.5624694824219,,0.0,-87.30855560302734,,0.0,24.33103370666504,,0.0
248,994384765,132.07479858398438,,0.0,119.47735595703125,,0.0,29.994083404541016,,0.0,354.5624694824219,,0.0,-87.30855560302734,,0.0,24.33103370666504,,0.0
248,994384765,132.07479858398438,,0.0,119.47735595703125,,0.0,29.994083404541016,,0.0,354.5624694824219,,0.0,-87.30855560302734,,0.0,24.33103370666504,,0.0
248,994384765,132.07479858398438,,0.0,119.47735595703125,,0.0,29.994083404541016,,0.0,354.5624694824219,,0.0,-87.30855560302734,,0.0,24.33103370666504,,0.0
248,994384765,132.07479858398438,,0.0,119.47735595703125,,0.0,29.994083404541016,,0.0,354.5624694824219,,0.0,-87.30855560302734,,0.0,24.33103370666504,,0.0
248,994384765,132.07479858398438,,0.0,119.47735595703125,,0.0,29.994083404541016,,0.0,354.5624694824219,,0.0,-87.30855560302734,,0.0,24.33103370666504,,0.0
248,994384765,132.07479858398438,,0.0,119.47735595703125,,0.0,29.994083404541016,,0.0,354.5624694824219,,0.0,-87.30855560302734,,0.0,24.33103370666504,,0.0
248,994384765,132.07479858398438,,0.0,119.47735595703125,,0.0,29.994083404541016,,0.0,354.5624694824219,,0.0,-87.30855560302734,,0.0,24.33103370666504,,0.0
248,994384765,132.07479858398438,,0.0,119.47735595703125,,0.0,29.994083404541016,,0.0,354.5624694824219,,0.0,-87.30855560302734,,0.0,24.33103370666504,,0.0
248,994384765,132.07479858398438,,0.0,119.47735595703125,,0.0,29.994083404541016,,0.0,354.5624694824219,,0.0,-87.30855560302734,,0.0,24.33103370666504,,0.0
248,994384765,132.07479858398438,,0.0,119.47735595703125,,0.0,29.994083404541016,,0.0,354.5624694824219,,0.0,-87.30855560302734,,0.0,24.33103370666504,,0.0
248,994384765,132.07479858398438,,0.0,119.47735595703125,,0.0,29.994083404541016,,0.0,354.5624694824219,,0.0,-87.30855560302734,,0.0,24.33103370666504,,0.0
248,994384765,132.07479858398438,,0.0,119.47735595703125,,0.0,29.994083404541016,,0.0,354.5624694824219,,0.0,-87.30855560302734,,0.0,24.33103370666504,,0.0
248,994384765,132.07479858398438,,0.0,119.47735595703125,,0.0,29.994083404541016,,0.0,354.5624694824219,,0.0,-87.30855560302734,,0.0,24.33103370666504,,0.0
248,994384765,132.07479858398438,,0.0,119.47735595703125,,0.0,29.994083404541016,,0.0,354.5624694824219,,0.0,-87.30855560302734,,0.0,24.33103370666504,,0.0
248,994384765,132.07479858398438,,0.0,119.47735595703125,,0.0,29.994083404541016,,0.0,354.5624694824219,,0.0,-87.30855560302734,,0.0,24.33103370666504,,0.0
248,994384765,132.07479858398438,,0.0,119.47735595703125,,0.0,29.994083404541016,,0.0,354.5624694824219,,0.0,-87.30855560302734,,0.0,24.33103370666504,,0.0
248,994384765,130.2650146484375,,-0.0012543281773105264,120.87874603271484,,0.0009713090257719159,38.70453643798828,,0.006037247367203236,358.25,,0.002555845072492957,-97.3153305053711,,-0.00693576829507947,-0.3978118896484375,,-0.017140060663223267
248,994384765,130.2117156982422,,5.9027479437645525e-05,121.9018325805664,,0.00017897937505040318,37.23490524291992,,-0.0005098945111967623,358.0085144042969,,-6.228525307960808e-05,-96.10680389404297,,-0.000460277427919209,0.41990336775779724,,6.787621532566845e-05
248,994384765,128.2991180419922,,-0.0006296219653449953,121.78679656982422,,-3.79845077986829e-05,36.154685974121094,,-0.0003556730807758868,356.2820129394531,,-0.0005680409958586097,-98.1491928100586,,-0.0006722106481902301,0.9736037850379944,,0.00018224879750050604
248,994384765,126.82598876953125,,-0.00048160963342525065,120.46482849121094,,-0.00041328827501274645,37.81610107421875,,0.0003537324082572013,357.2560729980469,,0.0006247099954634905,-96.6528549194336,,0.0008201582822948694,-0.6348594427108765,,-0.0004659293335862458
248,994384765,126.55542755126953,,-0.00016921796486712992,120.75416564941406,,0.00018065553740598261,38.18352508544922,,0.00022940803319215775,357.6070251464844,,0.00021911336807534099,-95.60567474365234,,0.0006538261659443378,-0.9911216497421265,,-0.00022271268244367093
248,994384765,126.61188507080078,,-4.7014877054607496e-05,123.97885131835938,,0.0009473024983890355,33.800437927246094,,-0.0013511179713532329,358.69287109375,,0.0003198165795765817,-96.1417465209961,,-0.0001712684752419591,-1.1044639348983765,,4.149712185608223e-05
248,994384765,126.137451171875,,-0.00029681407613679767,128.0205535888672,,0.0025316730607300997,25.753847122192383,,-0.005040362942963839,360.0,,0.0008187714847736061,-96.83788299560547,,-0.00043591143912635744,-0.5878623723983765,,0.0003235922777093947
248,994384765,124.47750854492188,,-0.00029674152028746903,135.37826538085938,,0.0015151469269767404,10.067580223083496,,-0.0032048083376139402,360.0,,0.0,-95.36760711669922,,0.00024669687263667583,0.9445095062255859,,0.00027366416179575026
248,994384765,124.42521667480469,,-3.2474745239596814e-05,136.8827362060547,,0.0009313909686170518,6.745931148529053,,-0.002056733937934041,360.0,,0.0,-95.3597640991211,,4.858526608586544e-06,1.058268666267395,,7.042683137115091e-05
248,994384765,124.42521667480469,,0.0,136.8827362060547,,0.0,6.745931148529053,,0.0,360.0,,0.0,-95.3597640991211,,0.0,1.058268666267395,,0.0
248,994384765,124.42521667480469,,0.0,136.8827362060547,,0.0,6.745931148529053,,0.0,360.0,,0.0,-95.3597640991211,,0.0,1.058268666267395,,0.0
248,994384765,124.42521667480469,,0.0,136.8827362060547,,0.0,6.745931148529053,,0.0,360.0,,0.0,-95.3597640991211,,0.0,1.058268666267395,,0.0
248,994384765,120.3652114868164,,-0.0028979619964957237,133.99258422851562,,-0.002063019433990121,10.206916809082031,,0.002470345003530383,360.0,,0.0,-100.03112030029297,,-0.0033347776625305414,-0.7287307977676392,,-0.001275502610951662
248,994384765,116.24102020263672,,-0.0006649873685091734,126.01930236816406,,-0.0010475602466613054,25.324525833129883,,0.001966767944395542,360.0,,0.0,-99.14940643310547,,0.00029370057745836675,-0.27679598331451416,,0.0001801017642719671
248,994384765,110.65074157714844,,-0.0018234330927953124,121.19113159179688,,-0.0015747571596875787,33.211448669433594,,0.002572658471763134,356.420166015625,,-0.0011675219284370542,-101.97576141357422,,-0.0009216977632604539,-2.1399550437927246,,-0.0006080011371523142
248,994384765,108.99494934082031,,-0.00028306207968853414,118.44583129882812,,-0.0005051146727055311,37.78275680541992,,0.0008672995609231293,355.7405090332031,,-0.00011707228259183466,-103.76396942138672,,-0.000258328509517014,-3.4077162742614746,,-0.00021930440561845899
248,994384765,108.462890625,,-0.00035534033668227494,117.09304809570312,,-0.0009047152125276625,39.485931396484375,,0.0011385647812858224,354.1997985839844,,-0.0010297857224941254,-104.29930877685547,,-0.00035767810186371207,-5.03817892074585,,-0.0010893986327573657
248,994384765,108.58985900878906,,2.4582417609053664e-05,117.31187438964844,,1.3496229257725645e-05,39.51628494262695,,9.98829273157753e-05,354.28466796875,,1.588415943842847e-05,-105.9469223022461,,-0.00018112894031219184,-5.078553676605225,,5.087715180707164e-05
248,994384765,111.29466247558594,,0.0017372415168210864,121.33122253417969,,0.0025815479457378387,35.12389373779297,,-0.002821089932695031,354.61566162109375,,0.00021258897322695702,-103.4309310913086,,0.0016159744700416923,-1.6489272117614746,,0.00220278138294816
248,994384765,117.35374450683594,,0.004412699490785599,129.7342987060547,,0.006407532375305891,21.22233772277832,,-0.01097234059125185,356.2528076171875,,0.0018093374092131853,-102.16780853271484,,0.0009930450469255447,-0.6408705711364746,,0.0008830834412947297
248,994384765,121.7368392944336,,0.0027264340315014124,138.9858856201172,,0.005754799582064152,3.3981528282165527,,-0.011087440885603428,360.0,,0.0023308885283768177,-100.59725189208984,,0.00097693782299757,0.9597544074058533,,0.0009956428548321128
248,994384765,121.7368392944336,,0.0,138.9858856201172,,0.0,3.3981528282165527,,0.0,360.0,,0.0,-100.59725189208984,,0.0,0.9597544074058533,,0.0
248,994384765,121.7368392944336,,0.0,138.9858856201172,,0.0,3.3981528282165527,,0.0,360.0,,0.0,-100.59725189208984,,0.0,0.9597544074058533,,0.0
248,994384765,121.7368392944336,,0.0,138.9858856201172,,0.0,3.3981528282165527,,0.0,360.0,,0.0,-100.59725189208984,,0.0,0.9597544074058533,,0.0
248,994384765,121.7368392944336,,0.0,138.9858856201172,,0.0,3.3981528282165527,,0.0,360.0,,0.0,-100.59725189208984,,0.0,0.9597544074058533,,0.0
248,994384765,121.7368392944336,,0.0,138.9858856201172,,0.0,3.3981528282165527,,0.0,360.0,,0.0,-100.59725189208984,,0.0,0.9597544074058533,,0.0
248,994384765,121.7368392944336,,0.0,138.9858856201172,,0.0,3.3981528282165527,,0.0,360.0,,0.0,-100.59725189208984,,0.0,0.9597544074058533,,0.0
248,994384765,121.7368392944336,,0.0,138.9858856201172,,0.0,3.3981528282165527,,0.0,360.0,,0.0,-100.59725189208984,,0.0,0.9597544074058533,,0.0
248,994384765,121.7368392944336,,0.0,138.9858856201172,,0.0,3.3981528282165527,,0.0,360.0,,0.0,-100.59725189208984,,0.0,0.9597544074058533,,0.0
248,994384765,121.7368392944336,,0.0,138.9858856201172,,0.0,3.3981528282165527,,0.0,360.0,,0.0,-100.59725189208984,,0.0,0.9597544074058533,,0.0
248,994384765,121.7368392944336,,0.0,138.9858856201172,,0.0,3.3981528282165527,,0.0,360.0,,0.0,-100.59725189208984,,0.0,0.9597544074058533,,0.0
248,994384765,121.7368392944336,,0.0,138.9858856201172,,0.0,3.3981528282165527,,0.0,360.0,,0.0,-100.59725189208984,,0.0,0.9597544074058533,,0.0
248,994384765,121.7368392944336,,0.0,138.9858856201172,,0.0,3.3981528282165527,,0.0,360.0,,0.0,-100.59725189208984,,0.0,0.9597544074058533,,0.0
248,994384765,121.7368392944336,,0.0,138.9858856201172,,0.0,3.3981528282165527,,0.0,360.0,,0.0,-100.59725189208984,,0.0,0.9597544074058533,,0.0
248,994384765,121.7368392944336,,0.0,138.9858856201172,,0.0,3.3981528282165527,,0.0,360.0,,0.0,-100.59725189208984,,0.0,0.9597544074058533,,0.0
248,994384765,121.7368392944336,,0.0,138.9858856201172,,0.0,3.3981528282165527,,0.0,360.0,,0.0,-100.59725189208984,,0.0,0.9597544074058533,,0.0
248,994384765,-32.369468688964844,,-0.1576034277677536,68.35846710205078,,-0.07222916930913925,-21.024240493774414,,-0.024975856766104698,360.0,,0.0,-58.57848358154297,,0.04297222942113876,154.27227783203125,,0.15679138898849487
248,994384765,-33.04808807373047,,4.6245775592979044e-05,69.2657699584961,,-0.00037460343446582556,-24.644174575805664,,0.0008418385405093431,360.0,,0.0,-60.26457977294922,,-0.0004920961800962687,157.8799285888672,,0.0010591988684609532
248,994384765,-32.90532684326172,,4.593006451614201e-05,68.29936218261719,,-0.0003110890102107078,-22.60087013244629,,0.0006573850987479091,360.0,,0.0,-60.43401336669922,,-5.456715007312596e-05,157.77481079101562,,-3.3752876333892345e-05
248,994384765,-33.349021911621094,,-0.0004152955661993474,68.03783416748047,,6.271003803703934e-05,-22.88157081604004,,-0.000700811215210706,360.0,,0.0,-60.48339080810547,,-0.00010011589620262384,158.5732879638672,,0.0005688152741640806
248,994384765,-34.18590545654297,,-0.000257426145253703,68.44976806640625,,0.00012660956417676061,-24.124887466430664,,-0.0003821085556410253,360.0,,0.0,-60.04912567138672,,0.00013347432832233608,159.37554931640625,,0.0002465811267029494
248,994384765,-34.56169891357422,,-0.00017098466923926026,69.7203140258789,,0.0006084750057198107,-26.21189308166504,,-0.0009886255720630288,360.0,,0.0,-59.15563201904297,,0.0004518779751379043,159.97044372558594,,0.0002918410173151642
248,994384765,-34.553428649902344,,3.6090627872908954e-06,69.8198013305664,,4.341008389019407e-05,-26.304086685180664,,-4.043580702273175e-05,360.0,,0.0,-57.973960876464844,,0.0005156012484803796,159.22605895996094,,-0.0003250123409088701
248,994384765,-34.555442810058594,,3.400532705200021e-06,69.83229064941406,,5.965964192000683e-06,-26.53855323791504,,-0.00013340242730919272,360.0,,0.0,-58.029380798339844,,-3.420575012569316e-05,158.9208526611328,,-7.183208072092384e-05
248,994384765,-34.684349060058594,,-4.2374500480946153e-05,69.71077728271484,,-3.951135659008287e-05,-26.89530372619629,,-0.00011681619071168825,360.0,,0.0,-58.30516815185547,,-9.047528146766126e-05,159.44683837890625,,0.00017225378542207181
248,994384765,-34.96587371826172,,-0.00011613420792855322,69.37335968017578,,-0.00011179274588357657,-27.05014991760254,,-6.186588871059939e-05,360.0,,0.0,-58.57732391357422,,-8.574395178584382e-05,160.0858154296875,,0.0002293345460202545
248,994384765,-34.98754119873047,,-9.155277439276688e-06,68.94600677490234,,-0.00018615731096360832,-26.13901710510254,,0.0003975571889895946,360.0,,0.0,-58.485618591308594,,4.0012615500018e-05,160.7845916748047,,0.0003049017395824194
248,994384765,-34.83354949951172,,8.637379505671561e-05,69.21467590332031,,0.0001712086668703705,-26.43882179260254,,-0.00020642434537876397,360.0,,0.0,-58.41924285888672,,4.130279194214381e-05,160.59823608398438,,-0.00011602937593124807
248,994384765,-34.616233825683594,,6.889845099067315e-05,69.67676544189453,,0.00014650206139776856,-26.78525733947754,,-0.000109762855572626,360.0,,0.0,-58.13274383544922,,9.083240001928061e-05,160.4036407470703,,-6.153371941763908e-05
248,994384765,-34.507896423339844,,4.565431299852207e-05,69.95093536376953,,0.00019125622930005193,-26.87742042541504,,-0.0001871048443717882,360.0,,0.0,-57.819602966308594,,9.738223161548376e-05,160.38381958007812,,-1.8710485164774582e-05
248,994384765,-34.552024841308594,,-1.3853471500624437e-05,69.88982391357422,,-1.939485991897527e-05,-26.77756690979004,,3.164544250466861e-05,360.0,,0.0,-57.796775817871094,,7.234109489218099e-06,160.36610412597656,,-5.541388873098185e-06
248,994384765,-34.51354217529297,,5.509227776201442e-05,69.82687377929688,,-7.767299393890426e-05,-26.660715103149414,,0.00016226217849180102,360.0,,0.0,-57.78679656982422,,3.6292520235292614e-05,160.4474639892578,,7.018887845333666e-05
248,994384765,-33.960472106933594,,0.0002413229231024161,68.80728149414062,,-0.0004447938990779221,-24.51224708557129,,0.0009374466608278453,360.0,,0.0,-57.293724060058594,,0.00021514306718017906,161.82659912109375,,0.0006017568521201611
248,994384765,-34.531822204589844,,-0.0007455614977516234,68.59074401855469,,6.459924043156207e-05,-25.24289894104004,,-0.0013486708048731089,360.0,,0.0,-57.869102478027344,,-0.000703010824508965,163.93310546875,,0.00149634073022753
248,994384765,-33.21282196044922,,0.0004009336407762021,66.93553161621094,,-0.0005033278139308095,-22.49332618713379,,0.0008357829065062106,360.0,,0.0,-55.750511169433594,,0.000643983599729836,166.49130249023438,,0.0007776094716973603
248,994384765,-30.55022430419922,,0.0016155121847987175,66.29231262207031,,-0.0002930269401986152,-19.040658950805664,,0.0018744647968560457,360.0,,0.0,-53.381065368652344,,0.0010496671311557293,164.94017028808594,,-0.002202252158895135
248,994384765,-32.26384735107422,,-0.0005246823420748115,67.16118621826172,,0.0002660449827089906,-17.353158950805664,,0.0005167032941244543,360.0,,0.0,-53.36901092529297,,3.690218591145822e-06,155.49264526367188,,-0.002892713062465191
248,994384765,-36.961570739746094,,-0.001046753372065723,76.97213745117188,,0.0017353245057165623,-33.283424377441406,,-0.0025596630293875933,360.0,,0.0,-43.70952606201172,,0.0021907442715018988,146.34645080566406,,-0.0024940501898527145
248,994384765,-38.36638641357422,,-0.00041422087815590203,78.80609893798828,,0.0005410474259406328,-35.431190490722656,,-0.000633453659247607,360.0,,0.0,-44.06352996826172,,-0.00010420002217870206,141.12225341796875,,-0.0015413350192829967
248,994384765,-35.867881774902344,,0.0015298051293939352,76.15187072753906,,-0.001758736209012568,-30.410926818847656,,0.003168838331475854,360.0,,0.0,-46.428184509277344,,-0.001312296837568283,144.06507873535156,,0.0022091863211244345
248,994384765,-31.204551696777344,,0.001430066186003387,65.62890625,,-0.003226896282285452,-11.302375793457031,,0.005859868135303259,360.0,,0.0,-57.89665985107422,,-0.0035169844049960375,152.09588623046875,,0.002462741918861866
248,994384765,-30.09172821044922,,0.0,62.16444778442383,,0.0,-4.582160949707031,,0.0,360.0,,0.0,-58.70800018310547,,0.0,152.14083862304688,,0.0
248,994384765,-30.09172821044922,,0.0,62.16444778442383,,0.0,-4.582160949707031,,0.0,360.0,,0.0,-58.70800018310547,,0.0,152.14083862304688,,0.0
248,994384765,121.46024322509766,,0.1213855966925621,139.44451904296875,,0.06189749389886856,-11.239295959472656,,-0.005331643857061863,360.0,,0.0,-100.7734603881836,,-0.0336928553879261,-2.309112548828125,,-0.12370619177818298
248,994384765,113.54421997070312,,-0.007346773985773325,143.74391174316406,,0.003990444354712963,-24.192543029785156,,-0.012022288516163826,360.0,,0.0,-113.20427703857422,,-0.011537048034369946,0.7142304182052612,,0.002806085627526045
248,994384765,109.63306427001953,,-0.0007098994101397693,144.19308471679688,,4.6693308831891045e-05,-29.850685119628906,,-0.0012265092227607965,360.0,,0.0,-124.13680267333984,,-0.002769896062090993,2.868016481399536,,0.00013653603673446923
248,994384765,107.41545104980469,,-0.0024314341135323048,146.26992797851562,,0.0022775817196816206,-29.804908752441406,,5.0200458645122126e-05,360.0,,0.0,-121.41442108154297,,0.002985511440783739,-4.118669509887695,,-0.007662468124181032
248,994384765,111.1302719116211,,0.002916063414886594,149.94241333007812,,0.0016262682620435953,-33.393592834472656,,-0.0010280442656949162,360.0,,0.0,-105.1493148803711,,0.009855968877673149,3.3184261322021484,,0.002336670644581318
248,994384765,122.50732421875,,0.008803066797554493,154.62892150878906,,0.0036262141074985266,-41.817787170410156,,-0.00651843985542655,360.0,,0.0,-91.28264617919922,,0.010729423724114895,7.254116058349609,,0.0030452648643404245
248,994384765,127.13214111328125,,0.0022735854145139456,154.0001678466797,,-0.0004971175221726298,-41.83039093017578,,0.0004291307122912258,360.0,,0.0,-75.6003646850586,,0.006990268360823393,8.911845207214355,,0.0013226725859567523
248,994384765,119.50069427490234,,-0.004988628905266523,151.94955444335938,,-0.001340894028544426,-37.15338897705078,,0.0030576754361391068,360.0,,0.0,-92.83232879638672,,-0.011265568435192108,4.769392967224121,,-0.0027080802246928215
248,994384765,110.8345947265625,,-0.001861138385720551,152.2490234375,,-9.219087951350957e-05,-38.66907501220703,,2.8611038942472078e-05,360.0,,0.0,-103.79875946044922,,-0.001803588937036693,3.841541290283203,,-0.0005078879767097533
248,994384765,103.0495834350586,,-0.006612065713852644,153.56878662109375,,0.0011209935182705522,-36.450477600097656,,0.0018844653386622667,360.0,,0.0,-113.62557220458984,,-0.008346768096089363,4.216899871826172,,0.0003188274276908487
248,994384765,104.22154235839844,,0.0005624719779007137,154.9175567626953,,0.0004290318174753338,-41.414527893066406,,-0.001620944356545806,360.0,,0.0,-116.13957977294922,,-0.0002803621464408934,6.061423301696777,,0.0007457906031049788
248,994384765,112.07716369628906,,0.004985441453754902,152.6708221435547,,-0.0014259327435865998,-38.98706817626953,,0.001540547818876803,360.0,,0.0,-107.9659652709961,,0.00518725486472249,1.2002829313278198,,-0.0030848972965031862
248,994384765,122.69860076904297,,0.002034258795902133,150.60243225097656,,-0.00029479869408532977,-33.34888458251953,,0.0008243946358561516,360.0,,0.0,-93.34603118896484,,0.0021397266536951065,-0.4456220269203186,,-0.0002742439100984484
248,994384765,126.79545593261719,,0.003340267576277256,151.3006134033203,,0.000569244846701622,-34.769813537597656,,-0.00115902756806463,360.0,,0.0,-83.60784149169922,,0.007939784787595272,2.0912833213806152,,0.0020684008486568928
248,994384765,122.62630462646484,,-0.002337166341021657,150.30450439453125,,-0.0007364508928731084,-34.128761291503906,,0.0005549724446609616,360.0,,0.0,-86.56502532958984,,-0.00339254317805171,1.0308332443237305,,-0.0007985318661667407
248,994384765,114.97308349609375,,-0.0059798480942845345,149.2192840576172,,-0.0008484088466502726,-35.05225372314453,,-0.000721352465916425,360.0,,0.0,-111.87187957763672,,-0.019772980362176895,6.472431659698486,,0.0042517464607954025
248,994384765,108.92764282226562,,-0.0028422081377357244,148.44419860839844,,-0.0005048575694672763,-33.497352600097656,,0.000729195075109601,360.0,,0.0,-123.27581024169922,,-0.0043923878110945225,2.8888070583343506,,-0.0029935382772237062
248,994384765,106.19922637939453,,-0.0008732702699489892,146.7311553955078,,-0.0005485928268171847,-35.588050842285156,,-0.0006695071933791041,360.0,,0.0,-122.74608612060547,,0.00016958970809355378,-0.3597445487976074,,-0.0010400873143225908
248,994384765,108.06336975097656,,0.0019462717464193702,149.62135314941406,,0.0029521530959755182,-40.57556915283203,,-0.004050314426422119,360.0,,0.0,-115.26384735107422,,0.008269195444881916,3.2485618591308594,,0.002104683080688119
248,994384765,116.23267364501953,,0.0035645351745188236,151.10145568847656,,0.0006458225543610752,-37.96930694580078,,0.0011371975997462869,360.0,,0.0,-95.8636703491211,,0.008464924059808254,0.47484493255615234,,-0.001210022484883666
248,994384765,121.77352905273438,,0.0022205982822924852,152.7196807861328,,0.0008880557725206017,-38.94605255126953,,-0.0010904358932748437,360.0,,0.0,-92.87847137451172,,0.0008821252849884331,-1.0445117950439453,,0.0004437492461875081
248,994384765,126.85870361328125,,0.001607610029168427,151.59976196289062,,-0.00035377551103010774,-34.679420471191406,,0.0013488393742591143,360.0,,0.0,-86.94609832763672,,0.0018754421034827828,3.099620819091797,,0.0013101130025461316
248,994384765,126.65499877929688,,-0.0002883247216232121,150.33416748046875,,-0.0005551927606575191,-32.345008850097656,,0.0008796313777565956,360.0,,0.0,-85.93807220458984,,6.862903683213517e-05,3.5873758792877197,,-0.0001984747068490833
248,994384765,120.49244689941406,,-0.004259149543941021,148.68788146972656,,-0.0011385127436369658,-33.555702209472656,,-0.0008363596862182021,360.0,,0.0,-101.32579803466797,,-0.01063578762114048,1.8937487602233887,,-0.0011711452389135957
248,994384765,113.69214630126953,,-0.0027627453673630953,149.44168090820312,,0.0002015168429352343,-37.55890655517578,,-0.0013660098193213344,360.0,,0.0,-111.33898162841797,,-0.003731882432475686,8.8038911819458,,0.0032702824100852013
248,994384765,108.88782501220703,,-0.002096558455377817,148.56924438476562,,-0.00038070694427005947,-37.799537658691406,,-0.00010528569691814482,360.0,,0.0,-116.00530242919922,,-0.002036286285147071,-0.5891897678375244,,-0.004098512232303619
248,994384765,106.4432144165039,,-0.0013904912630096078,150.51072692871094,,0.0005672486731782556,-40.23725128173828,,-0.0002761375217232853,360.0,,0.0,-112.94795989990234,,0.0021413422655314207,-0.11595368385314941,,0.0005114668165333569
248,994384765,110.11579895019531,,0.0016024685464799404,151.9648895263672,,0.0006344976718537509,-39.83789825439453,,0.00017425128316972405,360.0,,0.0,-105.0879135131836,,0.0034295932855457067,8.831890106201172,,0.0039042348507791758
248,994384765,116.4798583984375,,0.0016439184546470642,152.04493713378906,,2.0177150872768834e-05,-34.09839630126953,,0.0014197962591424584,360.0,,0.0,-98.40685272216797,,0.00196658493950963,5.120755672454834,,-0.0007728224154561758
248,994384765,121.35752868652344,,0.004374969284981489,153.45240783691406,,0.0012624135706573725,-35.505653381347656,,-0.001262499252334237,360.0,,0.0,-93.44823455810547,,0.004447571467608213,6.212988376617432,,0.0009796656668186188
248,994384765,125.15792846679688,,0.0004520583606790751,157.62393188476562,,0.000458733644336462,-42.16602325439453,,-0.001153376535512507,360.0,,0.0,-93.00615692138672,,5.296432209433988e-05,11.402435302734375,,0.001416479004547
248,994384765,123.44190216064453,,-0.0005619802977889776,154.95401000976562,,-0.000874764344189316,-39.231117248535156,,0.0009615533635951579,360.0,,0.0,-94.5300521850586,,-0.0004995379713363945,10.968586921691895,,-0.00014207043568603694
248,994384765,113.56194305419922,,-0.0027000438421964645,152.41964721679688,,-0.00020523079729173332,-38.114784240722656,,-0.0002655030693858862,360.0,,0.0,-110.14604949951172,,-0.0027114879339933395,10.08874797821045,,1.6485160813317634e-05
248,994384765,109.3170166015625,,-0.0045192972756922245,151.9634552001953,,-0.0004858058237005025,-37.44757843017578,,0.0007102481904439628,360.0,,0.0,-107.52645111083984,,0.0027885849121958017,4.063912868499756,,-0.006414126139134169
248,994384765,110.07913970947266,,0.00046645721886307,151.00999450683594,,-0.0003166200185660273,-38.108619689941406,,-0.00018615731096360832,360.0,,0.0,-109.65523529052734,,-0.0010711675276979804,8.38210391998291,,0.001994613790884614
248,994384765,109.44409942626953,,-0.0004792570834979415,152.15673828125,,0.0008658788283355534,-41.14044952392578,,-0.002289343625307083,360.0,,0.0,-106.80034637451172,,0.0021556459832936525,10.291163444519043,,0.0014414798934012651
248,994384765,108.3659896850586,,-0.00015184981748461723,154.06057739257812,,0.00038887342088855803,-45.527931213378906,,-0.0008601003210060298,360.0,,0.0,-98.62395477294922,,0.0019278123509138823,16.06478500366211,,0.0017370667774230242
248,994384765,109.99292755126953,,0.001079716021195054,153.14065551757812,,-0.0006103756022639573,-43.38410186767578,,0.001422750880010426,360.0,,0.0,-94.90410614013672,,0.002468676771968603,17.518707275390625,,0.0009648955310694873
248,994384765,111.11332702636719,,0.0005040245014242828,152.9178009033203,,6.817122084612492e-07,-41.61377716064453,,0.0005139302811585367,360.0,,0.0,-91.7079086303711,,0.002265072427690029,16.74822235107422,,-0.00025259231915697455
248,994384765,113.0840072631836,,0.0008598719141446054,151.55967712402344,,-0.0005928042228333652,-40.748756408691406,,0.00037743765278719366,360.0,,0.0,-89.04634857177734,,0.0011613225797191262,17.866609573364258,,0.000487988640088588
248,994384765,114.52281188964844,,0.0007683116709813476,149.5493927001953,,-0.0011449065059423447,-39.524818420410156,,0.000764048658311367,360.0,,0.0,-86.59819793701172,,0.0007769224466755986,24.683441162109375,,0.0033168119844049215
248,994384765,115.35067749023438,,0.0002698131138458848,147.98060607910156,,-0.000511172809638083,-37.49005889892578,,0.0006631565629504621,360.0,,0.0,-86.26457977294922,,0.00010873151768464595,23.171276092529297,,-0.0004929369897581637
248,994384765,118.55917358398438,,0.0007333162939175963,145.45657348632812,,-0.0005531313945539296,-32.751319885253906,,0.001206118380650878,360.0,,0.0,-88.04906463623047,,-0.0003028870851267129,23.457801818847656,,0.00027659846819005907
248,994384765,120.31470489501953,,0.0020124828442931175,142.55056762695312,,-0.0033314204774796963,-26.192604064941406,,0.007518731988966465,360.0,,0.0,-83.58025360107422,,0.005122918635606766,28.09961700439453,,0.00532124936580658
248,994384765,123.18836975097656,,0.0,136.20396423339844,,0.0,-11.748085021972656,,0.0,360.0,,0.0,-83.4953842163086,,0.0,30.640138626098633,,0.0
248,994384765,123.18836975097656,,0.0,136.20396423339844,,0.0,-11.748085021972656,,0.0,360.0,,0.0,-83.4953842163086,,0.0,30.640138626098633,,0.0
248,994384765,130.6582489013672,,0.004418933764100075,146.86700439453125,,0.006307895295321941,-31.81629180908203,,-0.011871464550495148,360.0,,0.0,-95.8130111694336,,-0.0072871362790465355,27.802663803100586,,-0.0016787825152277946
248,994384765,135.06063842773438,,0.0027694404125213623,154.73196411132812,,0.004947669804096222,-47.676368713378906,,-0.0099777327850461,360.0,,0.0,-103.83086395263672,,-0.005043314769864082,27.80026626586914,,-1.0999594906024868e-06
248,994384765,135.06063842773438,,0.0,154.73196411132812,,0.0,-47.676368713378906,,0.0,360.0,,0.0,-103.83086395263672,,0.0,27.80026626586914,,0.0
248,994384765,135.06063842773438,,0.0,154.73196411132812,,0.0,-47.676368713378906,,0.0,360.0,,0.0,-103.83086395263672,,0.0,27.80026626586914,,0.0
248,994384765,135.06063842773438,,0.0,154.73196411132812,,0.0,-47.676368713378906,,0.0,360.0,,0.0,-103.83086395263672,,0.0,27.80026626586914,,0.0
248,994384765,135.06063842773438,,0.0,154.73196411132812,,0.0,-47.676368713378906,,0.0,360.0,,0.0,-103.83086395263672,,0.0,27.80026626586914,,0.0
248,994384765,135.06063842773438,,0.0,154.73196411132812,,0.0,-47.676368713378906,,0.0,360.0,,0.0,-103.83086395263672,,0.0,27.80026626586914,,0.0
248,994384765,135.06063842773438,,0.0,154.73196411132812,,0.0,-47.676368713378906,,0.0,360.0,,0.0,-103.83086395263672,,0.0,27.80026626586914,,0.0
248,994384765,135.06063842773438,,0.0,154.73196411132812,,0.0,-47.676368713378906,,0.0,360.0,,0.0,-103.83086395263672,,0.0,27.80026626586914,,0.0
248,994384765,135.06063842773438,,0.0,154.73196411132812,,0.0,-47.676368713378906,,0.0,360.0,,0.0,-103.83086395263672,,0.0,27.80026626586914,,0.0
248,994384765,135.06063842773438,,0.0,154.73196411132812,,0.0,-47.676368713378906,,0.0,360.0,,0.0,-103.83086395263672,,0.0,27.80026626586914,,0.0
248,994384765,135.06063842773438,,0.0,154.73196411132812,,0.0,-47.676368713378906,,0.0,360.0,,0.0,-103.83086395263672,,0.0,27.80026626586914,,0.0
248,994384765,135.06063842773438,,0.0,154.73196411132812,,0.0,-47.676368713378906,,0.0,360.0,,0.0,-103.83086395263672,,0.0,27.80026626586914,,0.0
248,994384765,135.06063842773438,,0.0,154.73196411132812,,0.0,-47.676368713378906,,0.0,360.0,,0.0,-103.83086395263672,,0.0,27.80026626586914,,0.0
248,994384765,135.06063842773438,,0.0,154.73196411132812,,0.0,-47.676368713378906,,0.0,360.0,,0.0,-103.83086395263672,,0.0,27.80026626586914,,0.0
248,994384765,135.06063842773438,,0.0,154.73196411132812,,0.0,-47.676368713378906,,0.0,360.0,,0.0,-103.83086395263672,,0.0,27.80026626586914,,0.0
248,994384765,135.06063842773438,,0.0,154.73196411132812,,0.0,-47.676368713378906,,0.0,360.0,,0.0,-103.83086395263672,,0.0,27.80026626586914,,0.0
248,994384765,135.06063842773438,,0.0,154.73196411132812,,0.0,-47.676368713378906,,0.0,360.0,,0.0,-103.83086395263672,,0.0,27.80026626586914,,0.0
248,994384765,135.06063842773438,,0.0,154.73196411132812,,0.0,-47.676368713378906,,0.0,360.0,,0.0,-103.83086395263672,,0.0,27.80026626586914,,0.0
248,994384765,135.06063842773438,,0.0,154.73196411132812,,0.0,-47.676368713378906,,0.0,360.0,,0.0,-103.83086395263672,,0.0,27.80026626586914,,0.0
248,994384765,135.06063842773438,,0.0,154.73196411132812,,0.0,-47.676368713378906,,0.0,360.0,,0.0,-103.83086395263672,,0.0,27.80026626586914,,0.0
248,994384765,135.06063842773438,,0.0,154.73196411132812,,0.0,-47.676368713378906,,0.0,360.0,,0.0,-103.83086395263672,,0.0,27.80026626586914,,0.0
248,994384765,135.06063842773438,,0.0,154.73196411132812,,0.0,-47.676368713378906,,0.0,360.0,,0.0,-103.83086395263672,,0.0,27.80026626586914,,0.0
248,994384765,135.06063842773438,,0.0,154.73196411132812,,0.0,-47.676368713378906,,0.0,360.0,,0.0,-103.83086395263672,,0.0,27.80026626586914,,0.0
248,994384765,135.06063842773438,,0.0,154.73196411132812,,0.0,-47.676368713378906,,0.0,360.0,,0.0,-103.83086395263672,,0.0,27.80026626586914,,0.0
248,994384765,135.06063842773438,,0.0,154.73196411132812,,0.0,-47.676368713378906,,0.0,360.0,,0.0,-103.83086395263672,,0.0,27.80026626586914,,0.0
248,994384765,135.06063842773438,,0.0,154.73196411132812,,0.0,-47.676368713378906,,0.0,360.0,,0.0,-103.83086395263672,,0.0,27.80026626586914,,0.0
248,994384765,135.06063842773438,,0.0,154.73196411132812,,0.0,-47.676368713378906,,0.0,360.0,,0.0,-103.83086395263672,,0.0,27.80026626586914,,0.0
270,308593750,135.06063842773438,,0.0,154.73196411132812,,0.0,-47.676368713378906,,0.0,360.0,,0.0,-103.83086395263672,,0.0,27.80026626586914,,0.0
270,308593750,135.06063842773438,,0.0,154.73196411132812,,0.0,-47.676368713378906,,0.0,360.0,,0.0,-103.83086395263672,,0.0,27.80026626586914,,0.0
270,308593750,135.06063842773438,,0.0,154.73196411132812,,0.0,-47.676368713378906,,0.0,360.0,,0.0,-103.83086395263672,,0.0,27.80026626586914,,0.0
270,308593750,135.06063842773438,,0.0,154.73196411132812,,0.0,-47.676368713378906,,0.0,360.0,,0.0,-103.83086395263672,,0.0,27.80026626586914,,0.0
270,308593750,135.06063842773438,,0.0,154.73196411132812,,0.0,-47.676368713378906,,0.0,360.0,,0.0,-103.83086395263672,,0.0,27.80026626586914,,0.0
270,308593750,135.06063842773438,,0.0,154.73196411132812,,0.0,-47.676368713378906,,0.0,360.0,,0.0,-103.83086395263672,,0.0,27.80026626586914,,0.0
270,308593750,135.06063842773438,,0.0,154.73196411132812,,0.0,-47.676368713378906,,0.0,360.0,,0.0,-103.83086395263672,,0.0,27.80026626586914,,0.0
270,308593750,135.06063842773438,,0.0,154.73196411132812,,0.0,-47.676368713378906,,0.0,360.0,,0.0,-103.83086395263672,,0.0,27.80026626586914,,0.0
270,308593750,135.06063842773438,,0.0,154.73196411132812,,0.0,-47.676368713378906,,0.0,360.0,,0.0,-103.83086395263672,,0.0,27.80026626586914,,0.0
270,308593750,135.06063842773438,,0.0,154.73196411132812,,0.0,-47.676368713378906,,0.0,360.0,,0.0,-103.83086395263672,,0.0,27.80026626586914,,0.0
270,308593750,135.06063842773438,,0.0,154.73196411132812,,0.0,-47.676368713378906,,0.0,360.0,,0.0,-103.83086395263672,,0.0,27.80026626586914,,0.0
270,308593750,135.06063842773438,,0.0,154.73196411132812,,0.0,-47.676368713378906,,0.0,360.0,,0.0,-103.83086395263672,,0.0,27.80026626586914,,0.0
270,308593750,135.06063842773438,,0.0,154.73196411132812,,0.0,-47.676368713378906,,0.0,360.0,,0.0,-103.83086395263672,,0.0,27.80026626586914,,0.0
270,308593750,135.06063842773438,,0.0,154.73196411132812,,0.0,-47.676368713378906,,0.0,360.0,,0.0,-103.83086395263672,,0.0,27.80026626586914,,0.0
270,308593750,135.06063842773438,,0.0,154.73196411132812,,0.0,-47.676368713378906,,0.0,360.0,,0.0,-103.83086395263672,,0.0,27.80026626586914,,0.0
270,308593750,135.06063842773438,,0.0,154.73196411132812,,0.0,-47.676368713378906,,0.0,360.0,,0.0,-103.83086395263672,,0.0,27.80026626586914,,0.0
270,308593750,135.06063842773438,,0.0,154.73196411132812,,0.0,-47.676368713378906,,0.0,360.0,,0.0,-103.83086395263672,,0.0,27.80026626586914,,0.0
270,308593750,135.06063842773438,,0.0,154.73196411132812,,0.0,-47.676368713378906,,0.0,360.0,,0.0,-103.83086395263672,,0.0,27.80026626586914,,0.0
270,308593750,127.4557876586914,,-0.0024060080759227276,156.0867156982422,,0.0004286428156774491,-52.537391662597656,,-0.0015379863325506449,360.0,,0.0,-99.53963470458984,,0.0013577406061813235,17.668312072753906,,-0.003205982269719243
270,308593750,124.095703125,,-0.0033762198872864246,151.58880615234375,,-0.004518021363765001,-31.47199249267578,,0.021162858232855797,360.0,,0.0,-88.60643768310547,,0.010983775369822979,13.838940620422363,,-0.003846993437036872
270,308593750,124.48637390136719,,0.0,145.32110595703125,,0.0,-16.95624542236328,,0.0,360.0,,0.0,-89.16875457763672,,0.0,13.552066802978516,,0.0
270,308593750,124.48637390136719,,0.0,145.32110595703125,,0.0,-16.95624542236328,,0.0,360.0,,0.0,-89.16875457763672,,0.0,13.552066802978516,,0.0
270,308593750,124.48637390136719,,0.0,145.32110595703125,,0.0,-16.95624542236328,,0.0,360.0,,0.0,-89.16875457763672,,0.0,13.552066802978516,,0.0
270,308593750,124.48637390136719,,0.0,145.32110595703125,,0.0,-16.95624542236328,,0.0,360.0,,0.0,-89.16875457763672,,0.0,13.552066802978516,,0.0
270,308593750,124.48637390136719,,0.0,145.32110595703125,,0.0,-16.95624542236328,,0.0,360.0,,0.0,-89.16875457763672,,0.0,13.552066802978516,,0.0
270,308593750,-34.61927795410156,,-0.050491396337747574,44.39942169189453,,-0.032026976346969604,-12.535133361816406,,0.001403018832206726,360.0,,0.0,-75.77974700927734,,0.004248937126249075,175.11456298828125,,0.05127108097076416
270,308593750,-34.12049865722656,,0.00035436652251519263,42.67082595825195,,-0.0019529518904164433,-7.496772766113281,,0.005018854979425669,360.0,,0.0,-70.64046478271484,,0.0031754521187394857,175.7683563232422,,0.0003946017532143742
270,308593750,123.88510131835938,,0.04348970204591751,163.41583251953125,,0.033234041184186935,-21.472206115722656,,-0.0038467724807560444,360.0,,0.0,-98.49376678466797,,-0.007666593883186579,1.8453689813613892,,-0.04787072911858559
270,308593750,120.35177612304688,,-0.0019440815085545182,158.7957305908203,,-0.002323946449905634,-11.417701721191406,,0.005020530428737402,360.0,,0.0,-101.88115692138672,,-0.0020622871816158295,2.023880958557129,,0.00013677251990884542
270,308593750,-41.10237121582031,,-0.05139021575450897,55.57959747314453,,-0.03285318240523338,-31.79785919189453,,-0.006487153936177492,360.0,,0.0,-59.550437927246094,,0.013473723083734512,162.47474670410156,,0.051070962101221085
270,308593750,-40.40641784667969,,0.0007796343415975571,53.876583099365234,,-0.0018589770188555121,-29.056129455566406,,0.0031353645026683807,360.0,,0.0,-58.816368103027344,,0.0003719682281371206,159.1636199951172,,-0.00196956773288548
270,308593750,-37.73149108886719,,0.0019665579311549664,44.891605377197266,,-0.006606113165616989,-12.405433654785156,,0.012241288088262081,360.0,,0.0,-69.39757537841797,,-0.00777847645804286,166.13079833984375,,0.005122140049934387
270,308593750,-37.73149108886719,,0.0,44.891605377197266,,0.0,-12.405433654785156,,0.0,360.0,,0.0,-69.39757537841797,,0.0,166.13079833984375,,0.0
270,308593750,-37.73149108886719,,0.0,44.891605377197266,,0.0,-12.405433654785156,,0.0,360.0,,0.0,-69.39757537841797,,0.0,166.13079833984375,,0.0
270,308593750,-37.73149108886719,,0.0,44.891605377197266,,0.0,-12.405433654785156,,0.0,360.0,,0.0,-69.39757537841797,,0.0,166.13079833984375,,0.0
270,308593750,-38.10404968261719,,-0.00012289850565139204,51.9461784362793,,0.0023279034066945314,-26.978004455566406,,-0.004808620549738407,360.0,,0.0,-53.009483337402344,,0.005407826043665409,157.48582458496094,,-0.0028526303358376026
270,308593750,-36.96101379394531,,0.0006464277976192534,45.54708480834961,,-0.004002261441200972,-12.670570373535156,,0.008828815072774887,360.0,,0.0,-59.936973571777344,,-0.0046613337472081184,164.64291381835938,,0.004683305975049734
270,308593750,-36.96101379394531,,0.0,45.54708480834961,,0.0,-12.670570373535156,,0.0,360.0,,0.0,-59.936973571777344,,0.0,164.64291381835938,,0.0
270,308593750,-36.96101379394531,,0.0,45.54708480834961,,0.0,-12.670570373535156,,0.0,360.0,,0.0,-59.936973571777344,,0.0,164.64291381835938,,0.0
270,308593750,-36.96101379394531,,0.0,45.54708480834961,,0.0,-12.670570373535156,,0.0,360.0,,0.0,-59.936973571777344,,0.0,164.64291381835938,,0.0
270,308593750,-39.49598693847656,,-0.0007008714601397514,51.489261627197266,,0.0021205011289566755,-27.972633361816406,,-0.004661583807319403,360.0,,0.0,-50.582298278808594,,0.00110054318793118,148.59506225585938,,-0.0036322493106126785
270,308593750,-41.84709167480469,,-0.0015541398897767067,51.959800720214844,,0.0003109498356934637,-24.00775909423828,,0.0026201410219073296,360.0,,0.0,-58.54344940185547,,-0.005260966252535582,157.79685974121094,,0.006080906838178635
270,308593750,-41.33573913574219,,0.00034879171289503574,44.181419372558594,,-0.004434508271515369,-8.709571838378906,,0.008646463043987751,360.0,,0.0,-73.82649993896484,,-0.006901409011334181,163.65341186523438,,0.001872673979960382
270,308593750,-41.33573913574219,,0.0,44.181419372558594,,0.0,-8.709571838378906,,0.0,360.0,,0.0,-73.82649993896484,,0.0,163.65341186523438,,0.0
270,308593750,-41.33573913574219,,0.0,44.181419372558594,,0.0,-8.709571838378906,,0.0,360.0,,0.0,-73.82649993896484,,0.0,163.65341186523438,,0.0
270,308593750,-39.18650817871094,,0.0006576268351636827,44.471763610839844,,8.884027920430526e-05,-17.494606018066406,,-0.002687934087589383,360.0,,0.0,-57.543846130371094,,0.004982203245162964,158.0255126953125,,-0.001722225220873952
270,308593750,-40.91700744628906,,-0.000458526803413406,51.945533752441406,,0.0024190526455640793,-34.03870391845703,,-0.005269624758511782,360.0,,0.0,-48.33599090576172,,0.0020421126391738653,150.9213409423828,,-0.0016616829670965672
270,308593750,-38.85920715332031,,0.0016448369715362787,49.074703216552734,,-0.00229491014033556,-26.751686096191406,,0.0058246492408216,360.0,,0.0,-71.52754974365234,,-0.018536780029535294,161.9330291748047,,0.008801854215562344
270,308593750,-36.01832580566406,,0.0008725296938791871,44.48750686645508,,-0.0014102093409746885,-18.497840881347656,,0.002586351940408349,360.0,,0.0,-80.67681121826172,,-0.0024770530872046947,170.53121948242188,,0.0029592474456876516
270,308593750,-35.22193908691406,,0.0004364997148513794,40.267696380615234,,-0.002312544733285904,-9.670539855957031,,0.004838247317820787,360.0,,0.0,-80.44084930419922,,0.00012933116522617638,171.89768981933594,,0.000748965481761843
270,308593750,-35.22193908691406,,0.0,40.267696380615234,,0.0,-9.670539855957031,,0.0,360.0,,0.0,-80.44084930419922,,0.0,171.89768981933594,,0.0
270,308593750,-35.22193908691406,,0.0,40.267696380615234,,0.0,-9.670539855957031,,0.0,360.0,,0.0,-80.44084930419922,,0.0,171.89768981933594,,0.0
270,308593750,-43.66383361816406,,-0.002765385201200843,43.696598052978516,,0.0011232353281229734,-12.152656555175781,,-0.0008133486262522638,360.0,,0.0,-61.28105926513672,,0.006276338826864958,160.26898193359375,,-0.0038095645140856504
270,308593750,-41.84861755371094,,0.0005872559850104153,42.09469223022461,,-0.0005181644228287041,-8.731239318847656,,0.0011068925959989429,360.0,,0.0,-63.667503356933594,,-0.0007721554138697684,162.60586547851562,,0.0007560246740467846
270,308593750,-39.54414367675781,,0.0016398298321291804,40.59211349487305,,-0.00036951861693523824,-6.072120666503906,,0.0005720086628571153,360.0,,0.0,-65.94512176513672,,-0.0013675099471583962,168.10665893554688,,0.0033786315470933914
270,308593750,-37.71522521972656,,0.0005762753426097333,43.3315315246582,,0.0008631663513369858,-10.629829406738281,,-0.0014363157097250223,360.0,,0.0,-61.37792205810547,,0.001439083251170814,168.37576293945312,,8.479400275973603e-05
270,308593750,-38.25831604003906,,-0.0003712112957146019,45.43842697143555,,0.0007942822412587702,-13.029457092285156,,-0.000737990252673626,360.0,,0.0,-60.439170837402344,,0.00032448527053929865,168.7808074951172,,0.0003721635730471462
270,308593750,-38.99693298339844,,-0.0002080576232401654,43.44350814819336,,-0.000562544446438551,-7.406745910644531,,0.0015854196390137076,360.0,,0.0,-60.980430603027344,,-0.0001528385328128934,170.30322265625,,0.0004292729136068374
270,308593750,-38.99693298339844,,0.0,43.44350814819336,,0.0,-7.406745910644531,,0.0,360.0,,0.0,-60.980430603027344,,0.0,170.30322265625,,0.0
270,308593750,-38.99693298339844,,0.0,43.44350814819336,,0.0,-7.406745910644531,,0.0,360.0,,0.0,-60.980430603027344,,0.0,170.30322265625,,0.0
270,308593750,-38.99693298339844,,0.0,43.44350814819336,,0.0,-7.406745910644531,,0.0,360.0,,0.0,-60.980430603027344,,0.0,170.30322265625,,0.0
270,308593750,-38.99693298339844,,0.0,43.44350814819336,,0.0,-7.406745910644531,,0.0,360.0,,0.0,-60.980430603027344,,0.0,170.30322265625,,0.0
270,308593750,-38.99693298339844,,0.0,43.44350814819336,,0.0,-7.406745910644531,,0.0,360.0,,0.0,-60.980430603027344,,0.0,170.30322265625,,0.0
270,308593750,-38.99693298339844,,0.0,43.44350814819336,,0.0,-7.406745910644531,,0.0,360.0,,0.0,-60.980430603027344,,0.0,170.30322265625,,0.0
