MCLusardi/Hand-Clap-Robot/temp_data/right_joint_trajectory_2025_10_10_14_52_04.csv
stamp_sec,stamp_nanosec,shoulder_joint_position,shoulder_joint_velocity,shoulder_joint_effort,upper_arm_joint_position,upper_arm_joint_velocity,upper_arm_joint_effort,forearm_joint_position,forearm_joint_velocity,forearm_joint_effort,wrist_1_joint_position,wrist_1_joint_velocity,wrist_1_joint_effort,wrist_2_joint_position,wrist_2_joint_velocity,wrist_2_joint_effort,wrist_3_joint_position,wrist_3_joint_velocity,wrist_3_joint_effort
223,506347656,-242.98672485351562,,0.0,63.36993408203125,,0.0,63.58751678466797,,0.0,44.66671371459961,,0.0,-29.77044677734375,,0.0,272.4814147949219,,0.0
223,506347656,-242.98672485351562,,0.0,63.36993408203125,,0.0,63.58751678466797,,0.0,44.66671371459961,,0.0,-29.77044677734375,,0.0,272.4814147949219,,0.0
223,506347656,-242.98672485351562,,0.0,63.36993408203125,,0.0,63.58751678466797,,0.0,44.66671371459961,,0.0,-29.77044677734375,,0.0,272.4814147949219,,0.0
223,506347656,-242.98672485351562,,0.0,63.36993408203125,,0.0,63.58751678466797,,0.0,44.66671371459961,,0.0,-29.77044677734375,,0.0,272.4814147949219,,0.0
223,506347656,-242.98672485351562,,0.0,63.36993408203125,,0.0,63.58751678466797,,0.0,44.66671371459961,,0.0,-29.77044677734375,,0.0,272.4814147949219,,0.0
223,506347656,-242.98672485351562,,0.0,63.36993408203125,,0.0,63.58751678466797,,0.0,44.66671371459961,,0.0,-29.77044677734375,,0.0,272.4814147949219,,0.0
223,506347656,-242.98672485351562,,0.0,63.36993408203125,,0.0,63.58751678466797,,0.0,44.66671371459961,,0.0,-29.77044677734375,,0.0,272.4814147949219,,0.0
223,506347656,-242.98672485351562,,0.0,63.36993408203125,,0.0,63.58751678466797,,0.0,44.66671371459961,,0.0,-29.77044677734375,,0.0,272.4814147949219,,0.0
223,506347656,-242.98672485351562,,0.0,63.36993408203125,,0.0,63.58751678466797,,0.0,44.66671371459961,,0.0,-29.77044677734375,,0.0,272.4814147949219,,0.0
223,506347656,-242.98672485351562,,0.0,63.36993408203125,,0.0,63.58751678466797,,0.0,44.66671371459961,,0.0,-29.77044677734375,,0.0,272.4814147949219,,0.0
223,506347656,-242.98672485351562,,0.0,63.36993408203125,,0.0,63.58751678466797,,0.0,44.66671371459961,,0.0,-29.77044677734375,,0.0,272.4814147949219,,0.0
223,506347656,-242.98672485351562,,0.0,63.36993408203125,,0.0,63.58751678466797,,0.0,44.66671371459961,,0.0,-29.77044677734375,,0.0,272.4814147949219,,0.0
223,506347656,-242.98672485351562,,0.0,63.36993408203125,,0.0,63.58751678466797,,0.0,44.66671371459961,,0.0,-29.77044677734375,,0.0,272.4814147949219,,0.0
223,506347656,-242.98672485351562,,0.0,63.36993408203125,,0.0,63.58751678466797,,0.0,44.66671371459961,,0.0,-29.77044677734375,,0.0,272.4814147949219,,0.0
223,506347656,-242.98672485351562,,0.0,63.36993408203125,,0.0,63.58751678466797,,0.0,44.66671371459961,,0.0,-29.77044677734375,,0.0,272.4814147949219,,0.0
223,506347656,-242.98672485351562,,0.0,63.36993408203125,,0.0,63.58751678466797,,0.0,44.66671371459961,,0.0,-29.77044677734375,,0.0,272.4814147949219,,0.0
223,506347656,-242.98672485351562,,0.0,63.36993408203125,,0.0,63.58751678466797,,0.0,44.66671371459961,,0.0,-29.77044677734375,,0.0,272.4814147949219,,0.0
223,506347656,-242.98672485351562,,0.0,63.36993408203125,,0.0,63.58751678466797,,0.0,44.66671371459961,,0.0,-29.77044677734375,,0.0,272.4814147949219,,0.0
223,506347656,-242.98672485351562,,0.0,63.36993408203125,,0.0,63.58751678466797,,0.0,44.66671371459961,,0.0,-29.77044677734375,,0.0,272.4814147949219,,0.0
223,506347656,-242.98672485351562,,0.0,63.36993408203125,,0.0,63.58751678466797,,0.0,44.66671371459961,,0.0,-29.77044677734375,,0.0,272.4814147949219,,0.0
223,506347656,-242.98672485351562,,0.0,63.36993408203125,,0.0,63.58751678466797,,0.0,44.66671371459961,,0.0,-29.77044677734375,,0.0,272.4814147949219,,0.0
223,506347656,-242.98672485351562,,0.0,63.36993408203125,,0.0,63.58751678466797,,0.0,44.66671371459961,,0.0,-29.77044677734375,,0.0,272.4814147949219,,0.0
223,506347656,-242.98672485351562,,0.0,63.36993408203125,,0.0,63.58751678466797,,0.0,44.66671371459961,,0.0,-29.77044677734375,,0.0,272.4814147949219,,0.0
223,506347656,-242.98672485351562,,0.0,63.36993408203125,,0.0,63.58751678466797,,0.0,44.66671371459961,,0.0,-29.77044677734375,,0.0,272.4814147949219,,0.0
223,506347656,-242.98672485351562,,0.0,63.36993408203125,,0.0,63.58751678466797,,0.0,44.66671371459961,,0.0,-29.77044677734375,,0.0,272.4814147949219,,0.0
223,506347656,-242.98672485351562,,0.0,63.36993408203125,,0.0,63.58751678466797,,0.0,44.66671371459961,,0.0,-29.77044677734375,,0.0,272.4814147949219,,0.0
223,506347656,-242.98672485351562,,0.0,63.36993408203125,,0.0,63.58751678466797,,0.0,44.66671371459961,,0.0,-29.77044677734375,,0.0,272.4814147949219,,0.0
223,506347656,-242.98672485351562,,0.0,63.36993408203125,,0.0,63.58751678466797,,0.0,44.66671371459961,,0.0,-29.77044677734375,,0.0,272.4814147949219,,0.0
223,506347656,-242.98672485351562,,0.0,63.36993408203125,,0.0,63.58751678466797,,0.0,44.66671371459961,,0.0,-29.77044677734375,,0.0,272.4814147949219,,0.0
223,506347656,-242.98672485351562,,0.0,63.36993408203125,,0.0,63.58751678466797,,0.0,44.66671371459961,,0.0,-29.77044677734375,,0.0,272.4814147949219,,0.0
223,506347656,-242.98672485351562,,0.0,63.36993408203125,,0.0,63.58751678466797,,0.0,44.66671371459961,,0.0,-29.77044677734375,,0.0,272.4814147949219,,0.0
223,506347656,-242.98672485351562,,0.0,63.36993408203125,,0.0,63.58751678466797,,0.0,44.66671371459961,,0.0,-29.77044677734375,,0.0,272.4814147949219,,0.0
223,506347656,-242.98672485351562,,0.0,63.36993408203125,,0.0,63.58751678466797,,0.0,44.66671371459961,,0.0,-29.77044677734375,,0.0,272.4814147949219,,0.0
223,506347656,-242.98672485351562,,0.0,63.36993408203125,,0.0,63.58751678466797,,0.0,44.66671371459961,,0.0,-29.77044677734375,,0.0,272.4814147949219,,0.0
223,506347656,-242.98672485351562,,0.0,63.36993408203125,,0.0,63.58751678466797,,0.0,44.66671371459961,,0.0,-29.77044677734375,,0.0,272.4814147949219,,0.0
223,506347656,-242.98672485351562,,0.0,63.36993408203125,,0.0,63.58751678466797,,0.0,44.66671371459961,,0.0,-29.77044677734375,,0.0,272.4814147949219,,0.0
223,506347656,-242.98672485351562,,0.0,63.36993408203125,,0.0,63.58751678466797,,0.0,44.66671371459961,,0.0,-29.77044677734375,,0.0,272.4814147949219,,0.0
223,506347656,-242.98672485351562,,0.0,63.36993408203125,,0.0,63.58751678466797,,0.0,44.66671371459961,,0.0,-29.77044677734375,,0.0,272.4814147949219,,0.0
223,506347656,-242.98672485351562,,0.0,63.36993408203125,,0.0,63.58751678466797,,0.0,44.66671371459961,,0.0,-29.77044677734375,,0.0,272.4814147949219,,0.0
223,506347656,-242.98672485351562,,0.0,63.36993408203125,,0.0,63.58751678466797,,0.0,44.66671371459961,,0.0,-29.77044677734375,,0.0,272.4814147949219,,0.0
223,506347656,-242.98672485351562,,0.0,63.36993408203125,,0.0,63.58751678466797,,0.0,44.66671371459961,,0.0,-29.77044677734375,,0.0,272.4814147949219,,0.0
223,506347656,-242.98672485351562,,0.0,63.36993408203125,,0.0,63.58751678466797,,0.0,44.66671371459961,,0.0,-29.77044677734375,,0.0,272.4814147949219,,0.0
223,506347656,-242.98672485351562,,0.0,63.36993408203125,,0.0,63.58751678466797,,0.0,44.66671371459961,,0.0,-29.77044677734375,,0.0,272.4814147949219,,0.0
223,506347656,-242.98672485351562,,0.0,63.36993408203125,,0.0,63.58751678466797,,0.0,44.66671371459961,,0.0,-29.77044677734375,,0.0,272.4814147949219,,0.0
223,506347656,-242.98672485351562,,0.0,63.36993408203125,,0.0,63.58751678466797,,0.0,44.66671371459961,,0.0,-29.77044677734375,,0.0,272.4814147949219,,0.0
223,506347656,-242.98672485351562,,0.0,63.36993408203125,,0.0,63.58751678466797,,0.0,44.66671371459961,,0.0,-29.77044677734375,,0.0,272.4814147949219,,0.0
223,506347656,-242.98672485351562,,0.0,63.36993408203125,,0.0,63.58751678466797,,0.0,44.66671371459961,,0.0,-29.77044677734375,,0.0,272.4814147949219,,0.0
223,506347656,-242.98672485351562,,0.0,63.36993408203125,,0.0,63.58751678466797,,0.0,44.66671371459961,,0.0,-29.77044677734375,,0.0,272.4814147949219,,0.0
223,506347656,-242.98672485351562,,0.0,63.36993408203125,,0.0,63.58751678466797,,0.0,44.66671371459961,,0.0,-29.77044677734375,,0.0,272.4814147949219,,0.0
223,506347656,-242.98672485351562,,0.0,63.36993408203125,,0.0,63.58751678466797,,0.0,44.66671371459961,,0.0,-29.77044677734375,,0.0,272.4814147949219,,0.0
223,506347656,-242.98672485351562,,0.0,63.36993408203125,,0.0,63.58751678466797,,0.0,44.66671371459961,,0.0,-29.77044677734375,,0.0,272.4814147949219,,0.0
223,506347656,-242.98672485351562,,0.0,63.36993408203125,,0.0,63.58751678466797,,0.0,44.66671371459961,,0.0,-29.77044677734375,,0.0,272.4814147949219,,0.0
223,506347656,-242.98672485351562,,0.0,63.36993408203125,,0.0,63.58751678466797,,0.0,44.66671371459961,,0.0,-29.77044677734375,,0.0,272.4814147949219,,0.0
223,506347656,-242.98672485351562,,0.0,63.36993408203125,,0.0,63.58751678466797,,0.0,44.66671371459961,,0.0,-29.77044677734375,,0.0,272.4814147949219,,0.0
223,506347656,-242.98672485351562,,0.0,63.36993408203125,,0.0,63.58751678466797,,0.0,44.66671371459961,,0.0,-29.77044677734375,,0.0,272.4814147949219,,0.0
223,506347656,-242.98672485351562,,0.0,63.36993408203125,,0.0,63.58751678466797,,0.0,44.66671371459961,,0.0,-29.77044677734375,,0.0,272.4814147949219,,0.0
223,506347656,-242.98672485351562,,0.0,63.36993408203125,,0.0,63.58751678466797,,0.0,44.66671371459961,,0.0,-29.77044677734375,,0.0,272.4814147949219,,0.0
223,506347656,-242.98672485351562,,0.0,63.36993408203125,,0.0,63.58751678466797,,0.0,44.66671371459961,,0.0,-29.77044677734375,,0.0,272.4814147949219,,0.0
223,506347656,-242.98672485351562,,0.0,63.36993408203125,,0.0,63.58751678466797,,0.0,44.66671371459961,,0.0,-29.77044677734375,,0.0,272.4814147949219,,0.0
223,506347656,-242.98672485351562,,0.0,63.36993408203125,,0.0,63.58751678466797,,0.0,44.66671371459961,,0.0,-29.77044677734375,,0.0,272.4814147949219,,0.0
223,506347656,-242.98672485351562,,0.0,63.36993408203125,,0.0,63.58751678466797,,0.0,44.66671371459961,,0.0,-29.77044677734375,,0.0,272.4814147949219,,0.0
223,506347656,-242.98672485351562,,0.0,63.36993408203125,,0.0,63.58751678466797,,0.0,44.66671371459961,,0.0,-29.77044677734375,,0.0,272.4814147949219,,0.0
223,506347656,-242.98672485351562,,0.0,63.36993408203125,,0.0,63.58751678466797,,0.0,44.66671371459961,,0.0,-29.77044677734375,,0.0,272.4814147949219,,0.0
223,506347656,-242.98672485351562,,0.0,63.36993408203125,,0.0,63.58751678466797,,0.0,44.66671371459961,,0.0,-29.77044677734375,,0.0,272.4814147949219,,0.0
223,506347656,-242.98672485351562,,0.0,63.36993408203125,,0.0,63.58751678466797,,0.0,44.66671371459961,,0.0,-29.77044677734375,,0.0,272.4814147949219,,0.0
223,506347656,-242.98672485351562,,0.0,63.36993408203125,,0.0,63.58751678466797,,0.0,44.66671371459961,,0.0,-29.77044677734375,,0.0,272.4814147949219,,0.0
223,506347656,-242.98672485351562,,0.0,63.36993408203125,,0.0,63.58751678466797,,0.0,44.66671371459961,,0.0,-29.77044677734375,,0.0,272.4814147949219,,0.0
223,506347656,-242.98672485351562,,0.0,63.36993408203125,,0.0,63.58751678466797,,0.0,44.66671371459961,,0.0,-29.77044677734375,,0.0,272.4814147949219,,0.0
223,506347656,-242.98672485351562,,0.0,63.36993408203125,,0.0,63.58751678466797,,0.0,44.66671371459961,,0.0,-29.77044677734375,,0.0,272.4814147949219,,0.0
223,506347656,-242.98672485351562,,0.0,63.36993408203125,,0.0,63.58751678466797,,0.0,44.66671371459961,,0.0,-29.77044677734375,,0.0,272.4814147949219,,0.0
223,506347656,-242.98672485351562,,0.0,63.36993408203125,,0.0,63.58751678466797,,0.0,44.66671371459961,,0.0,-29.77044677734375,,0.0,272.4814147949219,,0.0
223,506347656,-242.98672485351562,,0.0,63.36993408203125,,0.0,63.58751678466797,,0.0,44.66671371459961,,0.0,-29.77044677734375,,0.0,272.4814147949219,,0.0
223,506347656,-242.98672485351562,,0.0,63.36993408203125,,0.0,63.58751678466797,,0.0,44.66671371459961,,0.0,-29.77044677734375,,0.0,272.4814147949219,,0.0
223,506347656,-242.98672485351562,,0.0,63.36993408203125,,0.0,63.58751678466797,,0.0,44.66671371459961,,0.0,-29.77044677734375,,0.0,272.4814147949219,,0.0
223,506347656,-242.98672485351562,,0.0,63.36993408203125,,0.0,63.58751678466797,,0.0,44.66671371459961,,0.0,-29.77044677734375,,0.0,272.4814147949219,,0.0
223,506347656,-242.98672485351562,,0.0,63.36993408203125,,0.0,63.58751678466797,,0.0,44.66671371459961,,0.0,-29.77044677734375,,0.0,272.4814147949219,,0.0
223,506347656,-242.98672485351562,,0.0,63.36993408203125,,0.0,63.58751678466797,,0.0,44.66671371459961,,0.0,-29.77044677734375,,0.0,272.4814147949219,,0.0
223,506347656,-242.98672485351562,,0.0,63.36993408203125,,0.0,63.58751678466797,,0.0,44.66671371459961,,0.0,-29.77044677734375,,0.0,272.4814147949219,,0.0
223,506347656,-242.98672485351562,,0.0,63.36993408203125,,0.0,63.58751678466797,,0.0,44.66671371459961,,0.0,-29.77044677734375,,0.0,272.4814147949219,,0.0
223,506347656,-242.98672485351562,,0.0,63.36993408203125,,0.0,63.58751678466797,,0.0,44.66671371459961,,0.0,-29.77044677734375,,0.0,272.4814147949219,,0.0
223,506347656,-242.98672485351562,,0.0,63.36993408203125,,0.0,63.58751678466797,,0.0,44.66671371459961,,0.0,-29.77044677734375,,0.0,272.4814147949219,,0.0
223,506347656,-242.98672485351562,,0.0,63.36993408203125,,0.0,63.58751678466797,,0.0,44.66671371459961,,0.0,-29.77044677734375,,0.0,272.4814147949219,,0.0
223,506347656,-242.98672485351562,,0.0,63.36993408203125,,0.0,63.58751678466797,,0.0,44.66671371459961,,0.0,-29.77044677734375,,0.0,272.4814147949219,,0.0
223,506347656,-242.98672485351562,,0.0,63.36993408203125,,0.0,63.58751678466797,,0.0,44.66671371459961,,0.0,-29.77044677734375,,0.0,272.4814147949219,,0.0
223,506347656,-242.98672485351562,,0.0,63.36993408203125,,0.0,63.58751678466797,,0.0,44.66671371459961,,0.0,-29.77044677734375,,0.0,272.4814147949219,,0.0
223,506347656,-242.98672485351562,,0.0,63.36993408203125,,0.0,63.58751678466797,,0.0,44.66671371459961,,0.0,-29.77044677734375,,0.0,272.4814147949219,,0.0
223,506347656,-242.98672485351562,,0.0,63.36993408203125,,0.0,63.58751678466797,,0.0,44.66671371459961,,0.0,-29.77044677734375,,0.0,272.4814147949219,,0.0
223,506347656,-242.98672485351562,,0.0,63.36993408203125,,0.0,63.58751678466797,,0.0,44.66671371459961,,0.0,-29.77044677734375,,0.0,272.4814147949219,,0.0
223,506347656,-242.98672485351562,,0.0,63.36993408203125,,0.0,63.58751678466797,,0.0,44.66671371459961,,0.0,-29.77044677734375,,0.0,272.4814147949219,,0.0
223,506347656,-242.98672485351562,,0.0,63.36993408203125,,0.0,63.58751678466797,,0.0,44.66671371459961,,0.0,-29.77044677734375,,0.0,272.4814147949219,,0.0
223,506347656,-242.98672485351562,,0.0,63.36993408203125,,0.0,63.58751678466797,,0.0,44.66671371459961,,0.0,-29.77044677734375,,0.0,272.4814147949219,,0.0
223,506347656,-242.98672485351562,,0.0,63.36993408203125,,0.0,63.58751678466797,,0.0,44.66671371459961,,0.0,-29.77044677734375,,0.0,272.4814147949219,,0.0
223,506347656,-242.98672485351562,,0.0,63.36993408203125,,0.0,63.58751678466797,,0.0,44.66671371459961,,0.0,-29.77044677734375,,0.0,272.4814147949219,,0.0
223,506347656,-242.98672485351562,,0.0,63.36993408203125,,0.0,63.58751678466797,,0.0,44.66671371459961,,0.0,-29.77044677734375,,0.0,272.4814147949219,,0.0
223,506347656,-242.98672485351562,,0.0,63.36993408203125,,0.0,63.58751678466797,,0.0,44.66671371459961,,0.0,-29.77044677734375,,0.0,272.4814147949219,,0.0
223,506347656,-242.98672485351562,,0.0,63.36993408203125,,0.0,63.58751678466797,,0.0,44.66671371459961,,0.0,-29.77044677734375,,0.0,272.4814147949219,,0.0
223,506347656,-242.98672485351562,,0.0,63.36993408203125,,0.0,63.58751678466797,,0.0,44.66671371459961,,0.0,-29.77044677734375,,0.0,272.4814147949219,,0.0
223,506347656,-242.98672485351562,,0.0,63.36993408203125,,0.0,63.58751678466797,,0.0,44.66671371459961,,0.0,-29.77044677734375,,0.0,272.4814147949219,,0.0
223,506347656,-242.98672485351562,,0.0,63.36993408203125,,0.0,63.58751678466797,,0.0,44.66671371459961,,0.0,-29.77044677734375,,0.0,272.4814147949219,,0.0
223,506347656,-242.98672485351562,,0.0,63.36993408203125,,0.0,63.58751678466797,,0.0,44.66671371459961,,0.0,-29.77044677734375,,0.0,272.4814147949219,,0.0
223,506347656,-242.98672485351562,,0.0,63.36993408203125,,0.0,63.58751678466797,,0.0,44.66671371459961,,0.0,-29.77044677734375,,0.0,272.4814147949219,,0.0
223,506347656,-242.98672485351562,,0.0,63.36993408203125,,0.0,63.58751678466797,,0.0,44.66671371459961,,0.0,-29.77044677734375,,0.0,272.4814147949219,,0.0
223,506347656,-242.98672485351562,,0.0,63.36993408203125,,0.0,63.58751678466797,,0.0,44.66671371459961,,0.0,-29.77044677734375,,0.0,272.4814147949219,,0.0
223,506347656,-242.98672485351562,,0.0,63.36993408203125,,0.0,63.58751678466797,,0.0,44.66671371459961,,0.0,-29.77044677734375,,0.0,272.4814147949219,,0.0
223,506347656,-242.98672485351562,,0.0,63.36993408203125,,0.0,63.58751678466797,,0.0,44.66671371459961,,0.0,-29.77044677734375,,0.0,272.4814147949219,,0.0
223,506347656,-242.98672485351562,,0.0,63.36993408203125,,0.0,63.58751678466797,,0.0,44.66671371459961,,0.0,-29.77044677734375,,0.0,272.4814147949219,,0.0
223,506347656,-242.98672485351562,,0.0,63.36993408203125,,0.0,63.58751678466797,,0.0,44.66671371459961,,0.0,-29.77044677734375,,0.0,272.4814147949219,,0.0
223,506347656,-242.98672485351562,,0.0,63.36993408203125,,0.0,63.58751678466797,,0.0,44.66671371459961,,0.0,-29.77044677734375,,0.0,272.4814147949219,,0.0
223,506347656,-242.98672485351562,,0.0,63.36993408203125,,0.0,63.58751678466797,,0.0,44.66671371459961,,0.0,-29.77044677734375,,0.0,272.4814147949219,,0.0
223,506347656,-242.98672485351562,,0.0,63.36993408203125,,0.0,63.58751678466797,,0.0,44.66671371459961,,0.0,-29.77044677734375,,0.0,272.4814147949219,,0.0
223,506347656,-242.98672485351562,,0.0,63.36993408203125,,0.0,63.58751678466797,,0.0,44.66671371459961,,0.0,-29.77044677734375,,0.0,272.4814147949219,,0.0
223,506347656,-242.98672485351562,,0.0,63.36993408203125,,0.0,63.58751678466797,,0.0,44.66671371459961,,0.0,-29.77044677734375,,0.0,272.4814147949219,,0.0
223,506347656,-242.98672485351562,,0.0,63.36993408203125,,0.0,63.58751678466797,,0.0,44.66671371459961,,0.0,-29.77044677734375,,0.0,272.4814147949219,,0.0
223,506347656,-242.98672485351562,,0.0,63.36993408203125,,0.0,63.58751678466797,,0.0,44.66671371459961,,0.0,-29.77044677734375,,0.0,272.4814147949219,,0.0
223,506347656,-242.98672485351562,,0.0,63.36993408203125,,0.0,63.58751678466797,,0.0,44.66671371459961,,0.0,-29.77044677734375,,0.0,272.4814147949219,,0.0
223,506347656,-242.98672485351562,,0.0,63.36993408203125,,0.0,63.58751678466797,,0.0,44.66671371459961,,0.0,-29.77044677734375,,0.0,272.4814147949219,,0.0
223,506347656,-242.98672485351562,,0.0,63.36993408203125,,0.0,63.58751678466797,,0.0,44.66671371459961,,0.0,-29.77044677734375,,0.0,272.4814147949219,,0.0
223,506347656,-242.98672485351562,,0.0,63.36993408203125,,0.0,63.58751678466797,,0.0,44.66671371459961,,0.0,-29.77044677734375,,0.0,272.4814147949219,,0.0
223,506347656,-242.98672485351562,,0.0,63.36993408203125,,0.0,63.58751678466797,,0.0,44.66671371459961,,0.0,-29.77044677734375,,0.0,272.4814147949219,,0.0
223,506347656,-242.98672485351562,,0.0,63.36993408203125,,0.0,63.58751678466797,,0.0,44.66671371459961,,0.0,-29.77044677734375,,0.0,272.4814147949219,,0.0
223,506347656,-242.98672485351562,,0.0,63.36993408203125,,0.0,63.58751678466797,,0.0,44.66671371459961,,0.0,-29.77044677734375,,0.0,272.4814147949219,,0.0
223,506347656,-242.98672485351562,,0.0,63.36993408203125,,0.0,63.58751678466797,,0.0,44.66671371459961,,0.0,-29.77044677734375,,0.0,272.4814147949219,,0.0
223,506347656,-242.98672485351562,,0.0,63.36993408203125,,0.0,63.58751678466797,,0.0,44.66671371459961,,0.0,-29.77044677734375,,0.0,272.4814147949219,,0.0
223,506347656,-242.98672485351562,,0.0,63.36993408203125,,0.0,63.58751678466797,,0.0,44.66671371459961,,0.0,-29.77044677734375,,0.0,272.4814147949219,,0.0
223,506347656,-242.98672485351562,,0.0,63.36993408203125,,0.0,63.58751678466797,,0.0,44.66671371459961,,0.0,-29.77044677734375,,0.0,272.4814147949219,,0.0
223,506347656,-101.36264038085938,,0.0617951899766922,66.8489761352539,,0.0015180177288129926,38.81273651123047,,-0.010810093022882938,-94.50857543945312,,-0.06072695553302765,-125.0555419921875,,-0.04157564043998718,360.0,,0.038187213242053986
223,506347656,-98.47616577148438,,-0.0004053997981827706,67.07418060302734,,9.00510567589663e-05,39.80179214477539,,-0.0002228455268777907,-95.01028442382812,,0.0004870762350037694,-121.14178466796875,,-0.00011390987492632121,360.0,,0.0
223,506347656,-101.0179443359375,,-0.001605659257620573,67.3164291381836,,0.0001529979781480506,39.101829528808594,,-0.00044172193156555295,-91.8477783203125,,0.001997316488996148,-121.31341552734375,,-0.00010822187323356047,360.0,,0.0
223,506347656,-102.266845703125,,-0.0002623718755785376,67.36318969726562,,2.354483149247244e-05,38.23521423339844,,-0.0002531181089580059,-92.44757080078125,,-0.0001801765465643257,-123.27603149414062,,-0.0005122239235788584,360.0,,0.0
223,506347656,-108.67117309570312,,-0.003501321654766798,64.37125396728516,,-0.0016354795079678297,43.06513595581055,,0.0026403553783893585,-82.15481567382812,,0.0056267064064741135,-140.70822143554688,,-0.009529941715300083,360.0,,0.0
223,506347656,-29.051605224609375,,0.03440515324473381,78.81918334960938,,0.007685175631195307,50.144439697265625,,-0.00040054338751360774,-97.5015869140625,,-0.007424166891723871,-48.59600830078125,,0.03508177399635315,360.0,,0.0
223,506347656,-18.55145263671875,,0.008404995314776897,83.85478973388672,,0.0040308209136128426,47.24365234375,,-0.0023219932336360216,-91.049072265625,,0.005165006034076214,-47.84527587890625,,0.0006009323988109827,360.0,,0.0
223,506347656,-15.536590576171875,,0.0005510615883395076,83.86360168457031,,-0.00023727427469566464,51.24235916137695,,0.0010447789682075381,-85.00384521484375,,0.00034023242187686265,-48.80322265625,,-0.00041198747931048274,360.0,,0.0
223,506347656,-15.842071533203125,,-0.0002365418622503057,83.68240356445312,,-0.0001405734510626644,51.44453811645508,,0.00015628922847099602,-86.73388671875,,-0.001336799468845129,-49.683074951171875,,-0.0006798889371566474,360.0,,0.0
223,506347656,-16.053436279296875,,-3.2806408853502944e-05,83.74189758300781,,-1.6021735063986853e-05,50.67160415649414,,-9.078983566723764e-05,-89.11135864257812,,-0.0004676820826716721,-50.115692138671875,,-8.926395821617916e-05,360.0,,0.0
223,506347656,-15.729400634765625,,0.00024764085537754,83.6976318359375,,-3.340731200296432e-05,50.918067932128906,,0.0001883572113001719,-89.18743896484375,,-5.879687159904279e-05,-50.118377685546875,,-2.672585196705768e-06,360.0,,0.0
223,506347656,-14.13525390625,,0.00046994496369734406,84.401123046875,,0.0002488470927346498,50.864906311035156,,-6.922089960426092e-05,-88.228759765625,,0.0003005430626217276,-49.341796875,,0.0002615809498820454,360.0,,0.0
223,506347656,-13.1513671875,,0.0003026247723028064,84.95767211914062,,0.00017118235700763762,50.83768844604492,,-8.605020411778241e-06,-87.701904296875,,0.00016205001156777143,-48.71588134765625,,0.00019251948106102645,360.0,,0.0
223,506347656,-12.43328857421875,,0.00038754017441533506,85.42110443115234,,0.000214749263250269,50.69631576538086,,-4.915381578030065e-05,-86.10983276367188,,0.0008533179061487317,-48.253692626953125,,0.0002567774790804833,360.0,,0.0
223,506347656,-6.815673828125,,0.0024511481169611216,87.85262298583984,,0.001060951268300414,47.26080322265625,,-0.001499176723882556,-73.6199951171875,,0.005449723452329636,-46.260955810546875,,0.0008694950956851244,360.0,,0.0
223,506347656,-2.948333740234375,,0.003436925122514367,88.38480377197266,,0.00032622789149172604,47.60612869262695,,0.0006614652229472995,-67.19607543945312,,0.0051992712542414665,-45.09149169921875,,0.0011543259024620056,360.0,,0.0
223,506347656,3.359544277191162,,0.002017128746956587,90.48080444335938,,0.0006702576647512615,46.67763137817383,,-0.0002969050547108054,-60.64178466796875,,0.0020959265530109406,-42.986328125,,0.0006731877219863236,360.0,,0.0
223,506347656,10.857199668884277,,0.0042595942504704,90.01080322265625,,-0.0005170741933397949,52.038570404052734,,0.0036657012533396482,-56.95526123046875,,0.0017240976449102163,-43.097869873046875,,-0.0004118126817047596,360.0,,0.0
223,506347656,13.1856050491333,,0.0007208799943327904,91.78075408935547,,0.0005479822866618633,50.1649169921875,,-0.000580325722694397,-56.4512939453125,,0.00015602895291522145,-41.6162109375,,0.0004587253206409514,360.0,,0.0
223,506347656,14.269132614135742,,0.000808454118669033,92.41791534423828,,0.00015391508350148797,50.219032287597656,,0.0006265598349273205,-56.103302001953125,,0.0005140370922163129,-40.90008544921875,,0.0003513518604449928,360.0,,0.0
223,506347656,16.223037719726562,,0.0012659019557759166,91.50601196289062,,-0.0005913434433750808,54.76835632324219,,0.0029474308248609304,-52.535125732421875,,0.0023117605596780777,-42.6983642578125,,-0.0011645613703876734,360.0,,0.0
223,506347656,18.811237335205078,,0.0004814663261640817,97.59233856201172,,0.0012382555287331343,44.931922912597656,,-0.002002956112846732,-60.738006591796875,,-0.0014279339229688048,-44.812896728515625,,-0.00010243996803183109,360.0,,0.0
223,506347656,21.445661544799805,,0.0026141363196074963,104.54569244384766,,0.006899802014231682,35.09886169433594,,-0.009757991880178452,-55.059661865234375,,0.005634612869471312,-45.206695556640625,,-0.0003903890901710838,360.0,,0.0
223,506347656,24.24909019470215,,0.0004533615428954363,103.71529388427734,,-0.00012377423990983516,40.83430099487305,,0.0008801214280538261,-43.76568603515625,,0.0018111399840563536,-49.978271484375,,-0.0006387826870195568,360.0,,0.0
223,506347656,27.21198272705078,,0.0028643805999308825,102.3236083984375,,-0.0013455527368932962,47.04719924926758,,0.006006332114338875,-44.37054443359375,,-0.0005848759319633245,-46.03875732421875,,0.003808530978858471,360.0,,0.0
223,506347656,28.565174102783203,,-8.406317647313699e-05,101.76200103759766,,-0.00012825023441109806,49.74275588989258,,0.00023528469318989664,-44.819000244140625,,-0.00019183648691978306,-41.8974609375,,0.0005981397116556764,360.0,,0.0
223,506347656,28.26429557800293,,-0.0003108365635853261,100.97370147705078,,-0.0008150424109771848,51.12210464477539,,0.0014256254071369767,-47.21380615234375,,-0.002475849585607648,-42.058380126953125,,-0.00016626142314635217,360.0,,0.0
223,506347656,28.393503189086914,,7.48794764149352e-06,99.6789779663086,,-0.00042076638783328235,53.452178955078125,,0.0006477480055764318,-49.438018798828125,,-0.00022440873726736754,-43.218414306640625,,-0.0003117986780125648,360.0,,0.0
223,506347656,28.67690658569336,,9.126722579821944e-05,98.80623626708984,,-0.0002809833094943315,54.86565399169922,,0.0004551923484541476,-49.693756103515625,,-8.221154712373391e-05,-44.403656005859375,,-0.0003817769174929708,360.0,,0.0
223,506347656,28.46674156188965,,-0.0002004840935114771,99.0538101196289,,0.0002163117751479149,54.15750503540039,,-0.0006067281938157976,-49.477294921875,,0.00020930128812324256,-44.279693603515625,,0.00012308364966884255,360.0,,0.0
223,506347656,27.85145378112793,,-0.0003923264448530972,99.76740264892578,,0.0004548682481981814,52.703853607177734,,-0.0009262024541385472,-49.597686767578125,,-7.690490019740537e-05,-44.34771728515625,,-4.3467985960887745e-05,360.0,,0.0
223,506347656,26.90494728088379,,-0.000641637307126075,100.3170166015625,,0.00017018707876559347,51.64131164550781,,-0.0003561447374522686,-53.906036376953125,,-0.0022738471161574125,-49.29669189453125,,-0.0029486478306353092,360.0,,0.0
223,506347656,24.896099090576172,,-0.0013581158127635717,97.2333984375,,-0.0020850447472184896,55.6414794921875,,0.002704097656533122,-57.24517822265625,,-0.0022576164919883013,-48.74365234375,,0.00037385307950899005,360.0,,0.0
223,506347656,23.428035736083984,,-0.0002916096127592027,91.30848693847656,,-0.0011681239120662212,62.05678939819336,,0.0011898173252120614,-59.184600830078125,,-0.00041297313873656094,-48.289886474609375,,9.853543451754376e-05,360.0,,0.0
223,506347656,20.912538528442383,,-0.001421415712684393,85.47616577148438,,-0.0032952348701655865,62.43483352661133,,0.0002135650283889845,-66.2493896484375,,-0.003990632016211748,-46.216827392578125,,0.0011711138067767024,360.0,,0.0
223,506347656,19.150789260864258,,-0.0011892301263287663,79.03339385986328,,-0.004251497332006693,65.52455139160156,,0.0024577227886766195,-69.27883911132812,,-0.0019120590295642614,-46.930328369140625,,4.841771806241013e-05,360.0,,0.0
223,506347656,14.570231437683105,,-0.0032415715977549553,71.41962432861328,,-0.005386948119848967,69.10780334472656,,0.0025354744866490364,-77.3955078125,,-0.005743273068219423,-49.227020263671875,,-0.0016257347306236625,360.0,,0.0
223,506347656,15.105008125305176,,0.000553331570699811,68.54618835449219,,-0.0013969156425446272,70.08740997314453,,0.0011191245866939425,-79.74267578125,,-0.00044155961950309575,-54.88275146484375,,-0.0017876042984426022,360.0,,0.0
223,506347656,19.026493072509766,,0.001338159665465355,70.60147094726562,,0.0007013416616246104,67.06710052490234,,-0.0010304392781108618,-82.93795776367188,,-0.0010901057394221425,-57.303985595703125,,-0.00082638009916991,360.0,,0.0
223,506347656,25.500141143798828,,0.0032805108930915594,72.5935287475586,,0.0011915910290554166,69.71240997314453,,0.0015549599193036556,-77.14517211914062,,0.0035891367588192225,-48.38372802734375,,0.003956550266593695,360.0,,0.0
223,506347656,29.034311294555664,,0.001127020688727498,80.4797134399414,,0.002514847554266453,66.27297973632812,,-0.0010967848356813192,-69.28399658203125,,0.0025068691466003656,-48.754302978515625,,-0.0001182096530101262,360.0,,0.0
223,506347656,27.702835083007812,,-0.001026742160320282,89.82108306884766,,0.00234806421212852,60.528228759765625,,-0.0021503902971744537,-59.829010009765625,,0.002447493840008974,-48.8990478515625,,0.002357329474762082,360.0,,0.0
223,506347656,23.546794891357422,,-0.0012721763923764229,100.87120056152344,,0.003382300026714802,48.24825668334961,,-0.00375872734002769,-54.62896728515625,,0.0015916673000901937,-46.084442138671875,,0.000861516164150089,360.0,,0.0
223,506347656,22.49481201171875,,-0.0005589486099779606,103.07733917236328,,0.0008439471712335944,48.968318939208984,,5.7954181102104485e-05,-50.51922607421875,,0.0019431277178227901,-50.09967041015625,,-0.001810409827157855,360.0,,0.0
223,506347656,22.64080810546875,,4.549212462734431e-05,102.5278549194336,,-0.00017107819439843297,47.41966247558594,,-0.0004827238153666258,-53.25390625,,-0.0008521219715476036,-49.61944580078125,,0.00014963596186134964,360.0,,0.0
223,506347656,22.85015296936035,,0.00017812896112445742,96.68587493896484,,-0.0032745287753641605,50.30668258666992,,0.002244858304038644,-57.396392822265625,,-0.001721397740766406,-47.784881591796875,,0.0008669431554153562,360.0,,0.0
223,506347656,21.724924087524414,,-0.0007993722683750093,89.17310333251953,,-0.005333699751645327,54.075992584228516,,0.0026757908053696156,-62.160919189453125,,-0.003382437163963914,-49.27001953125,,-0.0010538309579715133,360.0,,0.0
223,506347656,19.081377029418945,,-0.001152802025899291,78.16193389892578,,-0.0028579726349562407,62.107177734375,,0.0018320896197110415,-68.08438110351562,,-0.0012886052718386054,-49.73193359375,,-0.0006034853868186474,360.0,,0.0
223,506347656,12.685636520385742,,-0.0037304875440895557,72.55602264404297,,-0.003269530599936843,63.490753173828125,,0.0008069614414125681,-75.25997924804688,,-0.0041853259317576885,-55.299774169921875,,-0.0032470948062837124,360.0,,0.0
223,506347656,-5.925965785980225,,0.0,66.83989715576172,,0.0,63.660823822021484,,0.0,-79.308349609375,,0.0,-68.86550903320312,,0.0,360.0,,0.0
223,506347656,-5.925965785980225,,0.0,66.83989715576172,,0.0,63.660823822021484,,0.0,-79.308349609375,,0.0,-68.86550903320312,,0.0,360.0,,0.0
223,506347656,-35.046329498291016,,-0.016581732779741287,58.03947067260742,,-0.0017357507022097707,67.41065979003906,,-0.000856067577842623,-78.51986694335938,,0.0022099779453128576,-85.85736083984375,,-0.006464785896241665,360.0,,0.0
223,506347656,-64.61032104492188,,-0.026007479056715965,52.3255729675293,,-0.005026759579777718,68.179443359375,,0.0006762927514500916,-70.65762329101562,,0.00691639631986618,-98.38711547851562,,-0.011022569611668587,360.0,,0.0
223,506347656,-89.10317993164062,,-0.003921192139387131,46.2106819152832,,-0.0012373849749565125,67.17008972167969,,6.654900062130764e-06,-60.626708984375,,0.0016167028807103634,-104.03570556640625,,0.0003448118222877383,360.0,,0.0
223,506347656,-94.3089599609375,,-0.0053207906894385815,44.118011474609375,,-0.00213939743116498,66.90049743652344,,-0.00027524412143975496,-58.230987548828125,,0.002448837738484144,-105.79510498046875,,-0.001798023353330791,360.0,,0.0
223,506347656,-96.31964111328125,,-8.604011236457154e-05,45.260353088378906,,0.0008723047794774175,64.52151489257812,,-0.0009486194467172027,-58.155975341796875,,-0.00042257673339918256,-110.3251953125,,-0.0020900124218314886,360.0,,0.0
223,506347656,-88.06845092773438,,0.0026790816336870193,48.13871765136719,,0.0009345761500298977,64.91536712646484,,0.0001278812560485676,-63.02496337890625,,-0.0015811289194971323,-108.62451171875,,0.0005521975690498948,360.0,,0.0
223,506347656,-66.58743286132812,,0.007113337982445955,53.73654556274414,,0.0013936363393440843,63.46644592285156,,-5.229473390500061e-05,-73.043701171875,,-0.0028981741052120924,-98.10015869140625,,0.0040731593035161495,360.0,,0.0
223,506347656,-30.02227783203125,,0.011599645018577576,59.70767593383789,,0.001894235610961914,64.41031646728516,,0.00029942617402412,-80.02346801757812,,-0.0022143207024782896,-82.9664306640625,,0.0048009054735302925,360.0,,0.0
223,506347656,-12.884185791015625,,0.0,62.796382904052734,,0.0,64.24363708496094,,0.0,-81.438232421875,,0.0,-72.3240966796875,,0.0,360.0,,0.0
223,506347656,-12.884185791015625,,0.0,62.796382904052734,,0.0,64.24363708496094,,0.0,-81.438232421875,,0.0,-72.3240966796875,,0.0,360.0,,0.0
223,506347656,-12.884185791015625,,0.0,62.796382904052734,,0.0,64.24363708496094,,0.0,-81.438232421875,,0.0,-72.3240966796875,,0.0,360.0,,0.0
223,506347656,-55.73516845703125,,-0.0329880565404892,52.470855712890625,,-0.007948524318635464,69.9025650024414,,0.004356402903795242,-81.84786987304688,,-0.00031497961026616395,-94.37857055664062,,-0.016977937892079353,360.0,,0.0
223,506347656,-86.80538940429688,,-0.014796853996813297,46.452796936035156,,-0.003411548212170601,68.27761840820312,,-0.0007715995889157057,-65.64556884765625,,0.009676385670900345,-109.03585815429688,,-0.006110462360084057,360.0,,0.0
223,506347656,22.620712280273438,,0.06564616411924362,96.51087951660156,,0.03003050945699215,53.81477737426758,,-0.008675993420183659,-59.21270751953125,,0.0038591602351516485,-43.3189697265625,,0.039424434304237366,360.0,,0.0
223,506347656,21.570659637451172,,-0.0002952576905954629,100.01785278320312,,0.0009575132862664759,52.860774993896484,,-0.0002159119612770155,-55.392242431640625,,0.000988673185929656,-45.08819580078125,,-0.0010673528304323554,360.0,,0.0
223,506347656,20.46286392211914,,-0.0011268642265349627,99.95394134521484,,-6.576337182195857e-05,50.985565185546875,,-0.0019053603755310178,-54.791168212890625,,0.0006109981331974268,-46.452667236328125,,-0.001386362942866981,360.0,,0.0
223,506347656,20.774394989013672,,9.625781967770308e-05,92.95380401611328,,-0.0021591198164969683,53.45534133911133,,0.0013206979492679238,-60.258392333984375,,-0.0010169986635446548,-45.2476806640625,,0.000283293571555987,360.0,,0.0
223,506347656,19.13077735900879,,-0.0018453005468472838,86.28890228271484,,-0.007483282592147589,56.82349395751953,,0.003781447419896722,-64.66647338867188,,-0.0049489387311041355,-47.420440673828125,,-0.002440115436911583,360.0,,0.0
223,506347656,14.9500093460083,,-0.0017898567020893097,76.12358093261719,,-0.002675629686564207,62.691959381103516,,0.0011044626589864492,-71.3865966796875,,-0.0016799934674054384,-52.646392822265625,,-0.0014030463062226772,360.0,,0.0
223,506347656,-0.6217331886291504,,-0.01666610687971115,67.41310119628906,,-0.00932298880070448,63.62282180786133,,0.0009962444892153144,-78.72970581054688,,-0.007859605364501476,-61.779541015625,,-0.00977398082613945,360.0,,0.0
223,506347656,-0.6217331886291504,,0.0,67.41310119628906,,0.0,63.62282180786133,,0.0,-78.72970581054688,,0.0,-61.779541015625,,0.0,360.0,,0.0
223,506347656,-28.584745407104492,,-0.012200932949781418,59.42763137817383,,-0.0034843459725379944,66.2127685546875,,0.0011300777550786734,-80.92282104492188,,-0.0009567264933139086,-80.66656494140625,,-0.008241275325417519,360.0,,0.0
223,506347656,-54.823089599609375,,-0.011059042997658253,55.08130645751953,,-0.0020109708420932293,66.46924591064453,,0.0002733917208388448,-77.8140869140625,,0.0017102527199313045,-94.14791870117188,,-0.006087403744459152,360.0,,0.0
223,506347656,25.05349349975586,,0.03485275059938431,88.65599060058594,,0.014649726450443268,60.600982666015625,,-0.0025604257825762033,-62.923492431640625,,0.006497249007225037,-50.384307861328125,,0.019095484167337418,360.0,,0.0
223,506347656,22.6201229095459,,-0.001843737089075148,95.06961822509766,,0.005117334425449371,53.42258071899414,,-0.005714891478419304,-59.349029541015625,,0.0029666959308087826,-49.490081787109375,,0.0006586162489838898,360.0,,0.0
223,506347656,20.518007278442383,,-0.000917053606826812,102.98980712890625,,0.00345583725720644,45.09083557128906,,-0.0036354081239551306,-53.240875244140625,,0.0026651869993656874,-48.74884033203125,,0.0003234283358324319,360.0,,0.0
223,506347656,19.046138763427734,,-0.0006584787042811513,104.73359680175781,,0.0010926936520263553,43.317840576171875,,-0.0011200926965102553,-52.7974853515625,,0.0006924010231159627,-48.935272216796875,,-0.00029529715538956225,360.0,,0.0
223,506347656,18.911088943481445,,-4.226798046147451e-05,101.13225555419922,,-0.001130805816501379,45.61749267578125,,0.0007219543913379312,-55.126495361328125,,-0.0007311811787076294,-48.28375244140625,,0.00020453933393582702,360.0,,0.0
223,506347656,18.753816604614258,,-0.0002081120474031195,95.07271575927734,,-0.0027033330406993628,48.21726989746094,,0.0011321568163111806,-57.885833740234375,,-0.0010182625846937299,-47.854583740234375,,-9.343806596007198e-05,360.0,,0.0
223,506347656,16.91493797302246,,-0.0008026126306504011,88.08480834960938,,-0.0030487074982374907,51.389137268066406,,0.001383989118039608,-60.352447509765625,,-0.001076508080586791,-49.676788330078125,,-0.0007949832361191511,360.0,,0.0
223,506347656,13.836316108703613,,-0.0015782075934112072,82.50595092773438,,-0.002321316162124276,51.987953186035156,,-0.00012648657138925046,-65.12515258789062,,-0.0025469798129051924,-55.095733642578125,,-0.0023946210276335478,360.0,,0.0
223,506347656,9.638039588928223,,-0.0013750047655776143,77.12583923339844,,-0.0017621364677324891,54.52533721923828,,0.0008310459670610726,-69.34841918945312,,-0.0013830222887918353,-58.3121337890625,,-0.001053158543072641,360.0,,0.0
223,506347656,1.4743584394454956,,-0.0010284015443176031,72.63855743408203,,-0.0005016858340241015,57.08490753173828,,0.00036264414666220546,-71.8648681640625,,-0.0004189783940091729,-63.53076171875,,-0.0007313077221624553,360.0,,0.0
223,506347656,8.978015899658203,,0.008674221113324165,74.26551818847656,,0.0018807619344443083,58.75556945800781,,0.0019312824588268995,-72.11611938476562,,-0.0002910667972173542,-59.649932861328125,,0.004486230202019215,360.0,,0.0
223,506347656,16.89203643798828,,0.004275813233107328,81.08802032470703,,0.005153766367584467,57.50614929199219,,-0.0015957901487126946,-65.73043823242188,,0.004886299837380648,-54.38409423828125,,0.0024472540244460106,360.0,,0.0
223,506347656,18.81830596923828,,0.0008404936525039375,90.29399108886719,,0.00401686318218708,52.16634750366211,,-0.0023300182074308395,-56.201812744140625,,0.004157647956162691,-56.233642578125,,-0.0008071902557276189,360.0,,0.0
223,506347656,19.051618576049805,,0.00013304800086189061,94.73882293701172,,0.0008387447451241314,49.01811599731445,,-0.0005883335252292454,-52.361175537109375,,0.0004757832793984562,-54.087646484375,,0.0005831543239764869,360.0,,0.0
223,506347656,19.62013816833496,,0.0003680408699437976,101.33582305908203,,0.004270682577043772,43.93950653076172,,-0.0032882862724363804,-48.730133056640625,,0.0023506199941039085,-53.30810546875,,0.000504648603964597,360.0,,0.0
223,506347656,18.673908233642578,,-0.0005671613034792244,105.55338287353516,,0.003116197418421507,39.720924377441406,,-0.0029162548016756773,-44.566680908203125,,0.002696310169994831,-51.342529296875,,0.0018186840461567044,360.0,,0.0
223,506347656,18.391849517822266,,-0.00012283331307116896,107.4366683959961,,0.0008217397844418883,38.36726760864258,,-0.0005905153811909258,-43.62249755859375,,0.0004119785444345325,-51.330718994140625,,5.152823632670334e-06,360.0,,0.0
223,506347656,18.290008544921875,,-4.555490522761829e-05,105.15682983398438,,-0.0016048341058194637,40.139381408691406,,0.0012183598009869456,-45.889312744140625,,-0.0016438813181594014,-52.44390869140625,,-0.0007653223583474755,360.0,,0.0
223,506347656,18.358415603637695,,2.265780494781211e-05,99.50855255126953,,-0.0018706758273765445,44.46823501586914,,0.001433824421837926,-50.496307373046875,,-0.0015260776272043586,-52.421112060546875,,7.5505276981857605e-06,360.0,,0.0
223,506347656,15.75827407836914,,-0.001877545495517552,90.47696685791016,,-0.004959588870406151,49.60578918457031,,0.0030139312148094177,-55.958648681640625,,-0.0038966883439570665,-50.22210693359375,,0.0010979478247463703,360.0,,0.0
223,506347656,11.845746040344238,,-0.0012004957534372807,83.07084655761719,,-0.0022722522262483835,53.874122619628906,,0.001309441402554512,-63.5137939453125,,-0.002317847451195121,-52.86767578125,,-0.0008115952368825674,360.0,,0.0
223,506347656,-3.136301040649414,,-0.0038864961825311184,72.57450103759766,,-0.0016903122887015343,58.93995666503906,,0.0005261427722871304,-73.11260986328125,,-0.0015866936882957816,-61.81488037109375,,-0.002013389952480793,360.0,,0.0
223,506347656,-13.260263442993164,,-0.0044174217619001865,72.77798461914062,,8.878413791535422e-05,53.73195266723633,,-0.0022727977484464645,-74.53955078125,,-0.0006225588731467724,-69.11398315429688,,-0.003184510627761483,360.0,,0.0
223,506347656,0.04128074645996094,,0.003316358430311084,74.81388854980469,,0.0005732617573812604,58.46931457519531,,0.0012062325840815902,-70.51895141601562,,0.001083119073882699,-57.5941162109375,,0.002810751786455512,360.0,,0.0
223,506347656,16.456985473632812,,0.010329813696444035,81.65657043457031,,0.004305853508412838,61.99656295776367,,0.002219569403678179,-63.746673583984375,,0.004261550027877092,-51.8126220703125,,0.0036380852106958628,360.0,,0.0
223,506347656,20.04017448425293,,0.00043994170846417546,85.58235931396484,,0.0008849981823004782,63.28262710571289,,0.00012485614570323378,-57.33221435546875,,0.0014971682103350759,-51.59844970703125,,-0.00017842461238615215,360.0,,0.0
223,506347656,17.83153533935547,,-0.0014473333721980453,95.10091400146484,,0.00623825890943408,52.209938049316406,,-0.007257293909788132,-56.120849609375,,0.0007939008064568043,-44.440887451171875,,0.004690914880484343,360.0,,0.0
223,506347656,14.939400672912598,,-0.0014600116992369294,98.68915557861328,,0.001351669430732727,48.95460891723633,,-0.0008836003835313022,-51.367156982421875,,0.002700107404962182,-48.315673828125,,-0.00268531683832407,360.0,,0.0
223,506347656,10.288777351379395,,-0.004425862804055214,99.88532257080078,,0.0011382416123524308,48.976280212402344,,2.0622745068976656e-05,-51.050933837890625,,0.00030091137159615755,-45.055999755859375,,0.0031018282752484083,360.0,,0.0
223,506347656,7.1106953620910645,,-0.0006379440310411155,100.96139526367188,,0.0003359532856848091,44.700653076171875,,-0.001333735417574644,-51.78131103515625,,-0.0006130749825388193,-37.091796875,,0.0014232551911845803,360.0,,0.0
223,506347656,6.377849102020264,,-0.00045235874131321907,102.92994689941406,,0.0012154653668403625,37.03146743774414,,-0.004735191818326712,-60.06561279296875,,-0.005115216597914696,-53.29180908203125,,-0.01000263448804617,360.0,,0.0
223,506347656,4.373669147491455,,-0.0007419942412525415,101.17628479003906,,-0.0009508518851362169,38.21442794799805,,0.0012589748948812485,-57.8216552734375,,0.000912721618078649,-58.937957763671875,,-0.0022443034686148167,360.0,,0.0
223,506347656,-2.257535934448242,,-0.0028930676635354757,96.69564056396484,,-0.001955414656549692,44.34776306152344,,0.002676173811778426,-57.526885986328125,,0.00012861793220508844,-50.22607421875,,0.003801277605816722,360.0,,0.0
223,506347656,-4.487089157104492,,-0.0002503542054910213,96.61746215820312,,7.82569040893577e-05,40.988101959228516,,-0.0009020354482345283,-55.732208251953125,,0.000617995101492852,-48.931732177734375,,8.220581366913393e-05,360.0,,0.0
223,506347656,-15.028470993041992,,-0.006507202051579952,67.4593734741211,,-0.01799868792295456,69.35993957519531,,0.017513127997517586,97.80237579345703,,0.09477253258228302,39.216121673583984,,0.05441116541624069,289.9165344238281,,-0.043260104954242706
223,506347656,-38.322601318359375,,-0.005351209547370672,68.56378173828125,,1.760663690220099e-05,68.88360595703125,,-0.000196192049770616,49.082298278808594,,-0.008621077053248882,61.320526123046875,,0.006893440615385771,326.58721923828125,,0.0055781095288693905
223,506347656,-76.39297485351562,,-0.041261933743953705,129.67771911621094,,0.0662367194890976,-68.5746078491211,,-0.14898109436035156,119.32744598388672,,0.0761333480477333,123.57190704345703,,0.0674695149064064,342.9756164550781,,0.01776214689016342
223,506347656,-176.40512084960938,,-0.029339611530303955,49.605560302734375,,-0.03377305343747139,74.2488784790039,,0.06365394592285156,49.64082336425781,,-0.03584291413426399,251.76995849609375,,0.03527144342660904,341.85009765625,,-0.005399324465543032
223,506347656,-121.13592529296875,,0.03943281248211861,70.39210510253906,,0.01483053620904684,72.2448959350586,,-0.0014296569861471653,21.421146392822266,,-0.020133711397647858,225.25643920898438,,-0.018916133791208267,328.3128662109375,,-0.00965829286724329
223,506347656,-127.83328247070312,,-0.0013515229802578688,67.89974212646484,,-0.0006908926297910511,80.61963653564453,,0.0014274283312261105,32.691001892089844,,0.0029398121405392885,245.57916259765625,,0.003217388177290559,356.9149169921875,,0.004770495463162661
223,506347656,-127.26531982421875,,0.0003656376793514937,66.67678833007812,,-0.0007868183893151581,79.54729461669922,,-0.0006900138105265796,49.25430679321289,,0.010662808082997799,236.32943725585938,,-0.0059546055272221565,360.0,,0.001986058661714196
223,506347656,-128.45269775390625,,-0.0012144307838752866,67.60997772216797,,0.0010710239876061678,79.89479064941406,,0.0005498999380506575,37.606605529785156,,-0.012814002111554146,235.75869750976562,,0.00015857645485084504,360.0,,0.0
223,506347656,-132.76416015625,,-0.0018814095528796315,66.84635925292969,,-0.0003334046632517129,81.99552917480469,,0.0009166185045614839,34.46166229248047,,-0.0013725287280976772,239.77999877929688,,0.0017546184826642275,360.0,,0.0
223,506347656,-135.82723999023438,,-0.0013224715366959572,66.57478332519531,,6.8370507506188e-05,80.41675567626953,,-0.0011418561916798353,35.752685546875,,5.274125578580424e-05,238.13134765625,,-0.0021934048272669315,360.0,,0.0
223,506347656,-137.21926879882812,,-0.0005030829925090075,66.65464782714844,,2.8867727451142855e-05,74.8258056640625,,-0.002021180232986808,34.19306564331055,,-0.0005637563881464303,229.097900390625,,-0.0032649836502969265,360.0,,0.0
223,506347656,-137.21926879882812,,0.0,66.65464782714844,,0.0,74.8258056640625,,0.0,34.19306564331055,,0.0,229.097900390625,,0.0,360.0,,0.0
223,506347656,-137.21926879882812,,0.0,66.65464782714844,,0.0,74.8258056640625,,0.0,34.19306564331055,,0.0,229.097900390625,,0.0,360.0,,0.0
223,506347656,-137.21926879882812,,0.0,66.65464782714844,,0.0,74.8258056640625,,0.0,34.19306564331055,,0.0,229.097900390625,,0.0,360.0,,0.0
223,506347656,-137.21926879882812,,0.0,66.65464782714844,,0.0,74.8258056640625,,0.0,34.19306564331055,,0.0,229.097900390625,,0.0,360.0,,0.0
223,506347656,-137.21926879882812,,0.0,66.65464782714844,,0.0,74.8258056640625,,0.0,34.19306564331055,,0.0,229.097900390625,,0.0,360.0,,0.0
223,506347656,-137.21926879882812,,0.0,66.65464782714844,,0.0,74.8258056640625,,0.0,34.19306564331055,,0.0,229.097900390625,,0.0,360.0,,0.0
223,506347656,-137.21926879882812,,0.0,66.65464782714844,,0.0,74.8258056640625,,0.0,34.19306564331055,,0.0,229.097900390625,,0.0,360.0,,0.0
223,506347656,-137.21926879882812,,0.0,66.65464782714844,,0.0,74.8258056640625,,0.0,34.19306564331055,,0.0,229.097900390625,,0.0,360.0,,0.0
223,506347656,-137.21926879882812,,0.0,66.65464782714844,,0.0,74.8258056640625,,0.0,34.19306564331055,,0.0,229.097900390625,,0.0,360.0,,0.0
223,506347656,-137.21926879882812,,0.0,66.65464782714844,,0.0,74.8258056640625,,0.0,34.19306564331055,,0.0,229.097900390625,,0.0,360.0,,0.0
223,506347656,-137.21926879882812,,0.0,66.65464782714844,,0.0,74.8258056640625,,0.0,34.19306564331055,,0.0,229.097900390625,,0.0,360.0,,0.0
223,506347656,-137.21926879882812,,0.0,66.65464782714844,,0.0,74.8258056640625,,0.0,34.19306564331055,,0.0,229.097900390625,,0.0,360.0,,0.0
223,506347656,-137.21926879882812,,0.0,66.65464782714844,,0.0,74.8258056640625,,0.0,34.19306564331055,,0.0,229.097900390625,,0.0,360.0,,0.0
223,506347656,-137.21926879882812,,0.0,66.65464782714844,,0.0,74.8258056640625,,0.0,34.19306564331055,,0.0,229.097900390625,,0.0,360.0,,0.0
223,506347656,-137.21926879882812,,0.0,66.65464782714844,,0.0,74.8258056640625,,0.0,34.19306564331055,,0.0,229.097900390625,,0.0,360.0,,0.0
223,506347656,-137.21926879882812,,0.0,66.65464782714844,,0.0,74.8258056640625,,0.0,34.19306564331055,,0.0,229.097900390625,,0.0,360.0,,0.0
223,506347656,-137.21926879882812,,0.0,66.65464782714844,,0.0,74.8258056640625,,0.0,34.19306564331055,,0.0,229.097900390625,,0.0,360.0,,0.0
248,994384765,-137.21926879882812,,0.0,66.65464782714844,,0.0,74.8258056640625,,0.0,34.19306564331055,,0.0,229.097900390625,,0.0,360.0,,0.0
248,994384765,-137.21926879882812,,0.0,66.65464782714844,,0.0,74.8258056640625,,0.0,34.19306564331055,,0.0,229.097900390625,,0.0,360.0,,0.0
248,994384765,-137.21926879882812,,0.0,66.65464782714844,,0.0,74.8258056640625,,0.0,34.19306564331055,,0.0,229.097900390625,,0.0,360.0,,0.0
248,994384765,-137.21926879882812,,0.0,66.65464782714844,,0.0,74.8258056640625,,0.0,34.19306564331055,,0.0,229.097900390625,,0.0,360.0,,0.0
248,994384765,-137.21926879882812,,0.0,66.65464782714844,,0.0,74.8258056640625,,0.0,34.19306564331055,,0.0,229.097900390625,,0.0,360.0,,0.0
248,994384765,-137.21926879882812,,0.0,66.65464782714844,,0.0,74.8258056640625,,0.0,34.19306564331055,,0.0,229.097900390625,,0.0,360.0,,0.0
248,994384765,-137.21926879882812,,0.0,66.65464782714844,,0.0,74.8258056640625,,0.0,34.19306564331055,,0.0,229.097900390625,,0.0,360.0,,0.0
248,994384765,-137.21926879882812,,0.0,66.65464782714844,,0.0,74.8258056640625,,0.0,34.19306564331055,,0.0,229.097900390625,,0.0,360.0,,0.0
248,994384765,-137.21926879882812,,0.0,66.65464782714844,,0.0,74.8258056640625,,0.0,34.19306564331055,,0.0,229.097900390625,,0.0,360.0,,0.0
248,994384765,-137.21926879882812,,0.0,66.65464782714844,,0.0,74.8258056640625,,0.0,34.19306564331055,,0.0,229.097900390625,,0.0,360.0,,0.0
248,994384765,-137.21926879882812,,0.0,66.65464782714844,,0.0,74.8258056640625,,0.0,34.19306564331055,,0.0,229.097900390625,,0.0,360.0,,0.0
248,994384765,-137.21926879882812,,0.0,66.65464782714844,,0.0,74.8258056640625,,0.0,34.19306564331055,,0.0,229.097900390625,,0.0,360.0,,0.0
248,994384765,-137.21926879882812,,0.0,66.65464782714844,,0.0,74.8258056640625,,0.0,34.19306564331055,,0.0,229.097900390625,,0.0,360.0,,0.0
248,994384765,-137.21926879882812,,0.0,66.65464782714844,,0.0,74.8258056640625,,0.0,34.19306564331055,,0.0,229.097900390625,,0.0,360.0,,0.0
248,994384765,-137.21926879882812,,0.0,66.65464782714844,,0.0,74.8258056640625,,0.0,34.19306564331055,,0.0,229.097900390625,,0.0,360.0,,0.0
248,994384765,-137.21926879882812,,0.0,66.65464782714844,,0.0,74.8258056640625,,0.0,34.19306564331055,,0.0,229.097900390625,,0.0,360.0,,0.0
248,994384765,-137.21926879882812,,0.0,66.65464782714844,,0.0,74.8258056640625,,0.0,34.19306564331055,,0.0,229.097900390625,,0.0,360.0,,0.0
248,994384765,-137.21926879882812,,0.0,66.65464782714844,,0.0,74.8258056640625,,0.0,34.19306564331055,,0.0,229.097900390625,,0.0,360.0,,0.0
248,994384765,-137.21926879882812,,0.0,66.65464782714844,,0.0,74.8258056640625,,0.0,34.19306564331055,,0.0,229.097900390625,,0.0,360.0,,0.0
248,994384765,-137.21926879882812,,0.0,66.65464782714844,,0.0,74.8258056640625,,0.0,34.19306564331055,,0.0,229.097900390625,,0.0,360.0,,0.0
248,994384765,-137.21926879882812,,0.0,66.65464782714844,,0.0,74.8258056640625,,0.0,34.19306564331055,,0.0,229.097900390625,,0.0,360.0,,0.0
248,994384765,-137.21926879882812,,0.0,66.65464782714844,,0.0,74.8258056640625,,0.0,34.19306564331055,,0.0,229.097900390625,,0.0,360.0,,0.0
248,994384765,-137.21926879882812,,0.0,66.65464782714844,,0.0,74.8258056640625,,0.0,34.19306564331055,,0.0,229.097900390625,,0.0,360.0,,0.0
248,994384765,-137.21926879882812,,0.0,66.65464782714844,,0.0,74.8258056640625,,0.0,34.19306564331055,,0.0,229.097900390625,,0.0,360.0,,0.0
248,994384765,-137.21926879882812,,0.0,66.65464782714844,,0.0,74.8258056640625,,0.0,34.19306564331055,,0.0,229.097900390625,,0.0,360.0,,0.0
248,994384765,-137.21926879882812,,0.0,66.65464782714844,,0.0,74.8258056640625,,0.0,34.19306564331055,,0.0,229.097900390625,,0.0,360.0,,0.0
248,994384765,-137.21926879882812,,0.0,66.65464782714844,,0.0,74.8258056640625,,0.0,34.19306564331055,,0.0,229.097900390625,,0.0,360.0,,0.0
248,994384765,-137.21926879882812,,0.0,66.65464782714844,,0.0,74.8258056640625,,0.0,34.19306564331055,,0.0,229.097900390625,,0.0,360.0,,0.0
248,994384765,-137.21926879882812,,0.0,66.65464782714844,,0.0,74.8258056640625,,0.0,34.19306564331055,,0.0,229.097900390625,,0.0,360.0,,0.0
248,994384765,-137.21926879882812,,0.0,66.65464782714844,,0.0,74.8258056640625,,0.0,34.19306564331055,,0.0,229.097900390625,,0.0,360.0,,0.0
248,994384765,-137.21926879882812,,0.0,66.65464782714844,,0.0,74.8258056640625,,0.0,34.19306564331055,,0.0,229.097900390625,,0.0,360.0,,0.0
248,994384765,-137.21926879882812,,0.0,66.65464782714844,,0.0,74.8258056640625,,0.0,34.19306564331055,,0.0,229.097900390625,,0.0,360.0,,0.0
248,994384765,-137.21926879882812,,0.0,66.65464782714844,,0.0,74.8258056640625,,0.0,34.19306564331055,,0.0,229.097900390625,,0.0,360.0,,0.0
248,994384765,-137.21926879882812,,0.0,66.65464782714844,,0.0,74.8258056640625,,0.0,34.19306564331055,,0.0,229.097900390625,,0.0,360.0,,0.0
248,994384765,-137.21926879882812,,0.0,66.65464782714844,,0.0,74.8258056640625,,0.0,34.19306564331055,,0.0,229.097900390625,,0.0,360.0,,0.0
248,994384765,-137.21926879882812,,0.0,66.65464782714844,,0.0,74.8258056640625,,0.0,34.19306564331055,,0.0,229.097900390625,,0.0,360.0,,0.0
248,994384765,-137.21926879882812,,0.0,66.65464782714844,,0.0,74.8258056640625,,0.0,34.19306564331055,,0.0,229.097900390625,,0.0,360.0,,0.0
248,994384765,-137.21926879882812,,0.0,66.65464782714844,,0.0,74.8258056640625,,0.0,34.19306564331055,,0.0,229.097900390625,,0.0,360.0,,0.0
248,994384765,-137.21926879882812,,0.0,66.65464782714844,,0.0,74.8258056640625,,0.0,34.19306564331055,,0.0,229.097900390625,,0.0,360.0,,0.0
248,994384765,-137.21926879882812,,0.0,66.65464782714844,,0.0,74.8258056640625,,0.0,34.19306564331055,,0.0,229.097900390625,,0.0,360.0,,0.0
248,994384765,-137.21926879882812,,0.0,66.65464782714844,,0.0,74.8258056640625,,0.0,34.19306564331055,,0.0,229.097900390625,,0.0,360.0,,0.0
248,994384765,-137.21926879882812,,0.0,66.65464782714844,,0.0,74.8258056640625,,0.0,34.19306564331055,,0.0,229.097900390625,,0.0,360.0,,0.0
248,994384765,-111.83660888671875,,0.017592810094356537,20.265287399291992,,-0.03215321898460388,88.42388153076172,,0.009424872696399689,104.50927734375,,0.048736415803432465,125.92057800292969,,-0.07151246070861816,360.0,,0.0
248,994384765,-112.06137084960938,,-9.395571396453306e-05,19.34760284423828,,-1.5835234080441296e-05,89.09297180175781,,-7.600912067573518e-05,105.26863861083984,,0.0007487920811399817,126.6722412109375,,0.0003625855897553265,360.0,,0.0
248,994384765,-106.86386108398438,,0.0017107438761740923,21.141035079956055,,0.0005903032142668962,92.50733184814453,,0.0011238252045586705,100.59807586669922,,-0.00153722136747092,127.07207489013672,,0.00013160589151084423,360.0,,0.0
248,994384765,-103.22177124023438,,0.0009078700095415115,22.325912475585938,,0.0004498202761169523,94.75775146484375,,0.0005226523499004543,94.82361602783203,,-0.0017192343948408961,125.38726043701172,,-0.0002441648975946009,360.0,,0.0
248,994384765,-102.57443237304688,,0.0004041827342007309,22.175111770629883,,-9.388867329107597e-05,95.13251495361328,,0.0002339924540137872,93.5388412475586,,-0.0008024206617847085,125.72480773925781,,0.00021075483527965844,360.0,,0.0
248,994384765,-102.20782470703125,,1.0433173883939162e-05,21.567668914794922,,-0.00014440281665883958,94.59675598144531,,-0.0002574624086264521,94.67781829833984,,0.00045372938620857894,125.26563262939453,,-9.6268551715184e-05,360.0,,0.0
248,994384765,-100.19540405273438,,0.0012605527881532907,20.610904693603516,,-0.0005991044454276562,93.91507720947266,,-0.00042714941082522273,95.76850891113281,,0.0006831951322965324,123.74069213867188,,-0.0009550622780807316,360.0,,0.0
248,994384765,-99.17538452148438,,0.00018792816263157874,21.021373748779297,,0.00012783454440068454,91.20005798339844,,-0.000577865052036941,99.04766082763672,,0.0005806896951980889,122.64978790283203,,-0.00018116850696969777,360.0,,0.0
248,994384765,-96.71826171875,,0.00152117561083287,21.358469009399414,,0.00020869149011559784,89.00955200195312,,-0.0013563618995249271,101.12171173095703,,0.0012840168783441186,120.77128601074219,,-0.0011625959305092692,360.0,,0.0
248,994384765,-95.69790649414062,,0.00021639774786308408,22.70334815979004,,0.00043231641757301986,85.3699722290039,,-0.0010513309389352798,105.12659454345703,,0.0009811256313696504,120.03097534179688,,-0.00010070805001305416,360.0,,0.0
248,994384765,-95.57464599609375,,0.0001321897143498063,22.807790756225586,,0.0001120125743909739,84.60481262207031,,-0.0008213547989726067,105.06010437011719,,-7.125909178284928e-05,120.15399932861328,,0.0001319406583206728,360.0,,0.0
248,994384765,-95.21041870117188,,9.572684939485043e-05,21.641647338867188,,-0.0002443392004352063,86.67520141601562,,0.00042242847848683596,101.95706939697266,,-0.0003629557613749057,117.18065643310547,,-0.0005980024579912424,360.0,,0.0
248,994384765,-91.41522216796875,,0.0027088928036391735,21.288789749145508,,-0.0002521052083466202,88.92105865478516,,0.0016030219849199057,101.16320037841797,,-0.000566612696275115,116.61443328857422,,-0.0004043667868245393,360.0,,0.0
248,994384765,-82.1578369140625,,0.0016528497217223048,22.391565322875977,,0.00020188641792628914,92.23279571533203,,0.0006156563176773489,96.39784240722656,,-0.0010125321568921208,113.90335845947266,,-0.0008023633272387087,356.6337585449219,,-0.0010535807814449072
248,994384765,-62.557769775390625,,0.006393402814865112,24.949893951416016,,0.0008345087990164757,98.41917419433594,,0.0020179518032819033,85.4881591796875,,-0.003558460623025894,99.60093688964844,,-0.004665524698793888,346.6006774902344,,-0.0032727117650210857
248,994384765,-55.047332763671875,,0.001272339839488268,26.424898147583008,,0.00025941221974790096,99.15145111083984,,8.566363976569846e-05,82.69819641113281,,-0.00040837889537215233,95.46304321289062,,-0.0005892088520340621,345.15069580078125,,-0.00011102628923254088
248,994384765,-39.85308837890625,,0.010157277807593346,29.89774513244629,,0.002321582520380616,98.91490936279297,,-0.00015779916429892182,81.58899688720703,,-0.0007410715916194022,87.28385925292969,,-0.005468033254146576,338.20635986328125,,-0.004642801824957132
248,994384765,-39.4488525390625,,-0.00010697928519221023,30.273454666137695,,-1.5848781913518906e-05,97.79544830322266,,-0.00016018591122701764,82.86869049072266,,0.0002275189181091264,91.27696228027344,,0.0005327672115527093,337.829833984375,,7.082424417603761e-05
248,994384765,-58.48077392578125,,-0.0122243482619524,24.83737564086914,,-0.003491547890007496,95.95889282226562,,-0.001179197570309043,90.77375793457031,,0.005077270325273275,104.13091278076172,,0.008255839347839355,347.417724609375,,0.006158096250146627
248,994384765,-81.91964721679688,,-0.015178374014794827,19.657644271850586,,-0.003638468449935317,91.4385757446289,,-0.003311095293611288,107.18683624267578,,0.010967391543090343,109.8188705444336,,0.004119137767702341,359.5157470703125,,0.00874230545014143
248,994384765,-101.76889038085938,,-0.012346931733191013,18.194488525390625,,-0.000910357863176614,81.13429260253906,,-0.006409484893083572,121.61399841308594,,0.008974178694188595,119.96495819091797,,0.006311206147074699,360.0,,0.0003012263623531908
248,994384765,-110.02056884765625,,-0.004372552968561649,16.816694259643555,,-0.0007781662279739976,75.79390716552734,,-0.0030717086046934128,128.8934783935547,,0.004028539638966322,120.14228057861328,,-0.00023598525149282068,360.0,,0.0
248,994384765,-111.91433715820312,,-0.0008262637420557439,15.754274368286133,,-0.0004638673854060471,75.09423828125,,-0.0003051759267691523,130.0680389404297,,0.0005124988383613527,120.4150390625,,0.00011901264224434271,360.0,,0.0
248,994384765,-107.07406616210938,,0.002304571447893977,18.061302185058594,,0.0014649460790678859,76.22139739990234,,0.00021795700013171881,130.2069091796875,,-0.00039548362838104367,120.2516860961914,,-0.00037351230275817215,360.0,,0.0
248,994384765,-99.56930541992188,,0.002428484847769141,25.168237686157227,,0.0022997502237558365,74.0611343383789,,-0.0006987758679315448,129.15199279785156,,-0.000341183680575341,116.62408447265625,,-0.0011740565532818437,360.0,,0.0
248,994384765,-88.47811889648438,,0.00491243926808238,27.98064422607422,,0.0011596080148592591,76.2502670288086,,0.0009976165601983666,127.03569793701172,,-0.0010021975031122565,110.73759460449219,,-0.0026113318745046854,360.0,,0.0
248,994384765,-69.32666015625,,0.00835640449076891,31.16973876953125,,0.0013915060553699732,80.17164611816406,,0.00171102664899081,120.81383514404297,,-0.002714539645239711,102.5944595336914,,-0.0035530105233192444,354.3659973144531,,-0.002458191942423582
248,994384765,-53.203582763671875,,0.009458843618631363,34.31261444091797,,0.0015856149839237332,80.00303649902344,,-0.0001797100849216804,120.67989349365234,,0.00045872401096858084,99.68505859375,,-0.0029454482719302177,343.8033142089844,,-0.0061658527702093124
248,994384765,-47.21820068359375,,0.0020069521851837635,34.0213623046875,,-9.791166667127982e-05,80.10562896728516,,3.4399166906950995e-05,123.96072387695312,,0.0011000909144058824,100.10643005371094,,0.00014128853217698634,341.0578918457031,,-0.0009204869857057929
248,994384765,-54.246429443359375,,-0.004251000937074423,31.628110885620117,,-0.001022105454467237,79.61361694335938,,-0.00027978720027022064,126.60811614990234,,0.0012979443417862058,104.52605438232422,,0.002120670862495899,345.81585693359375,,0.0026134345680475235
248,994384765,-75.7467041015625,,-0.023554576560854912,29.298370361328125,,-0.002551618032157421,76.16846466064453,,-0.0037737893871963024,133.26686096191406,,0.007295090239495039,107.27507019042969,,0.003011728171259165,354.68792724609375,,0.009719932451844215
248,994384765,-95.75338745117188,,-0.006434079259634018,26.546735763549805,,-0.0011258793529123068,73.2069320678711,,-0.00037529313703998923,136.9243621826172,,-0.0004372784751467407,105.17489624023438,,-0.0017513679340481758,360.0,,0.0
248,994384765,-110.31704711914062,,-0.0063545252196490765,24.604572296142578,,-0.0008476261282339692,71.51773834228516,,-0.0007369998493231833,132.39120483398438,,-0.001978302840143442,103.66680908203125,,-0.0006576540763489902,360.0,,0.0
248,994384765,-103.1201171875,,0.004777396097779274,30.46058464050293,,0.003991465084254742,64.182373046875,,-0.00491693802177906,151.68072509765625,,0.012304914183914661,107.89801788330078,,0.007311078254133463,360.0,,0.0
248,994384765,-90.25070190429688,,0.004256784450262785,36.2150993347168,,0.0019034070428460836,62.53028106689453,,-0.0005465467693284154,154.1251983642578,,0.0008085512672550976,123.12449645996094,,0.005036426708102226,360.0,,0.0
248,994384765,-65.542724609375,,0.008984964340925217,36.23008728027344,,3.5745924833463505e-05,70.2503890991211,,0.0023489578161388636,145.022216796875,,-0.002829334232956171,123.78873443603516,,-0.002705509541556239,356.6231994628906,,-0.002115973737090826
248,994384765,-65.42828369140625,,0.00011704359349096194,35.740108489990234,,-0.000500697351526469,71.09237670898438,,0.0008610974182374775,142.69309997558594,,-0.002381888683885336,113.28890991210938,,-0.010738169774413109,352.974609375,,-0.003731983248144388
248,994384765,-93.92510986328125,,-0.008354189805686474,31.3823184967041,,-0.001206207787618041,68.8515625,,-0.0006446841289289296,139.47634887695312,,-0.0018013007938861847,105.22501373291016,,-0.000833130266983062,360.0,,0.0008827809360809624
248,994384765,-106.6859130859375,,-0.004105475265532732,26.860679626464844,,-0.0014547489117830992,70.26615905761719,,0.0004551122838165611,135.1041259765625,,-0.0014069323660805821,98.97071838378906,,-0.002012234181165695,360.0,,0.0
248,994384765,-109.76199340820312,,-0.0007935111061669886,22.702884674072266,,-0.0019800697918981314,75.67493438720703,,0.002828578231856227,128.93807983398438,,-0.0029144848231226206,94.47827911376953,,-0.001006720936857164,360.0,,0.0
248,994384765,-104.41818237304688,,0.0016424626810476184,28.616146087646484,,0.0018174881115555763,68.49542236328125,,-0.002206663368269801,144.32469177246094,,0.004729194100946188,105.92962646484375,,0.003519661957398057,360.0,,0.0
248,994384765,-85.21649169921875,,0.00950342882424593,35.80562973022461,,0.0027179722674191,67.22544860839844,,0.00013928661064710468,144.2013397216797,,-0.00018512624956201762,114.90911102294922,,0.0028321645222604275,360.0,,0.0
248,994384765,-58.14019775390625,,0.011814268305897713,37.53291702270508,,0.0007536712801083922,75.28199768066406,,0.003515334567055106,126.96379089355469,,-0.007521060295403004,110.18620300292969,,-0.0020607002079486847,350.5079345703125,,-0.004141999874264002
248,994384765,-52.89251708984375,,0.0025043084751814604,37.92247772216797,,0.00024937797570601106,75.49342346191406,,-0.00016589790175203234,127.58834838867188,,0.0007189621101133525,109.13056945800781,,-0.000340347207384184,346.761474609375,,-0.0018180357292294502
248,994384765,-74.09658813476562,,-0.006944264285266399,34.06406784057617,,-0.0012637907639145851,72.30218505859375,,-0.00104504672344774,137.6331024169922,,0.003289575455710292,102.71204376220703,,-0.002102118916809559,357.40777587890625,,0.0034865732304751873
248,994384765,-101.304931640625,,-0.009200651198625565,27.797712326049805,,-0.00233136722818017,72.5271987915039,,-0.00026917087961919606,133.71340942382812,,7.262628059834242e-05,100.45854187011719,,-0.0005774149321950972,360.0,,0.0
248,994384765,-111.20498657226562,,-0.004319765139371157,23.67228126525879,,-0.001799774938262999,73.44356536865234,,0.00039984003524295986,135.119140625,,0.000613367825280875,97.23159790039062,,-0.0014083868591114879,360.0,,0.0
248,994384765,-106.09274291992188,,0.0038339972961694,25.71613883972168,,0.0016686494927853346,73.23074340820312,,-0.0005383223760873079,136.38088989257812,,0.001836232258938253,101.42422485351562,,0.00264987675473094,360.0,,0.0
248,994384765,-90.09844970703125,,0.00507087167352438,32.31352233886719,,0.0020916510839015245,72.02462005615234,,-0.0003825069288723171,133.92852783203125,,-0.0007777640712447464,110.25556182861328,,0.0027999100275337696,360.0,,0.0
248,994384765,-61.970611572265625,,0.018215782940387726,35.60981369018555,,0.0012615252053365111,77.33091735839844,,0.004834021907299757,123.83104705810547,,-0.008599339053034782,109.5197525024414,,-0.0007802272448316216,350.9028015136719,,-0.009735064581036568
248,994384765,-43.983551025390625,,0.0057004112750291824,37.508750915527344,,0.0006018067360855639,79.20549011230469,,0.000594084442127496,119.07061767578125,,-0.0015089201042428613,107.25411224365234,,-0.0007181639666669071,338.4843444824219,,-0.003935493994504213
248,994384765,-60.4720458984375,,-0.018394559621810913,35.03767776489258,,-0.002949582180008292,77.43608856201172,,-0.0013921390054747462,126.53010559082031,,0.007267964072525501,99.62416076660156,,-0.008597802370786667,347.3191223144531,,0.009662258438766003
248,994384765,-96.51504516601562,,-0.015726478770375252,26.87523078918457,,-0.003561402903869748,78.50447082519531,,0.00046617109910584986,123.35029602050781,,-0.0013877875171601772,97.42378234863281,,-0.0009597782627679408,360.0,,0.0055330898612737656
248,994384765,-102.242431640625,,-0.0023236358538269997,23.769420623779297,,-0.001722376560792327,81.16024017333984,,0.0013523780507966876,121.06724548339844,,-6.47510023554787e-05,90.89097595214844,,-0.0035446546971797943,360.0,,0.0
248,994384765,-101.40585327148438,,0.0002542943984735757,26.279129028320312,,0.0007628717576153576,78.20718383789062,,-0.0008976987446658313,125.98509216308594,,0.001494868891313672,99.01746368408203,,0.0024701955262571573,360.0,,0.0
248,994384765,-90.4168701171875,,0.008919882588088512,29.059581756591797,,0.0015492708189412951,79.07377624511719,,0.0015426358440890908,126.22489166259766,,-0.0005005118437111378,103.41852569580078,,0.0020731284748762846,358.9173278808594,,-0.0011266065994277596
248,994384765,-61.060882568359375,,0.008988648653030396,33.47870635986328,,0.0013531118165701628,82.84884643554688,,0.0011559072881937027,115.79722595214844,,-0.0031930666882544756,96.42938232421875,,-0.0021399543620646,344.0178527832031,,-0.0045620594173669815
248,994384765,-29.483367919921875,,0.004903346765786409,38.1761474609375,,0.0005704554496333003,83.89691162109375,,-0.00012969975068699569,112.62252807617188,,0.0010622506961226463,81.9266128540039,,-0.0013748175697401166,323.29156494140625,,-0.0033432021737098694
248,994384765,-18.198516845703125,,0.00332919810898602,39.674354553222656,,0.0004419937322381884,84.57814025878906,,0.00020097073866054416,112.40934753417969,,-6.293268961599097e-05,76.44523620605469,,-0.001617163885384798,314.7055358886719,,-0.0025327829644083977
248,994384765,-34.405029296875,,-0.008988704532384872,35.78972625732422,,-0.0020982651039958,86.29036712646484,,0.0006803289870731533,112.30101776123047,,0.0003239530778955668,85.01140594482422,,0.004487412981688976,327.7435302734375,,0.007004931103438139
248,994384765,-58.604400634765625,,-0.007421110291033983,29.958267211914062,,-0.0017882516840472817,87.8470458984375,,0.00047737330896779895,114.29662322998047,,0.0006119781173765659,91.29854583740234,,0.0019280279520899057,342.4898376464844,,0.004522130358964205
248,994384765,-91.19613647460938,,-0.006175227463245392,23.457477569580078,,-0.001303733210079372,83.6823501586914,,-0.0011247893562540412,125.08755493164062,,0.0020426837727427483,92.95486450195312,,0.00043308420572429895,358.6339111328125,,0.0011578898411244154
248,994384765,-95.228759765625,,-0.0031564419623464346,25.279951095581055,,0.0014266817597672343,80.07666015625,,-0.0028224559500813484,128.4447784423828,,0.002628129906952381,86.31190490722656,,-0.0052000535652041435,360.0,,0.0010694140801206231
248,994384765,-80.41403198242188,,0.008311742916703224,29.65060806274414,,0.0021099583245813847,80.13878631591797,,0.00017830463184509426,127.54412841796875,,-0.0008795041940174997,97.34262084960938,,0.006806288380175829,354.3666687011719,,-0.003349958686158061
248,994384765,-52.69500732421875,,0.025727132335305214,34.18803405761719,,0.004211364779621363,83.33978271484375,,0.002970971865579486,116.85310363769531,,-0.009922283701598644,91.33191680908203,,-0.005579458549618721,337.22662353515625,,-0.015909085050225258
248,994384765,-19.3466796875,,0.007423223461955786,36.61289978027344,,0.00022682108101435006,88.30912780761719,,0.0013075590832158923,107.07154083251953,,-0.0023774600122123957,83.57099914550781,,-0.0012130376417189837,317.60400390625,,-0.00406024930998683
248,994384765,-21.229156494140625,,-0.002065184758976102,34.30440139770508,,-0.0025311456993222237,89.99163055419922,,0.0018451253417879343,107.96428680419922,,0.0009790362091735005,86.81022644042969,,0.003552322741597891,318.90728759765625,,0.0014292524429038167
248,994384765,-57.717742919921875,,-0.019681742414832115,30.84272003173828,,-0.0016806703060865402,87.11699676513672,,-0.0017361118225380778,114.8462142944336,,0.0033123651519417763,97.7289810180664,,0.00403559859842062,340.9094543457031,,0.011227330192923546
248,994384765,-81.85549926757812,,-0.01867726631462574,28.567113876342773,,-0.0017601682338863611,82.61543273925781,,-0.0034824544563889503,123.0622787475586,,0.0063572293147444725,105.49725341796875,,0.006010746117681265,360.0,,0.014771448448300362
248,994384765,-89.4013671875,,-0.004429991822689772,26.203540802001953,,-0.0011223014444112778,82.11421966552734,,-0.0005701015470549464,126.65833282470703,,0.002444275887683034,108.05567932128906,,0.0015156231820583344,360.0,,0.0
248,994384765,-90.40301513671875,,-0.0006550147663801908,26.412235260009766,,0.00013643795682583004,82.9499740600586,,0.0005463859415613115,122.57005310058594,,-0.002672643167898059,106.93325805664062,,-0.0007338908617384732,360.0,,0.0
248,994384765,-79.4442138671875,,0.0025761330034583807,29.59087371826172,,0.0007223158027045429,83.42378997802734,,8.948451863943774e-07,121.3817138671875,,1.3444503565551713e-05,105.91966247558594,,6.954693526495248e-05,358.1094665527344,,-0.0006039899890311062
248,994384765,-51.226959228515625,,0.023967571556568146,31.962366104125977,,0.002014332450926304,88.01609802246094,,0.003900683019310236,110.88264465332031,,-0.00891856662929058,106.6626205444336,,0.0006310606840997934,336.4949645996094,,-0.018359918147325516
248,994384765,-30.955963134765625,,0.0035313554108142853,30.05238914489746,,-0.0005327955004759133,92.26160430908203,,0.0005734885926358402,106.54180908203125,,-1.7186952391057275e-05,96.75020599365234,,-0.002189724938943982,325.9977722167969,,-0.0012524990597739816
248,994384765,-40.649993896484375,,-0.006152039393782616,32.775028228759766,,0.0017278792802244425,90.64361572265625,,-0.001026449608616531,106.59758758544922,,3.5401240893406793e-05,87.97663879394531,,-0.005568350199609995,329.9532470703125,,0.0025102761574089527
248,994384765,-74.27703857421875,,-0.005627139005810022,27.610109329223633,,-0.0009817606769502163,88.02925109863281,,-0.0003023714816663414,116.58979034423828,,0.0008674057899042964,87.21730041503906,,0.00012000284186797217,349.7138671875,,0.003043399192392826
248,994384765,-82.755126953125,,-0.006912821438163519,25.979381561279297,,-0.0013301016297191381,87.15690612792969,,-0.0007113833562470973,117.37549591064453,,0.0006406037136912346,90.13125610351562,,0.0023758201859891415,352.4442443847656,,0.0022261471021920443
248,994384765,-82.54058837890625,,0.00044927879935130477,25.847734451293945,,-4.0170049032894894e-05,86.90509796142578,,-4.26045990025159e-05,118.40946960449219,,0.0004262837173882872,95.36801147460938,,0.0019604105036705732,353.3971862792969,,0.00041193320066668093
248,994384765,-72.8856201171875,,0.00754382973536849,28.000736236572266,,0.0016822298057377338,87.67405700683594,,0.0006008175550960004,116.88201904296875,,-0.0011940569384023547,94.92676544189453,,-0.00034428187063895166,347.87579345703125,,-0.00431445287540555
248,994384765,-49.310943603515625,,0.012076272629201412,31.796613693237305,,0.001767932903021574,89.57250213623047,,0.0011250058887526393,110.8259506225586,,-0.0032453311141580343,88.08916473388672,,-0.0038595532532781363,335.1329040527344,,-0.006350777577608824
248,994384765,-12.27471923828125,,0.011857088655233383,38.078617095947266,,0.002011172939091921,89.66524505615234,,2.969066372315865e-05,107.33110046386719,,-0.00111901736818254,76.75275421142578,,-0.003629109589383006,312.9620056152344,,-0.007098119705915451
248,994384765,-12.27471923828125,,0.0,38.078617095947266,,0.0,89.66524505615234,,0.0,107.33110046386719,,0.0,76.75275421142578,,0.0,312.9620056152344,,0.0
248,994384765,-41.439239501953125,,-0.012725072912871838,34.63856506347656,,-0.0015007025795057416,86.09369659423828,,-0.0015586860245093703,112.56621551513672,,0.0022842506878077984,90.54339599609375,,0.006017306353896856,329.6784973144531,,0.007293954491615295
248,994384765,-71.5965576171875,,-0.012380527332425117,28.892017364501953,,-0.0024268997367471457,86.38826751708984,,-0.0002101747231790796,116.20243072509766,,0.0026469118893146515,88.49623107910156,,-0.00032144368742592633,347.24432373046875,,0.0067220753990113735
248,994384765,-97.46389770507812,,-0.0081777423620224,22.757612228393555,,-0.001939132111147046,88.13694763183594,,0.0005528217297978699,112.37588500976562,,-0.0012094700941815972,97.1478271484375,,0.002735090209171176,355.5903625488281,,0.002638486446812749
248,994384765,-97.38372802734375,,0.0006183790392242372,22.78148651123047,,0.0002072504285024479,86.99373626708984,,-0.0006986845983192325,117.24687194824219,,0.002829013392329216,95.55154418945312,,-0.0007711010402999818,356.4091796875,,0.0004489358689170331
248,994384765,-80.4532470703125,,0.011702628806233406,27.10011100769043,,0.002985105849802494,87.61457824707031,,0.00042913760989904404,114.45794677734375,,-0.001927736448124051,102.82929229736328,,0.005030499305576086,352.716064453125,,-0.0025525891687721014
248,994384765,-48.373382568359375,,0.015122957527637482,32.69704055786133,,0.002297359984368086,90.53048706054688,,0.0015024198219180107,103.85225677490234,,-0.004151799250394106,92.89279174804688,,-0.005400027614086866,333.0372619628906,,-0.009131909348070621
248,994384765,-21.531158447265625,,0.011712134815752506,37.061370849609375,,0.0019042992498725653,91.62450408935547,,0.00047735293628647923,99.76509094238281,,-0.0017829902935773134,87.89929962158203,,-0.0021789560560137033,315.3559875488281,,-0.007714847102761269
248,994384765,-23.287353515625,,-0.0014019289519637823,35.29724884033203,,-0.0009869056520983577,92.69465637207031,,0.00023706952924840152,98.83434295654297,,0.0010261397110298276,90.4643325805664,,0.0005638212314806879,314.73931884765625,,0.0007412770646624267
248,994384765,-75.91714477539062,,-0.02296372503042221,29.20856285095215,,-0.002656556200236082,83.76879119873047,,-0.0038948075380176306,118.40261840820312,,0.008538274094462395,106.80887603759766,,0.007131654303520918,349.76885986328125,,0.015284520573914051
248,994384765,-100.27249145507812,,-0.006042838096618652,25.846328735351562,,-0.000806767784524709,76.40292358398438,,-0.0019869343377649784,130.57369995117188,,0.0032295596320182085,111.27757263183594,,0.0008149181958287954,360.0,,0.0022314204834401608
248,994384765,-110.66940307617188,,-0.009325243532657623,21.364849090576172,,-0.004019609652459621,77.6627197265625,,0.0011299577308818698,128.5949249267578,,-0.0017753406427800655,110.62889862060547,,-0.0005818475037813187,360.0,,0.0
248,994384765,-111.45663452148438,,0.00034256550134159625,20.54462432861328,,0.0001680273562669754,77.36780548095703,,-0.00010039059998234734,132.56175231933594,,0.000577951839659363,109.52384185791016,,5.344797682482749e-05,360.0,,0.0
248,994384765,-105.93783569335938,,0.0018081064336001873,23.54313087463379,,0.0009823912987485528,76.57071685791016,,-0.00026122629060409963,136.34371948242188,,0.001239074976183474,115.89991760253906,,0.0020889758598059416,360.0,,0.0
248,994384765,-82.46701049804688,,0.0060144211165606976,29.320579528808594,,0.001314598135650158,81.77375030517578,,0.0013664341531693935,122.3362808227539,,-0.003760530147701502,126.0050277709961,,0.0020117349922657013,357.9574279785156,,-0.0008911136537790298
248,994384765,-69.46575927734375,,0.013839955441653728,32.563533782958984,,0.0034521580673754215,84.44906616210938,,0.0028479001484811306,115.73250579833984,,-0.0070302244275808334,121.87911224365234,,-0.00439272727817297,349.1156311035156,,-0.009412719868123531
248,994384765,-68.36099243164062,,-0.000547790783457458,33.599430084228516,,0.00010577296052360907,85.69432067871094,,0.00040118113975040615,108.6214828491211,,-0.0020423897076398134,112.37589263916016,,-0.0034484879579395056,345.614990234375,,-0.000601196545176208
248,994384765,-75.09817504882812,,-0.00508699007332325,34.863887786865234,,0.0009547596564516425,84.22236633300781,,-0.0011116651585325599,106.48377227783203,,-0.0016146870329976082,110.35441589355469,,-0.0015262290835380554,350.5379333496094,,0.003717192215844989
248,994384765,-82.48434448242188,,-0.002024473389610648,38.37636947631836,,0.0009878710843622684,78.45256805419922,,-0.0016325288452208042,110.61538696289062,,0.0012160922633484006,115.85580444335938,,0.001640293630771339,352.2112121582031,,0.00023328106908593327
248,994384765,-73.14852905273438,,0.0061957091093063354,44.884071350097656,,0.004318832419812679,76.91165161132812,,-0.0010223210556432605,101.85354614257812,,-0.005814814008772373,112.40650177001953,,-0.0022894886787980795,340.5304870605469,,-0.00775153748691082
248,994384765,-73.14852905273438,,0.0,44.884071350097656,,0.0,76.91165161132812,,0.0,101.85354614257812,,0.0,112.40650177001953,,0.0,340.5304870605469,,0.0
248,994384765,-73.14852905273438,,0.0,44.884071350097656,,0.0,76.91165161132812,,0.0,101.85354614257812,,0.0,112.40650177001953,,0.0,340.5304870605469,,0.0
248,994384765,-134.3358154296875,,-0.05436208099126816,75.82040405273438,,0.027485184371471405,36.66168975830078,,-0.03575929254293442,220.99691772460938,,0.1058521568775177,105.90840911865234,,-0.005772689823061228,360.0,,0.01729758270084858
248,994384765,-124.26177978515625,,0.0032832666765898466,82.14212799072266,,0.00206033606082201,37.993690490722656,,0.0004341169260442257,229.72601318359375,,0.0028449303936213255,110.2363052368164,,0.0014105201698839664,360.0,,0.0
248,994384765,-125.12564086914062,,-0.0009407047764398158,85.47393798828125,,0.0005890908651053905,33.51877212524414,,-0.0010742192389443517,245.88006591796875,,0.003902115160599351,112.94208526611328,,-0.0007133487379178405,360.0,,0.0
248,994384765,-126.50527954101562,,-0.0015815227525308728,83.08988189697266,,-0.0027320855297148228,35.49934387207031,,0.002270475262776017,238.68084716796875,,-0.008252381347119808,114.50821685791016,,0.0017953740898519754,360.0,,0.0
248,994384765,-127.01901245117188,,-2.0737326849484816e-05,79.17736053466797,,-0.001010944601148367,42.73109817504883,,0.0018077744171023369,230.50619506835938,,-0.0021639401093125343,117.93099212646484,,0.0010812734253704548,360.0,,0.0
248,994384765,-126.49093627929688,,0.00016783997125457972,78.77733612060547,,-0.0001272660883842036,42.84053039550781,,3.478195139905438e-05,229.32272338867188,,-0.00037624078686349094,118.8693618774414,,0.00029824950615875423,360.0,,0.0
248,994384765,-125.20925903320312,,0.002395875519141555,85.75403594970703,,0.003077662782743573,28.885881423950195,,-0.005337349139153957,242.30612182617188,,0.004031166434288025,119.31723022460938,,0.002386469393968582,360.0,,0.0
248,994384765,-157.5030517578125,,-0.020315151661634445,131.1074981689453,,0.02853083796799183,-73.45832824707031,,-0.06438282877206802,107.27920532226562,,-0.08494217693805695,256.99249267578125,,0.08660837262868881,267.07464599609375,,-0.058457352221012115
248,994384765,-157.5030517578125,,0.0,131.1074981689453,,0.0,-73.45832824707031,,0.0,107.27920532226562,,0.0,256.99249267578125,,0.0,267.07464599609375,,0.0
248,994384765,-157.5030517578125,,0.0,131.1074981689453,,0.0,-73.45832824707031,,0.0,107.27920532226562,,0.0,256.99249267578125,,0.0,267.07464599609375,,0.0
248,994384765,-157.5030517578125,,0.0,131.1074981689453,,0.0,-73.45832824707031,,0.0,107.27920532226562,,0.0,256.99249267578125,,0.0,267.07464599609375,,0.0
248,994384765,-157.5030517578125,,0.0,131.1074981689453,,0.0,-73.45832824707031,,0.0,107.27920532226562,,0.0,256.99249267578125,,0.0,267.07464599609375,,0.0
248,994384765,-157.5030517578125,,0.0,131.1074981689453,,0.0,-73.45832824707031,,0.0,107.27920532226562,,0.0,256.99249267578125,,0.0,267.07464599609375,,0.0
248,994384765,-157.5030517578125,,0.0,131.1074981689453,,0.0,-73.45832824707031,,0.0,107.27920532226562,,0.0,256.99249267578125,,0.0,267.07464599609375,,0.0
248,994384765,-157.5030517578125,,0.0,131.1074981689453,,0.0,-73.45832824707031,,0.0,107.27920532226562,,0.0,256.99249267578125,,0.0,267.07464599609375,,0.0
248,994384765,-157.5030517578125,,0.0,131.1074981689453,,0.0,-73.45832824707031,,0.0,107.27920532226562,,0.0,256.99249267578125,,0.0,267.07464599609375,,0.0
248,994384765,-157.5030517578125,,0.0,131.1074981689453,,0.0,-73.45832824707031,,0.0,107.27920532226562,,0.0,256.99249267578125,,0.0,267.07464599609375,,0.0
248,994384765,-157.5030517578125,,0.0,131.1074981689453,,0.0,-73.45832824707031,,0.0,107.27920532226562,,0.0,256.99249267578125,,0.0,267.07464599609375,,0.0
248,994384765,-157.5030517578125,,0.0,131.1074981689453,,0.0,-73.45832824707031,,0.0,107.27920532226562,,0.0,256.99249267578125,,0.0,267.07464599609375,,0.0
248,994384765,-157.5030517578125,,0.0,131.1074981689453,,0.0,-73.45832824707031,,0.0,107.27920532226562,,0.0,256.99249267578125,,0.0,267.07464599609375,,0.0
248,994384765,-157.5030517578125,,0.0,131.1074981689453,,0.0,-73.45832824707031,,0.0,107.27920532226562,,0.0,256.99249267578125,,0.0,267.07464599609375,,0.0
248,994384765,-157.5030517578125,,0.0,131.1074981689453,,0.0,-73.45832824707031,,0.0,107.27920532226562,,0.0,256.99249267578125,,0.0,267.07464599609375,,0.0
248,994384765,-157.5030517578125,,0.0,131.1074981689453,,0.0,-73.45832824707031,,0.0,107.27920532226562,,0.0,256.99249267578125,,0.0,267.07464599609375,,0.0
248,994384765,-157.5030517578125,,0.0,131.1074981689453,,0.0,-73.45832824707031,,0.0,107.27920532226562,,0.0,256.99249267578125,,0.0,267.07464599609375,,0.0
248,994384765,-157.5030517578125,,0.0,131.1074981689453,,0.0,-73.45832824707031,,0.0,107.27920532226562,,0.0,256.99249267578125,,0.0,267.07464599609375,,0.0
248,994384765,-157.5030517578125,,0.0,131.1074981689453,,0.0,-73.45832824707031,,0.0,107.27920532226562,,0.0,256.99249267578125,,0.0,267.07464599609375,,0.0
248,994384765,-157.5030517578125,,0.0,131.1074981689453,,0.0,-73.45832824707031,,0.0,107.27920532226562,,0.0,256.99249267578125,,0.0,267.07464599609375,,0.0
248,994384765,-157.5030517578125,,0.0,131.1074981689453,,0.0,-73.45832824707031,,0.0,107.27920532226562,,0.0,256.99249267578125,,0.0,267.07464599609375,,0.0
248,994384765,-157.5030517578125,,0.0,131.1074981689453,,0.0,-73.45832824707031,,0.0,107.27920532226562,,0.0,256.99249267578125,,0.0,267.07464599609375,,0.0
248,994384765,-157.5030517578125,,0.0,131.1074981689453,,0.0,-73.45832824707031,,0.0,107.27920532226562,,0.0,256.99249267578125,,0.0,267.07464599609375,,0.0
248,994384765,-157.5030517578125,,0.0,131.1074981689453,,0.0,-73.45832824707031,,0.0,107.27920532226562,,0.0,256.99249267578125,,0.0,267.07464599609375,,0.0
248,994384765,-157.5030517578125,,0.0,131.1074981689453,,0.0,-73.45832824707031,,0.0,107.27920532226562,,0.0,256.99249267578125,,0.0,267.07464599609375,,0.0
248,994384765,-157.5030517578125,,0.0,131.1074981689453,,0.0,-73.45832824707031,,0.0,107.27920532226562,,0.0,256.99249267578125,,0.0,267.07464599609375,,0.0
248,994384765,-157.5030517578125,,0.0,131.1074981689453,,0.0,-73.45832824707031,,0.0,107.27920532226562,,0.0,256.99249267578125,,0.0,267.07464599609375,,0.0
270,308593750,-157.5030517578125,,0.0,131.1074981689453,,0.0,-73.45832824707031,,0.0,107.27920532226562,,0.0,256.99249267578125,,0.0,267.07464599609375,,0.0
270,308593750,-157.5030517578125,,0.0,131.1074981689453,,0.0,-73.45832824707031,,0.0,107.27920532226562,,0.0,256.99249267578125,,0.0,267.07464599609375,,0.0
270,308593750,-157.5030517578125,,0.0,131.1074981689453,,0.0,-73.45832824707031,,0.0,107.27920532226562,,0.0,256.99249267578125,,0.0,267.07464599609375,,0.0
270,308593750,-157.5030517578125,,0.0,131.1074981689453,,0.0,-73.45832824707031,,0.0,107.27920532226562,,0.0,256.99249267578125,,0.0,267.07464599609375,,0.0
270,308593750,-157.5030517578125,,0.0,131.1074981689453,,0.0,-73.45832824707031,,0.0,107.27920532226562,,0.0,256.99249267578125,,0.0,267.07464599609375,,0.0
270,308593750,-157.5030517578125,,0.0,131.1074981689453,,0.0,-73.45832824707031,,0.0,107.27920532226562,,0.0,256.99249267578125,,0.0,267.07464599609375,,0.0
270,308593750,-157.5030517578125,,0.0,131.1074981689453,,0.0,-73.45832824707031,,0.0,107.27920532226562,,0.0,256.99249267578125,,0.0,267.07464599609375,,0.0
270,308593750,-157.5030517578125,,0.0,131.1074981689453,,0.0,-73.45832824707031,,0.0,107.27920532226562,,0.0,256.99249267578125,,0.0,267.07464599609375,,0.0
270,308593750,-157.5030517578125,,0.0,131.1074981689453,,0.0,-73.45832824707031,,0.0,107.27920532226562,,0.0,256.99249267578125,,0.0,267.07464599609375,,0.0
270,308593750,-157.5030517578125,,0.0,131.1074981689453,,0.0,-73.45832824707031,,0.0,107.27920532226562,,0.0,256.99249267578125,,0.0,267.07464599609375,,0.0
270,308593750,-157.5030517578125,,0.0,131.1074981689453,,0.0,-73.45832824707031,,0.0,107.27920532226562,,0.0,256.99249267578125,,0.0,267.07464599609375,,0.0
270,308593750,-157.5030517578125,,0.0,131.1074981689453,,0.0,-73.45832824707031,,0.0,107.27920532226562,,0.0,256.99249267578125,,0.0,267.07464599609375,,0.0
270,308593750,-157.5030517578125,,0.0,131.1074981689453,,0.0,-73.45832824707031,,0.0,107.27920532226562,,0.0,256.99249267578125,,0.0,267.07464599609375,,0.0
270,308593750,-157.5030517578125,,0.0,131.1074981689453,,0.0,-73.45832824707031,,0.0,107.27920532226562,,0.0,256.99249267578125,,0.0,267.07464599609375,,0.0
270,308593750,-157.5030517578125,,0.0,131.1074981689453,,0.0,-73.45832824707031,,0.0,107.27920532226562,,0.0,256.99249267578125,,0.0,267.07464599609375,,0.0
270,308593750,-157.5030517578125,,0.0,131.1074981689453,,0.0,-73.45832824707031,,0.0,107.27920532226562,,0.0,256.99249267578125,,0.0,267.07464599609375,,0.0
270,308593750,-157.5030517578125,,0.0,131.1074981689453,,0.0,-73.45832824707031,,0.0,107.27920532226562,,0.0,256.99249267578125,,0.0,267.07464599609375,,0.0
270,308593750,-157.5030517578125,,0.0,131.1074981689453,,0.0,-73.45832824707031,,0.0,107.27920532226562,,0.0,256.99249267578125,,0.0,267.07464599609375,,0.0
270,308593750,-151.32366943359375,,0.001955149695277214,96.35729217529297,,-0.010994942858815193,-24.912918090820312,,0.01535971648991108,248.617919921875,,0.04471941664814949,102.70829772949219,,-0.04881557822227478,135.67413330078125,,-0.0415748693048954
270,308593750,-150.24810791015625,,0.0010805396595969796,96.57184600830078,,0.0002155493712052703,-24.930618286132812,,-1.7566180758876726e-05,248.25982666015625,,-0.0003601067001000047,103.53203582763672,,0.0008275454747490585,134.96395874023438,,-0.000713186920620501
270,308593750,-70.05813598632812,,0.024499889463186264,33.395347595214844,,-0.019301751628518105,83.63980865478516,,0.03317077085375786,115.1744384765625,,-0.04066076874732971,82.3619155883789,,-0.006467750761657953,-10.91998291015625,,-0.044570695608854294
270,308593750,-73.7159423828125,,-0.0024116740096360445,20.03118324279785,,-0.00881090946495533,96.6623306274414,,0.008585775271058083,101.31430053710938,,-0.009138306602835655,94.16895294189453,,0.007784397806972265,-10.684326171875,,0.00015536899445578456
270,308593750,-65.90640258789062,,0.0055912635289132595,11.148045539855957,,-0.00717276893556118,106.0067138671875,,0.007003242149949074,99.37677764892578,,6.733697227900848e-05,99.01372528076172,,0.0045240516774356365,-12.621246337890625,,-0.0010991421295329928
270,308593750,-64.60592651367188,,0.00040507561061531305,8.579044342041016,,-0.0008000711677595973,106.8856201171875,,0.00027376285288482904,108.96810150146484,,0.00298753147944808,103.70055389404297,,0.0014598686248064041,-13.66705322265625,,-0.0003256926720496267
270,308593750,-64.45892333984375,,0.0001509868452558294,8.034725189208984,,-0.00031920926994644105,107.9585952758789,,0.0008061262196861207,108.11664581298828,,-0.001297336770221591,108.4251708984375,,0.0021165497601032257,-12.25274658203125,,0.0005263895727694035
270,308593750,-60.572540283203125,,0.0012333232443779707,5.350255489349365,,-0.000851751712616533,115.27618408203125,,0.0023222046438604593,95.21856689453125,,-0.004093402065336704,91.81668853759766,,-0.0052708727307617664,-15.991455078125,,-0.001186348614282906
270,308593750,-58.531158447265625,,0.0006194989546202123,1.3262509107589722,,-0.0020027614664286375,117.82408905029297,,0.0008896009530872107,99.87464141845703,,0.0031782935839146376,89.14595794677734,,-0.0002490480546839535,-17.533203125,,-0.0006724298000335693
270,308593750,-59.26593017578125,,-0.00020213241805322468,1.4110667705535889,,2.3344829969573766e-05,118.84559631347656,,0.0002811618323903531,94.51939392089844,,-0.0014741228660568595,87.27730560302734,,-0.0005144751048646867,-17.5230712890625,,2.788908432194148e-06
270,308593750,-43.92059326171875,,0.009317723102867603,2.729945421218872,,0.000590499781537801,116.6810073852539,,-0.001286490703932941,104.48717498779297,,0.006601751782000065,88.2485122680664,,0.0012914713006466627,-19.374420166015625,,-0.000919249898288399
270,308593750,-29.122833251953125,,0.004710075911134481,2.5163044929504395,,-6.789917824789882e-05,118.01544952392578,,0.00042474811198189855,97.9216537475586,,-0.0020898475777357817,104.18050384521484,,0.005071097984910011,-28.79083251953125,,-0.0029970251489430666
270,308593750,-35.47235107421875,,-0.006282605696469545,4.304115295410156,,0.0014093407662585378,113.91706085205078,,-0.0033387860748916864,109.4542465209961,,0.009122334420681,105.18975067138672,,0.0006923233158886433,-28.907135009765625,,0.0008599065477028489
270,308593750,-53.52557373046875,,-0.013272644951939583,-1.9200680255889893,,-0.004576331004500389,115.50466918945312,,0.001167186303064227,110.90054321289062,,0.0010632929624989629,92.23002624511719,,-0.009528023190796375,-21.08001708984375,,0.0057543558068573475
270,308593750,-70.6431884765625,,-0.007497639395296574,-2.5985043048858643,,-0.0003462905588094145,113.28160095214844,,-0.0008432723698206246,107.2366714477539,,-0.0024609582033008337,81.02474975585938,,-0.0048271105624735355,-15.8663330078125,,0.002366356085985899
270,308593750,-61.801910400390625,,0.002690250054001808,0.008093595504760742,,0.0007931433501653373,112.58721923828125,,-0.00021122283942531794,110.51924133300781,,0.000998831819742918,93.21957397460938,,0.0037106776144355536,-15.86773681640625,,-5.32047465640062e-07
270,308593750,-45.553009033203125,,0.011667848564684391,1.470484733581543,,0.0009066142374649644,114.28135681152344,,0.0015523146139457822,110.15050506591797,,-0.0011078205425292253,99.27215576171875,,0.0033929639030247927,-21.458251953125,,-0.004451797343790531
270,308593750,-32.927703857421875,,0.004166162107139826,-0.5396707653999329,,-0.0006635366007685661,116.90386962890625,,0.0008653877885080874,108.23412322998047,,-0.0006323792040348053,103.76599884033203,,0.0014829005813226104,-25.339141845703125,,-0.0012809140607714653
270,308593750,-46.985504150390625,,-0.008068679831922054,-2.053586721420288,,-0.0009600294870324433,114.90375518798828,,-0.000986858969554305,115.21003723144531,,0.0034264433197677135,92.75288391113281,,-0.0074702659621834755,-24.251373291015625,,0.00042874569771811366
270,308593750,-65.62307739257812,,-0.019138861447572708,-4.471982955932617,,-0.0024832577910274267,115.3393325805664,,0.000447290571173653,107.26109313964844,,-0.008162610232830048,88.30232238769531,,-0.004569697193801403,-16.45147705078125,,0.008009691722691059
270,308593750,-70.46942138671875,,-0.001125956536270678,-4.345426559448242,,5.5186737881740555e-05,114.21559143066406,,-0.0006598347681574523,108.35327911376953,,0.0018983571790158749,84.36788177490234,,-0.0005831567104905844,-15.039306640625,,0.00019332970259711146
270,308593750,-67.25466918945312,,0.0010194117203354836,-2.708158493041992,,0.0005191848613321781,113.65814208984375,,-0.00017687465879134834,107.95227813720703,,-0.00012697272177319974,101.34162902832031,,0.005382448434829712,-19.190582275390625,,-0.0013163023395463824
270,308593750,-52.02801513671875,,0.0028770987410098314,-1.8903179168701172,,0.00015408644685521722,116.33465576171875,,0.00032987596932798624,108.55492401123047,,-5.408654033089988e-05,105.12516021728516,,0.0009361113188788295,-19.90740966796875,,0.0008015838102437556
270,308593750,-43.202392578125,,0.00583230797201395,-0.5895061492919922,,0.0008596260449849069,115.15569305419922,,-0.0007788031944073737,109.17684936523438,,0.00041099489317275584,102.65830993652344,,-0.0016304025193676353,-19.5870361328125,,0.00021171501430217177
270,308593750,-54.72418212890625,,-0.006863876711577177,-3.958646774291992,,-0.0019425851060077548,112.87846374511719,,-0.0011953494977205992,115.15066528320312,,0.002634437521919608,102.11075592041016,,-0.0003821479040198028,-20.45819091796875,,-0.0001910739520099014
270,308593750,-70.04251098632812,,-0.004840188659727573,-7.393949508666992,,-0.001085603260435164,111.72881317138672,,-0.000362972728908062,116.951171875,,0.0005688929231837392,87.23526763916016,,-0.004699861165136099,-16.62762451171875,,0.0012103163171559572
270,308593750,-67.05413818359375,,0.0017496320651844144,-5.243589401245117,,0.0011155303800478578,108.29724884033203,,-0.002309349598363042,121.95484924316406,,0.0050387331284582615,80.73928833007812,,0.0020364790689200163,-15.723724365234375,,0.0003784713626373559
270,308593750,-60.914154052734375,,0.001878726645372808,-1.1616802215576172,,0.0012489918153733015,104.12019348144531,,-0.0012781597906723619,126.88912200927734,,0.0015098019503057003,102.61239624023438,,0.0066927834413945675,-16.120635986328125,,-0.00012144925130996853
270,308593750,-51.017181396484375,,0.0031673519406467676,1.3114205598831177,,0.0006480347947217524,104.76526641845703,,0.00021758387447334826,121.33100128173828,,-0.0013465887168422341,111.39041900634766,,0.0017075963551178575,-17.41107177734375,,-0.0005088808247819543
270,308593750,-56.7705078125,,-0.004598206374794245,-0.6831934452056885,,-0.0015946970088407397,105.56465148925781,,0.0006389630725607276,122.34314727783203,,0.0008090208866633475,103.62448120117188,,-0.0062068793922662735,-21.49365234375,,-0.003263468388468027
270,308593750,-70.24636840820312,,-0.004236652050167322,-2.8292200565338135,,-0.0006258896319195628,105.16443634033203,,-0.00014397269114851952,122.5050048828125,,-6.626357844652375e-06,89.12141418457031,,-0.004692666232585907,-14.23193359375,,0.0026341471821069717
270,308593750,-75.65975952148438,,-0.0029671108350157738,-3.3164942264556885,,-0.0002673849812708795,104.14736938476562,,-0.0005577708361670375,120.78894805908203,,-0.0009401601273566484,85.39073181152344,,-0.0020451596938073635,-14.633544921875,,-0.00022042490309104323
270,308593750,-70.59255981445312,,0.001564305741339922,-1.5895349979400635,,0.0004322948516346514,102.72148132324219,,-0.0002152948873117566,126.52802276611328,,0.0010570889571681619,101.19525909423828,,0.003135133069008589,-14.505218505859375,,0.00016598618822172284
270,308593750,-61.04180908203125,,0.005902820732444525,-1.1195948123931885,,0.00029044554685242474,105.53809356689453,,0.0017408017301931977,120.60375213623047,,-0.00366132496856153,107.4381332397461,,0.0038583960849791765,-15.626617431640625,,-0.000692712259478867
270,308593750,-54.139801025390625,,0.0018403310095891356,0.6085411310195923,,0.00043209202704019845,107.23223114013672,,0.00043316319352015853,116.5572738647461,,-0.0008975474047474563,101.34943389892578,,-0.0016249788459390402,-18.070556640625,,-0.0006896279519423842
