MCLusardi/Hand-Clap-Robot/new_data/left_five/demo_2/left_joint_trajectory_demo_2.csv
stamp_sec,stamp_nanosec,shoulder_joint_position,shoulder_joint_velocity,shoulder_joint_effort,upper_arm_joint_position,upper_arm_joint_velocity,upper_arm_joint_effort,forearm_joint_position,forearm_joint_velocity,forearm_joint_effort,wrist_1_joint_position,wrist_1_joint_velocity,wrist_1_joint_effort,wrist_2_joint_position,wrist_2_joint_velocity,wrist_2_joint_effort,wrist_3_joint_position,wrist_3_joint_velocity,wrist_3_joint_effort
225,674484252,150.80557250976562,,0.0002580778382252,73.19507598876953,,-0.0003155848826281,69.59217834472656,,0.0002904652210418,61.21760177612305,,0.0004513579478953,-98.95895385742188,,0.0012262307573109,7.704307556152344,,7.178603482316248e-06
225,674484252,151.63352966308594,,0.0002833752951119,73.52577209472656,,0.00011318414181,69.37334442138672,,-7.480621570721269e-05,61.3985595703125,,6.193487206473947e-05,-99.56024169921876,,-0.0002058667159872,8.227638244628906,,0.0001791147224139
225,674484252,151.12542724609375,,-0.0005473940400406,78.505615234375,,0.0053573506884276,64.90480041503906,,-0.0048080384731292,59.67259216308594,,-0.0018566251965239,-98.1488037109375,,0.0015184350777417,4.0213236808776855,,-0.0045258766040205
225,674484252,146.28286743164062,,-0.0021133434493094,84.85728454589844,,0.0027714413590729,57.73637771606445,,-0.0031280531547963,58.20747375488281,,-0.0006393435178324,-90.3585205078125,,0.003399153240025,-4.016931533813477,,-0.0035072341561317
225,674484252,144.50216674804688,,-0.001082929666154,93.39415740966795,,0.0051937182433903,46.931915283203125,,-0.00657310616225,59.2253303527832,,0.0006192496512085,-92.03976440429688,,-0.0010233578504994,-6.320611953735352,,-0.0014010003069415
225,674484252,144.2118377685547,,-9.509069786872716e-05,98.01050567626952,,0.0015123619232326,39.49105453491211,,-0.0024374152999371,67.90223693847656,,0.0028426425997167,-94.494140625,,-0.0008042611298151,-4.551630020141602,,0.000579536310397
225,674484252,145.1353759765625,,0.0003002383455168,99.56103515625,,0.0005040706600993,39.41143798828125,,-2.614823097246699e-05,66.6884536743164,,-0.0003944972413592,-91.739990234375,,0.0008953637443482,-6.812402725219727,,-0.0007349926745519
225,674484252,145.28321838378906,,0.0001609660102985,99.0400161743164,,-0.0005673000123351,41.36812210083008,,0.0021303195971995,65.25029754638672,,-0.0015648341504856,-90.17385864257812,,0.0017051050672307,-5.597620010375977,,0.0013225810835137
225,674484252,144.99009704589844,,-9.990814578486606e-05,96.43748474121094,,-0.0008849008008837,45.1156120300293,,0.0012745572021231,63.421749114990234,,-0.0006220471695996,-90.55233764648438,,-0.0001284533354919,-4.408655166625977,,0.000404378370149
