MCLusardi/Hand-Clap-Robot/new_data/left_five/demo_2/right_joint_trajectory_demo_2.csv
stamp_sec,stamp_nanosec,shoulder_joint_position,shoulder_joint_velocity,shoulder_joint_effort,upper_arm_joint_position,upper_arm_joint_velocity,upper_arm_joint_effort,forearm_joint_position,forearm_joint_velocity,forearm_joint_effort,wrist_1_joint_position,wrist_1_joint_velocity,wrist_1_joint_effort,wrist_2_joint_position,wrist_2_joint_velocity,wrist_2_joint_effort,wrist_3_joint_position,wrist_3_joint_velocity,wrist_3_joint_effort
225,674484252,-160.76742553710938,,-0.0004156770883128,103.91526794433594,,0.0002585424226708,-69.58063507080078,,0.0011330061824992,122.92179870605467,,-0.003716364968568,117.29367065429688,,0.0013284941669553,-12.140625,,-0.0019535645842552
225,674484252,-161.2918701171875,,-0.000179534923518,103.64512634277344,,-9.216126636601985e-05,-69.09320831298828,,0.0001668248878559,123.81055450439452,,0.000304185465211,118.45204162597656,,0.0003964636125601,-11.26483154296875,,0.0002997482370119
225,674484252,-162.41064453125,,-0.0012038907734677,103.11773681640624,,-0.0005680859321728,-69.00235748291016,,9.774264617590234e-05,125.71597290039062,,0.0020498619414865,121.74909210205078,,0.0035469953436404,-10.245025634765623,,0.0010971138253808
225,674484252,-163.7874755859375,,-0.0006004336173646,102.31857299804688,,-0.000348663481418,-67.84305572509766,,0.0005058409878984,124.53855895996094,,-0.0005134584498591,125.60903930664062,,0.001684219460003,-11.412139892578123,,-0.0005088808247819
225,674484252,-164.86666870117188,,-0.0006563531933352,101.90482330322266,,-0.0002521162095945,-66.71402740478516,,0.0006868829368613,123.57077026367188,,-0.000588271243032,127.36237335205078,,0.0010667069582268,-12.32598876953125,,-0.0005563577869907
225,674484252,-164.86376953125,,9.487588954470992e-07,101.97884368896484,,2.4249291527667083e-05,-66.27347564697266,,0.0001443299406673,122.9220962524414,,-0.0002125219907611,126.69886016845705,,-0.0002171046653529,-13.225006103515623,,-0.0002944374864455
225,674484252,-164.491943359375,,0.0001208822795888,102.16399383544922,,6.019244756316766e-05,-66.1918716430664,,2.653015144460369e-05,122.26246643066406,,-0.0002143018064089,125.42219543457033,,-0.000414961046772,-13.658966064453123,,-0.0001409730612067
225,674484252,-164.4173583984375,,8.120432903524488e-05,102.27488708496094,,0.0001207282330142,-66.17594146728516,,1.734143734211102e-05,121.83177947998048,,-0.0004683080478571,125.243408203125,,-0.000194176507648,-14.316436767578123,,-0.0007157879299484
225,674484252,-164.30923461914062,,3.6773300962522626e-05,102.6280288696289,,0.0001201067498186,-66.29984283447266,,-4.222308780299499e-05,121.4397430419922,,-0.000133210880449,124.89100646972656,,-0.0001201276609208,-14.8763427734375,,-0.0001903012307593
