MCLusardi/Hand-Clap-Robot/new_data/front_five/demo_1/left_joint_trajectory_demo_1.csv
stamp_sec,stamp_nanosec,shoulder_joint_position,shoulder_joint_velocity,shoulder_joint_effort,upper_arm_joint_position,upper_arm_joint_velocity,upper_arm_joint_effort,forearm_joint_position,forearm_joint_velocity,forearm_joint_effort,wrist_1_joint_position,wrist_1_joint_velocity,wrist_1_joint_effort,wrist_2_joint_position,wrist_2_joint_velocity,wrist_2_joint_effort,wrist_3_joint_position,wrist_3_joint_velocity,wrist_3_joint_effort
761,17028808,25.743953704833984,,-0.0002058322570519,43.32455825805664,,-0.0001151601682067,65.39693450927734,,0.0001086451738956,2.497184038162231,,0.0003817675751633,25.250288009643555,,2.7001649868907407e-05,64.11863708496094,,-0.0004096789925824
761,17028808,25.814266204833984,,2.8031337933498435e-05,43.14859390258789,,-7.040441414574161e-05,65.56889343261719,,6.855280662421137e-05,1.74312424659729,,-0.000300438638078,25.788515090942383,,0.0002145713078789,65.8309097290039,,0.0006826173048466
761,17028808,26.42136001586914,,0.0002003996487474,43.22378158569336,,9.387254249304532e-05,65.66777801513672,,-5.233260890236125e-05,0.0993019640445709,,-0.0005554392701014,25.477563858032227,,-0.0001284527679672,67.38825225830078,,0.0005247013177722
761,17028808,26.921974182128903,,0.0003025496553163,43.755767822265625,,0.0003215089091099,64.91048431396484,,-0.0004575653292704,-1.3371684551239014,,-0.0008686344372108,25.017030715942383,,-0.0002779207425191,68.87256622314453,,0.0008970547933131
761,17028808,27.179807662963867,,0.0001001077689579,44.05136489868164,,8.665752102388069e-05,64.56230926513672,,-7.091817678883672e-05,-2.3510234355926514,,-0.0003135330043733,24.857467651367188,,1.5974452253431082e-05,69.7115707397461,,0.0002486729063093
761,17028808,27.209453582763672,,1.749372313497588e-05,44.15412902832031,,6.064060653443448e-05,64.27259826660156,,-0.0001712736411718,-2.129160642623902,,0.0001309165090788,25.285232543945312,,0.000252414640272,69.33049774169922,,-0.0002249256358481
761,17028808,26.731365203857425,,-9.310322639066726e-05,43.72328567504883,,-0.0001648702891543,64.94824981689453,,0.000327907007886,0.4122699201107025,,0.0006553521379828,27.26894760131836,,0.0003779723483603,66.99038696289062,,-0.0005256452714093
761,17028808,26.81977272033691,,2.8225349524291232e-05,43.348541259765625,,-0.0001194628712255,65.6680908203125,,0.000229817291256,1.067418932914734,,0.0002091638452839,26.979549407958984,,-9.26674547372386e-05,66.19677734375,,-0.0002534399100113
761,17028808,26.7989444732666,,1.0822571312019136e-05,43.298152923583984,,1.6527452316950075e-05,65.89998626708984,,9.529493581794668e-06,0.7794495820999146,,-3.764737994060851e-05,26.882970809936523,,-2.2588426872971468e-05,66.36053466796875,,5.25088507856708e-05
761,17028808,27.017574310302734,,0.0002383761893725,43.31050491333008,,1.346798126178328e-05,66.30512237548828,,0.000441721495008,0.2339509576559066,,-0.0005948104080744,26.36429977416992,,-0.0005662137409672,67.25338745117188,,0.000973492686171
761,17028808,27.562660217285156,,9.77342133410275e-05,43.43046951293945,,5.469959432957694e-05,66.51913452148438,,-2.7896672690985724e-05,-0.0496029928326606,,-5.3726926125818864e-05,25.40117645263672,,-0.0001146863141912,67.9191665649414,,0.0001063923918991
761,17028808,28.427875518798828,,0.0005736843449994,43.73089218139648,,0.0001991961325984,66.16078186035156,,-0.00023767039238,0.2121192514896392,,0.0001735358237056,24.390560150146484,,-0.000670114532113,67.07416534423828,,-0.0005599746364168
761,17028808,28.772018432617188,,7.816654397174716e-05,44.08206558227539,,0.0001553509937366,65.44068145751953,,-0.0003134362632408,-0.480661928653717,,-0.0003942873154301,23.485994338989254,,-0.0002979305863846,67.53255462646484,,0.0003409129858482
761,17028808,28.928966522216797,,0.0001107089410652,44.610469818115234,,0.0003727299626916,64.22124481201172,,-0.0008596739498898,-0.933420717716217,,-0.0003194484161213,23.371063232421875,,-8.140385034494102e-05,68.54853820800781,,0.0007166631403379
761,17028808,28.94617462158203,,-2.63782603724394e-05,44.830345153808594,,-7.63581192586571e-06,63.276554107666016,,-0.0001166196743724,0.5232826471328735,,0.0004652488860301,22.95561981201172,,-0.0001235613162862,68.33050537109375,,-0.0001756236742949
761,17028808,27.079326629638672,,-0.0021442172583192,45.15348052978515,,0.0003710273886099,61.60346984863281,,-0.0019213634077459,9.904781341552734,,0.0107720177620649,21.12982940673828,,-0.0020960327237844,59.27462387084961,,-0.0103978486731648
761,17028808,21.62087059020996,,-0.0007627695449627,43.71306228637695,,-0.0002465896250214,59.703086853027344,,-3.744310743059032e-05,35.5400390625,,0.0024965761695057,19.25847816467285,,0.0004655847733374,30.4894962310791,,-0.0023038210347294
761,17028808,12.458210945129396,,-0.0061008729971945,43.972896575927734,,0.0001730173971736,50.93975830078125,,-0.0058354148641228,66.0641098022461,,0.0203249938786029,26.403480529785156,,0.0047576269134879,8.575213432312012,,-0.0145920300856232
761,17028808,4.809885501861572,,-0.0028429182711988,46.69362258911133,,0.0012707519344985,38.4843864440918,,-0.004793700762093,85.81848907470703,,0.0059616575017571,33.13750076293945,,0.0028338360134512,0.6898868680000305,,-0.0008676934521645
761,17028808,-3.0246329307556152,,-0.0031374334357678,53.80656433105469,,0.0028482372872531,20.7171630859375,,-0.0071143629029393,93.59393310546876,,0.0031135238241404,43.85799789428711,,0.0042928117327392,7.599288463592529,,0.0027667332906275
761,17028808,-5.58173131942749,,0.0,62.104339599609375,,0.0,2.936673164367676,,0.0,99.51461029052734,,0.0,46.96006393432617,,0.0,10.816612243652344,,0.0
761,17028808,-5.58173131942749,,0.0,62.104339599609375,,0.0,2.936673164367676,,0.0,99.51461029052734,,0.0,46.96006393432617,,0.0,10.816612243652344,,0.0
761,17028808,-5.58173131942749,,0.0,62.104339599609375,,0.0,2.936673164367676,,0.0,99.51461029052734,,0.0,46.96006393432617,,0.0,10.816612243652344,,0.0
761,17028808,-14.974004745483398,,-0.0076006869785487,62.33853912353515,,0.0001895042805699,-5.046756267547607,,-0.0064603006467223,91.47955322265624,,-0.0065013319253921,42.75673294067383,,-0.0034013499971479,20.689624786376953,,0.0079890256747603
